!!!!SEGMENT: pl-cz--iii-105--009_dankowski-adalbert--missa-d-benedictus.krn
!!!cenid: 18xx:749
!!!COM: Dankowski, Adalbert
!!!COM-rismID: pe30000793
!!!CDT: ~1760-~1836
!!!CNT: Polish
!!!OPR: Missa D
!!!OTL: Benedictus
!!!OMV: 009
!!!PDT:
!!!AGN: Sacred; Mass
!!!SMS-siglum: PL-CZ
!!!SMS-shelfmark: III-105
!!!SMS-shelfwork: 001-009 M
!!!SMS-variant:
!!!SMS-altvar:
!!!NIFC-rismSourceID: 300000109
!!!NIFC-rismChildID: 300000109
!!!NIFC-islandoraID: pl-cz:34145
!!!URL-pdf-islandora: https://repozytorium.nifc.pl/islandora/object/pl-cz%3A34145/datastream/PDF/view
!!!URL-scan: https://polish.musicsources.pl/pl/lokalizacje/galeria/rekopisy/6823/1 @EN{Scan on Polish Music Sources Website} @PL{Skany w portalu Dziedzictwo Muzyki Polskiej w otwartym dostępie}
!!!ONB-nifc: UWAGA: części Mszy: Kyrie, Gloria, qvi tollis, Quoniam, Cum Sancto, Patrem, Et resurrexit, Sanctus, Benedictus, Agnus Dei, Dona nobis
!!!AIN: 1 alto 1 bass 2 clars 2 cor 2 oboe 1 organ 1 soprn 1 tenor 1 timpa 1 viola 2 violn
!!!key: G
!!!OMD:
!!!OMD-mod: Andante
**kern	**fba	**dynam	**kern	**dynam	**kern	**kern	**dynam	**kern	**kern	**kern	**kern	**text	**kern	**kern	**kern	**kern	**kern	**kern	**kern
*	*	*	*group4	*	*group4	*group4	*	*group3	*group3	*group3	*group3	*	*	*group2	*group2	*group1	*group1	*group1	*group1
*part15	*part15	*part15	*part14	*part14	*part13	*part12	*part12	*part11	*part10	*part9	*part8	*part8	*part7	*part6	*part5	*part4	*part3	*part2	*part1
*staff15	*staff15	*staff15	*staff14	*staff14	*staff13	*staff12	*staff12	*staff11	*staff10	*staff9	*staff8	*staff8	*staff7	*staff6	*staff5	*staff4	*staff3	*staff2	*staff1
*I"Organo	*	*	*I"Viola Obligatto	*	*I"Violino Secundo	*I"Violino Primo	*	*I"Baſso	*I"Tenore	*I"Alto.	*I"Canto	*	*I"Timpano do D. A.	*I"Cornu Secundo ex D	*I"Cornu Primo ex D	*I"Clarinetto Secundo Ex A:	*I"Clarinetto Primo Ex A:	*I"Oboe Secundo Oblig:	*I"Oboe Primo Oblig:
*	*	*	*mI"Viola	*	*mI"Violino II	*mI"Violino I	*	*mI"Basso	*	*	*mI"Soprano	*	*mI"Timpani in D. A.	*mI"Corno II in D	*mI"Corno I in D	*mI"Clarinetto II in A	*mI"Clarinetto I in A	*mI"Oboe II	*mI"Oboe I
*I'org	*	*	*I'vla	*	*I'vl 2	*I'vl 1	*	*I'B	*I'T	*I'A	*I'S	*	*I'timp	*I'cor 2 in D	*I'cor 1 in D	*I'cl 2 in A	*I'cl 1 in A	*I'ob 2	*I'ob 1
*Iorgan	*	*	*Iviola	*	*Ivioln	*Ivioln	*	*Ibass	*Itenor	*Ialto	*Isoprn	*	*Itimpa	*Icor	*Icor	*Iclars	*Iclars	*Ioboe	*Ioboe
*ICklav	*	*	*ICstr	*	*ICstr	*ICstr	*	*ICvox	*ICvox	*ICvox	*ICvox	*	*ICidio	*ICbras	*ICbras	*ICww	*ICww	*ICww	*ICww
*IGcont	*	*	*	*	*	*	*	*	*	*	*IGsolo	*	*	*	*	*	*	*	*
*	*	*	*	*	*	*	*	*tacet	*tacet	*tacet	*	*	*tacet	*tacet	*tacet	*tacet	*tacet	*tacet	*tacet
*clefF4	*	*	*clefC3	*	*clefG2	*clefG2	*	*clefF4	*clefC4	*clefC3	*clefC1	*	*clefF4	*clefG2	*clefG2	*clefG2	*clefG2	*clefG2	*clefG2
*	*	*	*	*	*	*	*	*mclefF4	*mclefGv2	*mclefG2	*mclefG2	*	*	*	*	*	*	*	*
*	*	*	*	*	*	*	*	*	*	*	*	*	*	*ITrd6c10	*ITrd6c10	*ITrd2c3	*ITrd2c3	*	*
*k[f#]	*	*	*k[f#]	*	*k[f#]	*k[f#]	*	*k[f#]	*k[f#]	*k[f#]	*k[f#]	*	*k[f#]	*k[f#]	*k[f#]	*k[f#]	*k[f#]	*k[f#]	*k[f#]
*G:	*	*	*G:	*	*G:	*G:	*	*G:	*G:	*G:	*G:	*	*G:	*G:	*G:	*G:	*G:	*G:	*G:
*M3/4	*	*	*M3/4	*	*M3/4	*M3/4	*	*M3/4	*M3/4	*M3/4	*M3/4	*	*M3/4	*M3/4	*M3/4	*M3/4	*M3/4	*M3/4	*M3/4
=1	=1	=1	=1	=1	=1	=1	=1	=1	=1	=1	=1	=1	=1	=1	=1	=1	=1	=1	=1
*2\right	*	*	*2\right	*	*	*2\right	*	*	*	*	*	*	*	*	*	*	*	*	*
!	!	!	!	!	!	!	!	!	!	!	!LO:TX:b:t=20:color=grey:mod=	!	!	!	!	!	!	!	!
!LO:TX:a:i:t=Solo&colon;:mod=	!	!	!LO:TX:a:i:t=Solo&colon;:mod=	!	!	!LO:TX:a:i:t=Cantabile Solo&colon; andan&colon;:mod=	!	!	!	!	!LO:TX:a:i:t=Solo&colon;:mod=	!	!	!	!	!	!	!	!
!LO:TX:a:i:rj:t=andan&colon;:mod=	!	!	!LO:TX:a:i:rj:t=andan&colon;:mod=	!	!LO:TX:a:i:t=Benedictus Tacet:mod=	!	!	!LO:TX:a:i:t=Benedictus Tacet:mod=	!LO:TX:a:i:t=Benedictus Tacet:mod=	!LO:TX:a:i:t=Benedictus Tacet:mod=	!LO:TX:a:i:rj:t=andante:mod=	!	!LO:TX:a:i:t=Benedictus Tacet.:mod=	!LO:TX:a:i:t=Benedictus Tacet:mod=	!LO:TX:a:i:t=Benedictus Tacet:mod=	!LO:TX:a:i:t=Benedictus Tacet:mod=	!LO:TX:a:i:t=Bened&colon; Tacet:mod=	!LO:TX:a:i:t=Benedictus Tacet:mod=	!LO:TX:a:i:t=Benedictus Tacet:mod=
!	!	!	!	!	!	!	!	!	!	!	!LO:N:vis=00	!	!	!	!	!	!	!	!
8G\L	.	.	8B/L	.	2.ryy	2.g/	.	2.ryy	2.ryy	2.ryy	0.r	.	2.ryy	2.ryy	2.ryy	2.ryy	2.ryy	2.ryy	2.ryy
8G\	.	.	8B/	.	.	.	.	.	.	.	.	.	.	.	.	.	.	.	.
8G\	.	.	8B/	.	.	.	.	.	.	.	.	.	.	.	.	.	.	.	.
8G\	.	.	8B/	.	.	.	.	.	.	.	.	.	.	.	.	.	.	.	.
8G\	.	.	8B/	.	.	.	.	.	.	.	.	.	.	.	.	.	.	.	.
8G\J	.	.	8B/J	.	.	.	.	.	.	.	.	.	.	.	.	.	.	.	.
=2	=2	=2	=2	=2	=2	=2	=2	=2	=2	=2	=2	=2	=2	=2	=2	=2	=2	=2	=2
*tremolo	*	*	*tremolo	*	*	*	*	*	*	*	*	*	*	*	*	*	*	*	*
8G\L	.	.	8b\L	.	2.ryy	2gg\	.	2.ryy	2.ryy	2.ryy	.	.	2.ryy	2.ryy	2.ryy	2.ryy	2.ryy	2.ryy	2.ryy
8G\	.	.	8b\	.	.	.	.	.	.	.	.	.	.	.	.	.	.	.	.
8G\	.	.	8b\	.	.	.	.	.	.	.	.	.	.	.	.	.	.	.	.
8G\	.	.	8b\	.	.	.	.	.	.	.	.	.	.	.	.	.	.	.	.
8G\	.	.	8b\	.	.	(>16gg\LL	.	.	.	.	.	.	.	.	.	.	.	.	.
.	.	.	.	.	.	16aa\	.	.	.	.	.	.	.	.	.	.	.	.	.
!	!	!	!	!	!	!LO:MO:mod=16gg	!	!	!	!	!	!	!	!	!	!	!	!	!
8G\J	.	.	8b\J	.	.	16gg\)	.	.	.	.	.	.	.	.	.	.	.	.	.
!	!	!	!	!	!	!LO:MO:mod=16ffnJJ)	!	!	!	!	!	!	!	!	!	!	!	!	!
.	.	.	.	.	.	16ffn\JJ	.	.	.	.	.	.	.	.	.	.	.	.	.
=3	=3	=3	=3	=3	=3	=3	=3	=3	=3	=3	=3	=3	=3	=3	=3	=3	=3	=3	=3
8G\L	6 4	.	8cc\L	.	2.ryy	(>4.ee\	.	2.ryy	2.ryy	2.ryy	.	.	2.ryy	2.ryy	2.ryy	2.ryy	2.ryy	2.ryy	2.ryy
8G\	.	.	8cc\	.	.	.	.	.	.	.	.	.	.	.	.	.	.	.	.
8G\	.	.	8cc\	.	.	.	.	.	.	.	.	.	.	.	.	.	.	.	.
8G\	.	.	8cc\	.	.	16dd\LL	.	.	.	.	.	.	.	.	.	.	.	.	.
.	.	.	.	.	.	16ee\JJ)	.	.	.	.	.	.	.	.	.	.	.	.	.
!	!	!	!	!	!	!LO:MO:mod=(16aaLL	!	!	!	!	!	!	!	!	!	!	!	!	!
8G\	.	.	8cc\	.	.	16aa\LL	.	.	.	.	.	.	.	.	.	.	.	.	.
.	.	.	.	.	.	16gg\	.	.	.	.	.	.	.	.	.	.	.	.	.
8G\J	.	.	8cc\J	.	.	16ff#\	.	.	.	.	.	.	.	.	.	.	.	.	.
!	!	!	!	!	!	!LO:MO:mod=16eeJJ)	!	!	!	!	!	!	!	!	!	!	!	!	!
.	.	.	.	.	.	16ee\JJ	.	.	.	.	.	.	.	.	.	.	.	.	.
=4	=4	=4	=4	=4	=4	=4	=4	=4	=4	=4	=4	=4	=4	=4	=4	=4	=4	=4	=4
8G\L	5 3	.	8b\L	.	2.ryy	(>16ee\LL	.	2.ryy	2.ryy	2.ryy	.	.	2.ryy	2.ryy	2.ryy	2.ryy	2.ryy	2.ryy	2.ryy
.	.	.	.	.	.	16dd\	.	.	.	.	.	.	.	.	.	.	.	.	.
8G\	.	.	8b\	.	.	16cc\	.	.	.	.	.	.	.	.	.	.	.	.	.
.	.	.	.	.	.	16dd\JJ)	.	.	.	.	.	.	.	.	.	.	.	.	.
8G\	.	.	8b\	.	.	4dd\	.	.	.	.	.	.	.	.	.	.	.	.	.
8G\	.	.	8b\	.	.	.	.	.	.	.	.	.	.	.	.	.	.	.	.
8G\	.	.	8b\	.	.	8r	.	.	.	.	.	.	.	.	.	.	.	.	.
8G\J	.	.	8b\J	.	.	8dd\	.	.	.	.	.	.	.	.	.	.	.	.	.
=5	=5	=5	=5	=5	=5	=5	=5	=5	=5	=5	=5	=5	=5	=5	=5	=5	=5	=5	=5
!	!	!	!	!	!	!	!	!	!	!	!LO:N:vis=00	!	!	!	!	!	!	!	!
8F#\L	6 5	.	8a\L	.	2.ryy	2cc\	.	2.ryy	2.ryy	2.ryy	0.r	.	2.ryy	2.ryy	2.ryy	2.ryy	2.ryy	2.ryy	2.ryy
8F#\	.	.	8a\	.	.	.	.	.	.	.	.	.	.	.	.	.	.	.	.
8F#\	.	.	8a\	.	.	.	.	.	.	.	.	.	.	.	.	.	.	.	.
8F#\	.	.	8a\	.	.	.	.	.	.	.	.	.	.	.	.	.	.	.	.
8F#\	.	.	8a\	.	.	(>16aa\LL	.	.	.	.	.	.	.	.	.	.	.	.	.
.	.	.	.	.	.	16ff#\	.	.	.	.	.	.	.	.	.	.	.	.	.
8F#\J	.	.	8a\J	.	.	16dd\	.	.	.	.	.	.	.	.	.	.	.	.	.
.	.	.	.	.	.	16cc\JJ)	.	.	.	.	.	.	.	.	.	.	.	.	.
*Xtremolo	*	*	*	*	*	*	*	*	*	*	*	*	*	*	*	*	*	*	*
=6	=6	=6	=6	=6	=6	=6	=6	=6	=6	=6	=6	=6	=6	=6	=6	=6	=6	=6	=6
8G\L	.	.	8d\L	.	2.ryy	(>16cc\LL	.	2.ryy	2.ryy	2.ryy	.	.	2.ryy	2.ryy	2.ryy	2.ryy	2.ryy	2.ryy	2.ryy
.	.	.	.	.	.	16b\	.	.	.	.	.	.	.	.	.	.	.	.	.
8G\	x 6_	.	8d\	.	.	16a\	.	.	.	.	.	.	.	.	.	.	.	.	.
.	.	.	.	.	.	16b\JJ)	.	.	.	.	.	.	.	.	.	.	.	.	.
8B\	.	.	8d\	.	.	(>4.gg\	.	.	.	.	.	.	.	.	.	.	.	.	.
8B\	.	.	8d\	.	.	.	.	.	.	.	.	.	.	.	.	.	.	.	.
8B\	6 5	.	8d\	.	.	.	.	.	.	.	.	.	.	.	.	.	.	.	.
8B\J	x n	.	8d\J	.	.	8ffn\)	.	.	.	.	.	.	.	.	.	.	.	.	.
!	!	!	!	!	!	!LO:LB:g=original	!	!	!	!	!	!	!	!	!	!	!	!	!
=7	=7	=7	=7	=7	=7	=7	=7	=7	=7	=7	=7	=7	=7	=7	=7	=7	=7	=7	=7
*	*	*	*	*	*	*Xtuplet	*	*	*	*	*	*	*	*	*	*	*	*	*
8c\L	3_	.	8e\L	.	2.ryy	(>24ee\LL	.	2.ryy	2.ryy	2.ryy	.	.	2.ryy	2.ryy	2.ryy	2.ryy	2.ryy	2.ryy	2.ryy
.	.	.	.	.	.	24cc\	.	.	.	.	.	.	.	.	.	.	.	.	.
.	.	.	.	.	.	24b\JJ)	.	.	.	.	.	.	.	.	.	.	.	.	.
8c\	.	.	8e\	.	.	(<24a/LL	.	.	.	.	.	.	.	.	.	.	.	.	.
.	.	.	.	.	.	24g#X/	.	.	.	.	.	.	.	.	.	.	.	.	.
.	.	.	.	.	.	24a/JJ)	.	.	.	.	.	.	.	.	.	.	.	.	.
*	*	*	*	*	*	*tuplet	*	*	*	*	*	*	*	*	*	*	*	*	*
!	!	!	!	!	!	!LO:TUP:b	!	!	!	!	!	!	!	!	!	!	!	!	!
8c\	6_	.	8e\	.	.	(<24e/LL	.	.	.	.	.	.	.	.	.	.	.	.	.
.	.	.	.	.	.	24cc/	.	.	.	.	.	.	.	.	.	.	.	.	.
.	.	.	.	.	.	24b/JJ)	.	.	.	.	.	.	.	.	.	.	.	.	.
*	*	*	*	*	*	*Xtuplet	*	*	*	*	*	*	*	*	*	*	*	*	*
8c\	.	.	8e\	.	.	(<24a/LL	.	.	.	.	.	.	.	.	.	.	.	.	.
.	.	.	.	.	.	24g#/	.	.	.	.	.	.	.	.	.	.	.	.	.
.	.	.	.	.	.	24a/JJ)	.	.	.	.	.	.	.	.	.	.	.	.	.
8c#X\	5	.	8e\	.	.	(>24ee\LL	.	.	.	.	.	.	.	.	.	.	.	.	.
.	.	.	.	.	.	24dd\	.	.	.	.	.	.	.	.	.	.	.	.	.
!	!	!	!	!	!	!LO:SIC:s=24cc#\JJ)	!	!	!	!	!	!	!	!	!	!	!	!	!
.	.	.	.	.	.	24cc\JJ)	.	.	.	.	.	.	.	.	.	.	.	.	.
8c#\J	.	.	8e\J	.	.	(<24b/LL	.	.	.	.	.	.	.	.	.	.	.	.	.
.	.	.	.	.	.	24a/	.	.	.	.	.	.	.	.	.	.	.	.	.
.	.	.	.	.	.	24gn/JJ)	.	.	.	.	.	.	.	.	.	.	.	.	.
*	*	*	*Xtremolo	*	*	*	*	*	*	*	*	*	*	*	*	*	*	*	*
=8	=8	=8	=8	=8	=8	=8	=8	=8	=8	=8	=8	=8	=8	=8	=8	=8	=8	=8	=8
4d\	4	.	4B/	.	2.ryy	8g/L	.	2.ryy	2.ryy	2.ryy	.	.	2.ryy	2.ryy	2.ryy	2.ryy	2.ryy	2.ryy	2.ryy
.	.	.	.	.	.	(<32a/LL	.	.	.	.	.	.	.	.	.	.	.	.	.
.	.	.	.	.	.	32g/	.	.	.	.	.	.	.	.	.	.	.	.	.
.	.	.	.	.	.	32f#/	.	.	.	.	.	.	.	.	.	.	.	.	.
.	.	.	.	.	.	32g/JJJ)	.	.	.	.	.	.	.	.	.	.	.	.	.
!	!	!	!LO:TX:a:t=P:problem=mixed beam	!	!	!	!	!	!	!	!	!	!	!	!	!	!	!	!
8r	.	.	8A/L	.	.	4f#/	.	.	.	.	.	.	.	.	.	.	.	.	.
16D\LL	3	.	16f#\L	.	.	.	.	.	.	.	.	.	.	.	.	.	.	.	.
!LO:SIC:s=16C#\J	!	!	!	!	!	!	!	!	!	!	!	!	!	!	!	!	!	!	!
!LO:MO:mod=16C#JJ\	!	!	!	!	!	!	!	!	!	!	!	!	!	!	!	!	!	!	!
16C\J	.	.	16e\JJ	.	.	.	.	.	.	.	.	.	.	.	.	.	.	.	.
!LO:MO:mod=8DL\	!	!	!	!	!	!	!	!	!	!	!	!	!	!	!	!	!	!	!
8D\	.	.	8f#\L	.	.	4r	.	.	.	.	.	.	.	.	.	.	.	.	.
8E\J	.	.	8g\J	.	.	.	.	.	.	.	.	.	.	.	.	.	.	.	.
!	!	!	!LO:LB:g=original	!	!	!	!	!	!	!	!	!	!	!	!	!	!	!	!
=9	=9	=9	=9	=9	=9	=9	=9	=9	=9	=9	=9	=9	=9	=9	=9	=9	=9	=9	=9
!	!	!	!	!	!	!LO:MO:mod=!LO&colon;TX&colon;a&colon;i&colon;t= dolce	!	!	!	!	!	!	!	!	!	!	!	!	!
!	!	!	!	!	!	!LO:TX:a:i:rj:t=dol&colon;	!	!	!	!	!	!	!	!	!	!	!	!	!
.	.	.	.	.	.	16qqdd/	.	.	.	.	.	.	.	.	.	.	.	.	.
!LO:MO:mod=(8.F#L	!	!	!	!	!	!	!	!	!	!	!LO:N:vis=00	!	!	!	!	!	!	!	!
8.F#\L	6_ 5	.	(>8.a\L	.	2.ryy	2.ddd\	.	2.ryy	2.ryy	2.ryy	0.r	.	2.ryy	2.ryy	2.ryy	2.ryy	2.ryy	2.ryy	2.ryy
!LO:MO:mod=16EK)	!	!	!	!	!	!	!	!	!	!	!	!	!	!	!	!	!	!	!
16E\Jk	X 3	.	16g\K)	.	.	.	.	.	.	.	.	.	.	.	.	.	.	.	.
!LO:LB:g=original	!	!	!	!	!	!	!	!	!	!	!	!	!	!	!	!	!	!	!
!LO:MO:mod=8F#	!	!	!	!	!	!	!	!	!	!	!	!	!	!	!	!	!	!	!
8F#\L	6_ 3	.	8a|\	.	.	.	.	.	.	.	.	.	.	.	.	.	.	.	.
8G\	_ 3	.	8b|\	.	.	.	.	.	.	.	.	.	.	.	.	.	.	.	.
8A\	_ 3	.	8cc|\	.	.	.	.	.	.	.	.	.	.	.	.	.	.	.	.
8G\J	_ 3	.	8b|\J	.	.	.	.	.	.	.	.	.	.	.	.	.	.	.	.
=10	=10	=10	=10	=10	=10	=10	=10	=10	=10	=10	=10	=10	=10	=10	=10	=10	=10	=10	=10
!LO:MO:mod=(8.F#L	!	!	!	!	!	!	!	!	!	!	!	!	!	!	!	!	!	!	!
8.F#\L	_ 3	.	(>8.a\L	.	2.ryy	4dddT\	.	2.ryy	2.ryy	2.ryy	.	.	2.ryy	2.ryy	2.ryy	2.ryy	2.ryy	2.ryy	2.ryy
!LO:MO:mod=16GJk)	!	!	!	!	!	!	!	!	!	!	!	!	!	!	!	!	!	!	!
16G\Jk	_ 3	.	16b\Jk)	.	.	.	.	.	.	.	.	.	.	.	.	.	.	.	.
4F#\	X 3	.	4a|\	.	.	(>16eee\LL	.	.	.	.	.	.	.	.	.	.	.	.	.
.	.	.	.	.	.	16ddd\	.	.	.	.	.	.	.	.	.	.	.	.	.
.	.	.	.	.	.	16ccc#X\	.	.	.	.	.	.	.	.	.	.	.	.	.
.	.	.	.	.	.	16ddd\JJ)	.	.	.	.	.	.	.	.	.	.	.	.	.
4r	.	.	4r	.	.	(>16ccc#\LL	.	.	.	.	.	.	.	.	.	.	.	.	.
.	.	.	.	.	.	16ddd\	.	.	.	.	.	.	.	.	.	.	.	.	.
.	.	.	.	.	.	16eee\	.	.	.	.	.	.	.	.	.	.	.	.	.
.	.	.	.	.	.	16ddd\JJ)	.	.	.	.	.	.	.	.	.	.	.	.	.
=11	=11	=11	=11	=11	=11	=11	=11	=11	=11	=11	=11	=11	=11	=11	=11	=11	=11	=11	=11
!	!	!	!	!	!	!LO:SIC:s=8qqccc#	!	!	!	!	!	!	!	!	!	!	!	!	!
.	.	.	.	.	.	16qqccc/	.	.	.	.	.	.	.	.	.	.	.	.	.
!LO:MO:mod=(8.GL	!	!	!LO:MO:mod=(8.bL	!	!	!	!	!	!	!	!	!	!	!	!	!	!	!	!
8.G\L	5_ 3	.	(8.b|\L	.	2.ryy	2.ddd\	.	2.ryy	2.ryy	2.ryy	.	.	2.ryy	2.ryy	2.ryy	2.ryy	2.ryy	2.ryy	2.ryy
!LO:MO:mod=16F#K)	!	!	!	!	!	!	!	!	!	!	!	!	!	!	!	!	!	!	!
16F#\K	_ 3	.	16a\K)	.	.	.	.	.	.	.	.	.	.	.	.	.	.	.	.
8G\	_ 3	.	8b|\	.	.	.	.	.	.	.	.	.	.	.	.	.	.	.	.
8A\	_ 3	.	8cc|\	.	.	.	.	.	.	.	.	.	.	.	.	.	.	.	.
8B\	_ 3	.	8dd|\	.	.	.	.	.	.	.	.	.	.	.	.	.	.	.	.
8A\J	_ 3	.	8cc|\J	.	.	.	.	.	.	.	.	.	.	.	.	.	.	.	.
=12	=12	=12	=12	=12	=12	=12	=12	=12	=12	=12	=12	=12	=12	=12	=12	=12	=12	=12	=12
!LO:MO:mod=(8.GL	!	!	!	!	!	!	!	!	!	!	!	!	!	!	!	!	!	!	!
8.G\L	_ 3	.	(>8.b\L	.	2.ryy	4dddT\	.	2.ryy	2.ryy	2.ryy	.	.	2.ryy	2.ryy	2.ryy	2.ryy	2.ryy	2.ryy	2.ryy
!LO:MO:mod=16F#Jk)	!	!	!	!	!	!	!	!	!	!	!	!	!	!	!	!	!	!	!
16F#\Jk	_ 3	.	16a\Jk)	.	.	.	.	.	.	.	.	.	.	.	.	.	.	.	.
4G\	X 3	.	4b|\	.	.	(>16eee\LL	.	.	.	.	.	.	.	.	.	.	.	.	.
.	.	.	.	.	.	16ddd\	.	.	.	.	.	.	.	.	.	.	.	.	.
.	.	.	.	.	.	16ccc#X\	.	.	.	.	.	.	.	.	.	.	.	.	.
.	.	.	.	.	.	16ddd\JJ)	.	.	.	.	.	.	.	.	.	.	.	.	.
!	!	!	!	!	!	!LO:LB:g=original	!	!	!	!	!	!	!	!	!	!	!	!	!
4r	.	.	4r	.	.	(>16ccc#\LL	.	.	.	.	.	.	.	.	.	.	.	.	.
.	.	.	.	.	.	16ddd\	.	.	.	.	.	.	.	.	.	.	.	.	.
.	.	.	.	.	.	16eee\	.	.	.	.	.	.	.	.	.	.	.	.	.
.	.	.	.	.	.	16ddd\JJ)	.	.	.	.	.	.	.	.	.	.	.	.	.
=13	=13	=13	=13	=13	=13	=13	=13	=13	=13	=13	=13	=13	=13	=13	=13	=13	=13	=13	=13
*tremolo	*	*	*tremolo	*	*	*	*	*	*	*	*	*	*	*	*	*	*	*	*
!	!	!	!	!	!	!LO:SIC:s=8qqccc#	!	!	!	!	!	!	!	!	!	!	!	!	!
.	.	.	.	.	.	16qqccc/	.	.	.	.	.	.	.	.	.	.	.	.	.
!	!	!	!	!	!	!	!	!	!	!	!LO:N:vis=00	!	!	!	!	!	!	!	!
8B\L	6_	.	8d\L	.	2.ryy	4.dddT\	.	2.ryy	2.ryy	2.ryy	0.r	.	2.ryy	2.ryy	2.ryy	2.ryy	2.ryy	2.ryy	2.ryy
8B\	.	.	8d\	.	.	.	.	.	.	.	.	.	.	.	.	.	.	.	.
8B\	.	.	8d\	.	.	.	.	.	.	.	.	.	.	.	.	.	.	.	.
8B\	.	.	8d\	.	.	16eee\LL	.	.	.	.	.	.	.	.	.	.	.	.	.
.	.	.	.	.	.	16ddd\JJ	.	.	.	.	.	.	.	.	.	.	.	.	.
8B\	.	.	8d\	.	.	(>16cccn\LL	.	.	.	.	.	.	.	.	.	.	.	.	.
.	.	.	.	.	.	16bb\	.	.	.	.	.	.	.	.	.	.	.	.	.
8B\J	.	.	8d\J	.	.	16aa\	.	.	.	.	.	.	.	.	.	.	.	.	.
.	.	.	.	.	.	16gg\JJ)	.	.	.	.	.	.	.	.	.	.	.	.	.
=14	=14	=14	=14	=14	=14	=14	=14	=14	=14	=14	=14	=14	=14	=14	=14	=14	=14	=14	=14
!	!	!	!	!	!	!LO:MO:mod=(16bbLL	!	!	!	!	!	!	!	!	!	!	!	!	!
8c\L	6	.	8e\L	.	2.ryy	16bb\LL	.	2.ryy	2.ryy	2.ryy	.	.	2.ryy	2.ryy	2.ryy	2.ryy	2.ryy	2.ryy	2.ryy
!	!	!	!	!	!	!LO:MO:mod=16aa	!	!	!	!	!	!	!	!	!	!	!	!	!
.	.	.	.	.	.	(>16aa\	.	.	.	.	.	.	.	.	.	.	.	.	.
8c\	.	.	8e\	.	.	16gg#X\	.	.	.	.	.	.	.	.	.	.	.	.	.
.	.	.	.	.	.	16aa\JJ)	.	.	.	.	.	.	.	.	.	.	.	.	.
8c\	.	.	8e\	.	.	4.aaT\	.	.	.	.	.	.	.	.	.	.	.	.	.
8c\	.	.	8e\	.	.	.	.	.	.	.	.	.	.	.	.	.	.	.	.
8c\	.	.	8e\	.	.	.	.	.	.	.	.	.	.	.	.	.	.	.	.
8c\J	.	.	8e\J	.	.	16bb\LL	.	.	.	.	.	.	.	.	.	.	.	.	.
.	.	.	.	.	.	16ccc\JJ	.	.	.	.	.	.	.	.	.	.	.	.	.
*Xtremolo	*	*	*Xtremolo	*	*	*	*	*	*	*	*	*	*	*	*	*	*	*	*
=15	=15	=15	=15	=15	=15	=15	=15	=15	=15	=15	=15	=15	=15	=15	=15	=15	=15	=15	=15
8B\L	6	.	8d\L	.	2.ryy	(16bb\LL	.	2.ryy	2.ryy	2.ryy	.	.	2.ryy	2.ryy	2.ryy	2.ryy	2.ryy	2.ryy	2.ryy
.	.	.	.	.	.	16ggn\)	.	.	.	.	.	.	.	.	.	.	.	.	.
!	!	!	!LO:MO:mod=8e	!	!	!	!	!	!	!	!	!	!	!	!	!	!	!	!
8c\	6	.	8e\J	.	.	(16ccc\	.	.	.	.	.	.	.	.	.	.	.	.	.
.	.	.	.	.	.	16aa\JJ)	.	.	.	.	.	.	.	.	.	.	.	.	.
!	!	!	!LO:MO:mod=8d	!	!	!	!	!	!	!	!	!	!	!	!	!	!	!	!
8d\	4	.	8d/L	.	.	4gg\	.	.	.	.	.	.	.	.	.	.	.	.	.
8d\	.	.	8B/	.	.	.	.	.	.	.	.	.	.	.	.	.	.	.	.
8D\	3	.	8c/	.	.	4aaT\	.	.	.	.	.	.	.	.	.	.	.	.	.
8D\J	.	.	8A/J	.	.	.	.	.	.	.	.	.	.	.	.	.	.	.	.
!	!	!	!LO:LB:g=original	!	!	!	!	!	!	!	!	!	!	!	!	!	!	!	!
=16	=16	=16	=16	=16	=16	=16	=16	=16	=16	=16	=16	=16	=16	=16	=16	=16	=16	=16	=16
*	*	*	*	*	*	*tuplet	*	*	*	*	*	*	*	*	*	*	*	*	*
!	!	!	!	!	!	!LO:TUP:a	!	!	!	!	!	!	!	!	!	!	!	!	!
4E\	.	.	4B/	.	2.ryy	(>24gg\LL	.	2.ryy	2.ryy	2.ryy	.	.	2.ryy	2.ryy	2.ryy	2.ryy	2.ryy	2.ryy	2.ryy
.	.	.	.	.	.	24bb\	.	.	.	.	.	.	.	.	.	.	.	.	.
.	.	.	.	.	.	24aa\JJ)	.	.	.	.	.	.	.	.	.	.	.	.	.
!	!	!	!	!	!	!LO:TUP:a	!	!	!	!	!	!	!	!	!	!	!	!	!
.	.	.	.	.	.	(>24gg\LL	.	.	.	.	.	.	.	.	.	.	.	.	.
.	.	.	.	.	.	24bb\	.	.	.	.	.	.	.	.	.	.	.	.	.
.	.	.	.	.	.	24aa\JJ)	.	.	.	.	.	.	.	.	.	.	.	.	.
!	!	!	!	!	!	!LO:TUP:a	!	!	!	!	!	!	!	!	!	!	!	!	!
4r	.	.	4r	.	.	(>24gg\LL	.	.	.	.	.	.	.	.	.	.	.	.	.
.	.	.	.	.	.	24bb\	.	.	.	.	.	.	.	.	.	.	.	.	.
.	.	.	.	.	.	24aa\JJ)	.	.	.	.	.	.	.	.	.	.	.	.	.
!	!	!	!	!	!	!LO:TUP:a	!	!	!	!	!	!	!	!	!	!	!	!	!
.	.	.	.	.	.	(>24gg\LL	.	.	.	.	.	.	.	.	.	.	.	.	.
.	.	.	.	.	.	24ff#\	.	.	.	.	.	.	.	.	.	.	.	.	.
.	.	.	.	.	.	24ee\JJ)	.	.	.	.	.	.	.	.	.	.	.	.	.
!	!	!	!	!	!	!LO:TUP:a	!	!	!	!	!	!	!	!	!	!	!	!	!
4r	.	.	4r	.	.	(>24dd\LL	.	.	.	.	.	.	.	.	.	.	.	.	.
.	.	.	.	.	.	24cc\	.	.	.	.	.	.	.	.	.	.	.	.	.
.	.	.	.	.	.	24b\JJ)	.	.	.	.	.	.	.	.	.	.	.	.	.
!	!	!	!	!	!	!LO:TUP:b	!	!	!	!	!	!	!	!	!	!	!	!	!
.	.	.	.	.	.	(>24a/LL	.	.	.	.	.	.	.	.	.	.	.	.	.
.	.	.	.	.	.	24g/	.	.	.	.	.	.	.	.	.	.	.	.	.
.	.	.	.	.	.	24f#/JJ)	.	.	.	.	.	.	.	.	.	.	.	.	.
!	!	!	!	!	!	!LO:LB:g=original	!	!	!	!	!	!	!	!	!	!	!	!	!
=17	=17	=17	=17	=17	=17	=17	=17	=17	=17	=17	=17	=17	=17	=17	=17	=17	=17	=17	=17
!	!	!	!	!	!	!LO:TX:a:t=P:problem=mixed beam	!	!	!	!	!LO:N:vis=00	!	!	!	!	!	!	!	!
!	!	!	!	!	!	!LO:TUP:a	!	!	!	!	!	!	!	!	!	!	!	!	!
8r	.	.	8r	.	2.ryy	(>24e/LL	.	2.ryy	2.ryy	2.ryy	0.r	.	2.ryy	2.ryy	2.ryy	2.ryy	2.ryy	2.ryy	2.ryy
.	.	.	.	.	.	24dd#X\	.	.	.	.	.	.	.	.	.	.	.	.	.
.	.	.	.	.	.	24ee\JJ)	.	.	.	.	.	.	.	.	.	.	.	.	.
!	!	!	!	!	!	!LO:TUP:a	!	!	!	!	!	!	!	!	!	!	!	!	!
8G\L|	.	.	8g\L	.	.	(>24g\LL	.	.	.	.	.	.	.	.	.	.	.	.	.
.	.	.	.	.	.	24ff#\	.	.	.	.	.	.	.	.	.	.	.	.	.
.	.	.	.	.	.	24gg\JJ)	.	.	.	.	.	.	.	.	.	.	.	.	.
!	!	!	!	!	!	!LO:TX:a:t=P:problem=mixed beam	!	!	!	!	!	!	!	!	!	!	!	!	!
!	!	!	!	!	!	!LO:TUP:a	!	!	!	!	!	!	!	!	!	!	!	!	!
8E\|	.	.	8e\	.	.	(>24e/LL	.	.	.	.	.	.	.	.	.	.	.	.	.
.	.	.	.	.	.	24dd#\	.	.	.	.	.	.	.	.	.	.	.	.	.
.	.	.	.	.	.	24ee\JJ)	.	.	.	.	.	.	.	.	.	.	.	.	.
!	!	!	!	!	!	!LO:TUP:a	!	!	!	!	!	!	!	!	!	!	!	!	!
8G\|	.	.	8g\	.	.	(>24g\LL	.	.	.	.	.	.	.	.	.	.	.	.	.
.	.	.	.	.	.	24ff#\	.	.	.	.	.	.	.	.	.	.	.	.	.
.	.	.	.	.	.	24gg\JJ)	.	.	.	.	.	.	.	.	.	.	.	.	.
!	!	!	!	!	!	!LO:TX:a:t=P:problem=mixed beam	!	!	!	!	!	!	!	!	!	!	!	!	!
!	!	!	!	!	!	!LO:TUP:a	!	!	!	!	!	!	!	!	!	!	!	!	!
8E\|	.	.	8e\	.	.	(>24e/LL	.	.	.	.	.	.	.	.	.	.	.	.	.
.	.	.	.	.	.	24dd#\	.	.	.	.	.	.	.	.	.	.	.	.	.
.	.	.	.	.	.	24ee\JJ)	.	.	.	.	.	.	.	.	.	.	.	.	.
!	!	!	!	!	!	!LO:TX:a:t=P:problem=mixed beam	!	!	!	!	!	!	!	!	!	!	!	!	!
!	!	!	!	!	!	!LO:TUP:a	!	!	!	!	!	!	!	!	!	!	!	!	!
8C#X\J|	.	.	8c#X\J	.	.	(>24c#X/LL	.	.	.	.	.	.	.	.	.	.	.	.	.
.	.	.	.	.	.	24b\	.	.	.	.	.	.	.	.	.	.	.	.	.
!	!	!	!	!	!	!LO:SIC:s=24cc#\JJ	!	!	!	!	!	!	!	!	!	!	!	!	!
.	.	.	.	.	.	24cc\JJ)	.	.	.	.	.	.	.	.	.	.	.	.	.
=18	=18	=18	=18	=18	=18	=18	=18	=18	=18	=18	=18	=18	=18	=18	=18	=18	=18	=18	=18
!	!	!	!	!	!	!LO:TX:a:t=P:problem=mixed beam	!	!	!	!	!	!	!	!	!	!	!	!	!
!	!	!	!	!	!	!LO:TUP:a	!	!	!	!	!	!	!	!	!	!	!	!	!
4D\|	.	.	4d\	.	2.ryy	(>24dn/LL	.	2.ryy	2.ryy	2.ryy	.	.	2.ryy	2.ryy	2.ryy	2.ryy	2.ryy	2.ryy	2.ryy
.	.	.	.	.	.	24cc#X\	.	.	.	.	.	.	.	.	.	.	.	.	.
.	.	.	.	.	.	24dd\JJ)	.	.	.	.	.	.	.	.	.	.	.	.	.
!	!	!	!	!	!	!LO:TUP:a	!	!	!	!	!	!	!	!	!	!	!	!	!
.	.	.	.	.	.	(>24ee\LL	.	.	.	.	.	.	.	.	.	.	.	.	.
.	.	.	.	.	.	24ff#\	.	.	.	.	.	.	.	.	.	.	.	.	.
.	.	.	.	.	.	24gg\JJ)	.	.	.	.	.	.	.	.	.	.	.	.	.
!	!	!	!	!	!	!LO:TUP:a	!	!	!	!	!	!	!	!	!	!	!	!	!
4r	.	.	4r	.	.	(>24aa\LL	.	.	.	.	.	.	.	.	.	.	.	.	.
.	.	.	.	.	.	24ccc\	.	.	.	.	.	.	.	.	.	.	.	.	.
.	.	.	.	.	.	24bb\JJ)	.	.	.	.	.	.	.	.	.	.	.	.	.
!	!	!	!	!	!	!LO:TUP:a	!	!	!	!	!	!	!	!	!	!	!	!	!
.	.	.	.	.	.	(>24aa\LL	.	.	.	.	.	.	.	.	.	.	.	.	.
.	.	.	.	.	.	24ccc\	.	.	.	.	.	.	.	.	.	.	.	.	.
.	.	.	.	.	.	24bb\JJ)	.	.	.	.	.	.	.	.	.	.	.	.	.
!	!	!	!	!	!	!LO:TUP:a	!	!	!	!	!	!	!	!	!	!	!	!	!
4r	.	.	4r	.	.	(>24aa\LL	.	.	.	.	.	.	.	.	.	.	.	.	.
.	.	.	.	.	.	24bb\	.	.	.	.	.	.	.	.	.	.	.	.	.
.	.	.	.	.	.	24ccc\JJ)	.	.	.	.	.	.	.	.	.	.	.	.	.
!	!	!	!	!	!	!LO:TUP:a	!	!	!	!	!	!	!	!	!	!	!	!	!
.	.	.	.	.	.	(>24ddd\LL	.	.	.	.	.	.	.	.	.	.	.	.	.
.	.	.	.	.	.	24bb\	.	.	.	.	.	.	.	.	.	.	.	.	.
.	.	.	.	.	.	24gg\JJ)	.	.	.	.	.	.	.	.	.	.	.	.	.
!LO:LB:g=original	!	!	!	!	!	!	!	!	!	!	!	!	!	!	!	!	!	!	!
=19	=19	=19	=19	=19	=19	=19	=19	=19	=19	=19	=19	=19	=19	=19	=19	=19	=19	=19	=19
8d\L	4_	.	8g\L	.	2.ryy	2.aaT\	.	2.ryy	2.ryy	2.ryy	.	.	2.ryy	2.ryy	2.ryy	2.ryy	2.ryy	2.ryy	2.ryy
8d\	.	.	8g\	.	.	.	.	.	.	.	.	.	.	.	.	.	.	.	.
8d\	.	.	8g\	.	.	.	.	.	.	.	.	.	.	.	.	.	.	.	.
8d\	.	.	8g\	.	.	.	.	.	.	.	.	.	.	.	.	.	.	.	.
8D\	3	.	8f#\	.	.	.	.	.	.	.	.	.	.	.	.	.	.	.	.
8D\J	.	.	8f#\J	.	.	.	.	.	.	.	.	.	.	.	.	.	.	.	.
=20	=20	=20	=20	=20	=20	=20	=20	=20	=20	=20	=20	=20	=20	=20	=20	=20	=20	=20	=20
!	!	!	!LO:TUP:a	!	!	!LO:TX:a:t=P:problem=mixed beam	!	!	!	!	!	!	!	!	!	!	!	!	!
4G\	.	.	(>24g\LL	.	2.ryy	(>24gg\LL	.	2.ryy	2.ryy	2.ryy	.	.	2.ryy	2.ryy	2.ryy	2.ryy	2.ryy	2.ryy	2.ryy
.	.	.	24B\	.	.	24g/	.	.	.	.	.	.	.	.	.	.	.	.	.
.	.	.	24d\JJ)	.	.	24b/JJ)	.	.	.	.	.	.	.	.	.	.	.	.	.
!	!	!	!LO:TUP:a	!	!	!LO:TUP:a	!	!	!	!	!	!	!	!	!	!	!	!	!
.	.	.	(>24g\LL	.	.	(>24dd\LL	.	.	.	.	.	.	.	.	.	.	.	.	.
.	.	.	24b\	.	.	24gg\	.	.	.	.	.	.	.	.	.	.	.	.	.
.	.	.	24dd\JJ)	.	.	24bb\JJ)	.	.	.	.	.	.	.	.	.	.	.	.	.
4GG/	.	.	4b\	.	.	4gg\	.	.	.	.	.	.	.	.	.	.	.	.	.
4r	.	.	4r	.	.	4r	.	.	.	.	.	.	.	.	.	.	.	.	.
!	!	!	!	!	!	!LO:LB:g=original	!	!	!	!	!	!	!	!	!	!	!	!	!
=21	=21	=21	=21	=21	=21	=21	=21	=21	=21	=21	=21	=21	=21	=21	=21	=21	=21	=21	=21
!	!	!	!LO:MO:null:mod=*tremolo	!	!	!	!	!	!	!	!	!	!	!	!	!	!	!	!
*tremolo	*	*	*null	*	*	*	*	*	*	*	*2\right	*	*	*	*	*	*	*	*
!	!	!LO:DY:a:rj	!	!LO:DY:a:rj	!	!	!LO:DY:a	!	!	!	!LO:MO:mod=(2.g	!	!	!	!	!	!	!	!
8G\L	.	p	8B/L	p	2.ryy	2.g/	p	2.ryy	2.ryy	2.ryy	2.g\	Be-	2.ryy	2.ryy	2.ryy	2.ryy	2.ryy	2.ryy	2.ryy
8G\	.	.	8B/	.	.	.	.	.	.	.	.	.	.	.	.	.	.	.	.
8G\	.	.	8B/	.	.	.	.	.	.	.	.	.	.	.	.	.	.	.	.
8G\	.	.	8B/	.	.	.	.	.	.	.	.	.	.	.	.	.	.	.	.
8G\	.	.	8B/	.	.	.	.	.	.	.	.	.	.	.	.	.	.	.	.
8G\J	.	.	8B/J	.	.	.	.	.	.	.	.	.	.	.	.	.	.	.	.
=22	=22	=22	=22	=22	=22	=22	=22	=22	=22	=22	=22	=22	=22	=22	=22	=22	=22	=22	=22
*	*	*	*tremolo	*	*	*	*	*	*	*	*	*	*	*	*	*	*	*	*
8G\L	.	.	8b\L	.	2.ryy	2gg\	.	2.ryy	2.ryy	2.ryy	2gg\	.	2.ryy	2.ryy	2.ryy	2.ryy	2.ryy	2.ryy	2.ryy
8G\	.	.	8b\	.	.	.	.	.	.	.	.	.	.	.	.	.	.	.	.
8G\	.	.	8b\	.	.	.	.	.	.	.	.	.	.	.	.	.	.	.	.
8G\	.	.	8b\	.	.	.	.	.	.	.	.	.	.	.	.	.	.	.	.
8G\	.	.	8b\	.	.	(>16gg\LL	.	.	.	.	16gg\LL	.	.	.	.	.	.	.	.
!	!	!	!	!	!	!	!	!	!	!	!LO:MO:mod=16aaJJ)	!	!	!	!	!	!	!	!
.	.	.	.	.	.	16aa\	.	.	.	.	16aa\JJ	.	.	.	.	.	.	.	.
8G\J	.	.	8b\J	.	.	16gg\	.	.	.	.	16gg\LL	-ne-	.	.	.	.	.	.	.
.	.	.	.	.	.	16ffn\JJ)	.	.	.	.	16ffn\JJ	.	.	.	.	.	.	.	.
!	!	!	!LO:MO:mod=*null	!	!	!	!	!	!	!	!	!	!	!	!	!	!	!	!
*	*	*	*Xtremolo	*	*	*	*	*	*	*	*	*	*	*	*	*	*	*	*
!	!	!	!LO:LB:g=original	!	!	!	!	!	!	!	!	!	!	!	!	!	!	!	!
=23	=23	=23	=23	=23	=23	=23	=23	=23	=23	=23	=23	=23	=23	=23	=23	=23	=23	=23	=23
!	!	!	!	!	!	!LO:MO:mod=(4.eeT	!	!	!	!	!	!	!	!	!	!	!	!	!
8G\L	6 4	.	8cc\L	.	2.ryy	4.eeT\	.	2.ryy	2.ryy	2.ryy	(>4.ee\	-dic-	2.ryy	2.ryy	2.ryy	2.ryy	2.ryy	2.ryy	2.ryy
8G\	.	.	8cc\	.	.	.	.	.	.	.	.	.	.	.	.	.	.	.	.
8G\	.	.	8cc\	.	.	.	.	.	.	.	.	.	.	.	.	.	.	.	.
!	!	!	!	!	!	!	!	!	!	!	!LO:MO:mod=16ddLL	!	!	!	!	!	!	!	!
8G\	.	.	8cc\	.	.	16dd\LL	.	.	.	.	16dd\LL)	.	.	.	.	.	.	.	.
!	!	!	!	!	!	!	!	!	!	!	!LO:MO:mod=16eeJJ)	!	!	!	!	!	!	!	!
!	!	!	!	!	!	!LO:MO:mod=16eeJJ)	!	!	!	!	!	!	!	!	!	!	!	!	!
.	.	.	.	.	.	16ee\JJ	.	.	.	.	16ee\JJ	.	.	.	.	.	.	.	.
.	.	.	.	.	.	.	.	.	.	.	16qqaa/	.	.	.	.	.	.	.	.
8G\	.	.	8cc\	.	.	(>16aa\LL	.	.	.	.	8gg\	-tus	.	.	.	.	.	.	.
.	.	.	.	.	.	16gg\	.	.	.	.	.	.	.	.	.	.	.	.	.
!	!	!	!	!	!	!	!	!	!	!	!	!LO:MO:mod=qui	!	!	!	!	!	!	!
8G\J	.	.	8cc\J	.	.	16ff#\	.	.	.	.	16ff#\LL	qvi	.	.	.	.	.	.	.
.	.	.	.	.	.	16ee\JJ)	.	.	.	.	16ee\JJ	.	.	.	.	.	.	.	.
=24	=24	=24	=24	=24	=24	=24	=24	=24	=24	=24	=24	=24	=24	=24	=24	=24	=24	=24	=24
*	*	*	*tremolo	*	*	*	*	*	*	*	*	*	*	*	*	*	*	*	*
8G\L	5 3	.	8b\L	.	2.ryy	(>16ee\LL	.	2.ryy	2.ryy	2.ryy	16ee\LL	ve-	2.ryy	2.ryy	2.ryy	2.ryy	2.ryy	2.ryy	2.ryy
.	.	.	.	.	.	16dd\	.	.	.	.	16dd\	.	.	.	.	.	.	.	.
8G\	.	.	8b\	.	.	16cc\	.	.	.	.	16cc\	.	.	.	.	.	.	.	.
.	.	.	.	.	.	16dd\JJ)	.	.	.	.	16dd\JJ	.	.	.	.	.	.	.	.
8G\	.	.	8b\	.	.	4dd\	.	.	.	.	4dd\	-nit	.	.	.	.	.	.	.
8G\	.	.	8b\	.	.	.	.	.	.	.	.	.	.	.	.	.	.	.	.
8G\	.	.	8b\	.	.	8r	.	.	.	.	8r	.	.	.	.	.	.	.	.
!	!	!	!	!	!	!	!	!	!	!	!	!LO:MO:mod=qui	!	!	!	!	!	!	!
8G\J	.	.	8b\J	.	.	8dd\	.	.	.	.	8dd\	qvi	.	.	.	.	.	.	.
=25	=25	=25	=25	=25	=25	=25	=25	=25	=25	=25	=25	=25	=25	=25	=25	=25	=25	=25	=25
8F#\L	6 5	.	8a\L	.	2.ryy	2cc\	.	2.ryy	2.ryy	2.ryy	2cc\	ve-	2.ryy	2.ryy	2.ryy	2.ryy	2.ryy	2.ryy	2.ryy
8F#\	.	.	8a\	.	.	.	.	.	.	.	.	.	.	.	.	.	.	.	.
8F#\	.	.	8a\	.	.	.	.	.	.	.	.	.	.	.	.	.	.	.	.
8F#\	.	.	8a\	.	.	.	.	.	.	.	.	.	.	.	.	.	.	.	.
!	!	!	!	!	!	!LO:MO:mod=(16aaLL	!	!	!	!	!	!	!	!	!	!	!	!	!
8F#\	.	.	8a\	.	.	16aa\LL	.	.	.	.	16aa\LL	-nit	.	.	.	.	.	.	.
.	.	.	.	.	.	16ff#\	.	.	.	.	16ff#\JJ	.	.	.	.	.	.	.	.
8F#\J	.	.	8a\J	.	.	16dd\	.	.	.	.	16dd\LL	in	.	.	.	.	.	.	.
!	!	!	!	!	!	!LO:MO:mod=16ccJJ)	!	!	!	!	!	!	!	!	!	!	!	!	!
.	.	.	.	.	.	16cc\JJ	.	.	.	.	16cc\JJ	.	.	.	.	.	.	.	.
*Xtremolo	*	*	*	*	*	*	*	*	*	*	*	*	*	*	*	*	*	*	*
!	!	!	!	!	!	!	!	!	!	!	!LO:LB:g=original	!	!	!	!	!	!	!	!
=26	=26	=26	=26	=26	=26	=26	=26	=26	=26	=26	=26	=26	=26	=26	=26	=26	=26	=26	=26
8G\L	.	.	8d\L	.	2.ryy	(>16cc\LL	.	2.ryy	2.ryy	2.ryy	16cc\LL	no-	2.ryy	2.ryy	2.ryy	2.ryy	2.ryy	2.ryy	2.ryy
.	.	.	.	.	.	16b\	.	.	.	.	16b\	.	.	.	.	.	.	.	.
8G\	.	.	8d\	.	.	16a\	.	.	.	.	16a\	.	.	.	.	.	.	.	.
.	.	.	.	.	.	16b\JJ)	.	.	.	.	16b\JJ	.	.	.	.	.	.	.	.
8B\	6_	.	8d\	.	.	(>4.gg\	.	.	.	.	4.gg\	.	.	.	.	.	.	.	.
8B\	.	.	8d\	.	.	.	.	.	.	.	.	.	.	.	.	.	.	.	.
8B\	.	.	8d\	.	.	.	.	.	.	.	.	.	.	.	.	.	.	.	.
8B\J	.	.	8d\J	.	.	8ffn\)	.	.	.	.	8ffn\	.	.	.	.	.	.	.	.
=27	=27	=27	=27	=27	=27	=27	=27	=27	=27	=27	=27	=27	=27	=27	=27	=27	=27	=27	=27
!	!	!	!	!	!	!LO:TUP:a	!	!	!	!	!	!	!	!	!	!	!	!	!
8c\L	6_	.	8e\L	.	2.ryy	(>24ee\LL	.	2.ryy	2.ryy	2.ryy	4ee\	.	2.ryy	2.ryy	2.ryy	2.ryy	2.ryy	2.ryy	2.ryy
.	.	.	.	.	.	24cc\	.	.	.	.	.	.	.	.	.	.	.	.	.
.	.	.	.	.	.	24b\JJ)	.	.	.	.	.	.	.	.	.	.	.	.	.
!	!	!	!	!	!	!LO:TUP:b	!	!	!	!	!	!	!	!	!	!	!	!	!
8c\	.	.	8e\	.	.	(<24a/LL	.	.	.	.	.	.	.	.	.	.	.	.	.
.	.	.	.	.	.	24g#X/	.	.	.	.	.	.	.	.	.	.	.	.	.
.	.	.	.	.	.	24a/JJ)	.	.	.	.	.	.	.	.	.	.	.	.	.
!	!	!	!	!	!	!LO:LB:g=original	!	!	!	!	!	!	!	!	!	!	!	!	!
!	!	!	!	!	!	!LO:TUP:b	!	!	!	!	!	!	!	!	!	!	!	!	!
8c\	.	.	8e\	.	.	(<24e/LL	.	.	.	.	4cc\	-mi-	.	.	.	.	.	.	.
.	.	.	.	.	.	24cc/	.	.	.	.	.	.	.	.	.	.	.	.	.
.	.	.	.	.	.	24b/JJ)	.	.	.	.	.	.	.	.	.	.	.	.	.
!	!	!	!	!	!	!LO:TUP:b	!	!	!	!	!	!	!	!	!	!	!	!	!
8c\	.	.	8e\	.	.	(<24a/LL	.	.	.	.	.	.	.	.	.	.	.	.	.
.	.	.	.	.	.	24g#/	.	.	.	.	.	.	.	.	.	.	.	.	.
.	.	.	.	.	.	24a/JJ)	.	.	.	.	.	.	.	.	.	.	.	.	.
!	!	!	!	!	!	!LO:TUP:a	!	!	!	!	!	!	!	!	!	!	!	!	!
8c#X\	5_	.	8e\	.	.	(>24ee\LL	.	.	.	.	4b\	-ne	.	.	.	.	.	.	.
.	.	.	.	.	.	24dd\	.	.	.	.	.	.	.	.	.	.	.	.	.
!	!	!	!	!	!	!LO:SIC:s=24cc#\JJ)	!	!	!	!	!	!	!	!	!	!	!	!	!
.	.	.	.	.	.	24cc\JJ)	.	.	.	.	.	.	.	.	.	.	.	.	.
!	!	!	!	!	!	!LO:TUP:b	!	!	!	!	!	!	!	!	!	!	!	!	!
8c#\J	.	.	8e\J	.	.	(<24b/LL	.	.	.	.	.	.	.	.	.	.	.	.	.
.	.	.	.	.	.	24a/	.	.	.	.	.	.	.	.	.	.	.	.	.
.	.	.	.	.	.	24gn/JJ)	.	.	.	.	.	.	.	.	.	.	.	.	.
*	*	*	*Xtremolo	*	*	*	*	*	*	*	*	*	*	*	*	*	*	*	*
=28	=28	=28	=28	=28	=28	=28	=28	=28	=28	=28	=28	=28	=28	=28	=28	=28	=28	=28	=28
!	!	!	!	!	!	!	!	!	!	!	!	!LO:MO:mod=Do-	!	!	!	!	!	!	!
4d\	4	.	4d\	.	2.ryy	8g/L	.	2.ryy	2.ryy	2.ryy	8b\	do-	2.ryy	2.ryy	2.ryy	2.ryy	2.ryy	2.ryy	2.ryy
.	.	.	.	.	.	(<32a/LL	.	.	.	.	8b\	-mi-	.	.	.	.	.	.	.
.	.	.	.	.	.	32g/	.	.	.	.	.	.	.	.	.	.	.	.	.
.	.	.	.	.	.	32f#/	.	.	.	.	.	.	.	.	.	.	.	.	.
.	.	.	.	.	.	32g/JJJ)	.	.	.	.	.	.	.	.	.	.	.	.	.
8D\L	3	.	8d\L	.	.	4f#/	.	.	.	.	4a\	-ni	.	.	.	.	.	.	.
8F#\	.	.	8f#\	.	.	.	.	.	.	.	.	.	.	.	.	.	.	.	.
8A\	.	.	8a\	.	.	4r	.	.	.	.	4r	.	.	.	.	.	.	.	.
8F#\J	.	.	8f#\J	.	.	.	.	.	.	.	.	.	.	.	.	.	.	.	.
!LO:LB:g=original	!	!	!	!	!	!	!	!	!	!	!	!	!	!	!	!	!	!	!
=29	=29	=29	=29	=29	=29	=29	=29	=29	=29	=29	=29	=29	=29	=29	=29	=29	=29	=29	=29
!LO:MO:null:mod=*tremolo	!	!	!	!	!	!	!	!	!	!	!	!	!	!	!	!	!	!	!
*null	*	*	*tremolo	*	*	*	*	*	*	*	*	*	*	*	*	*	*	*	*
!	!	!	!	!	!	!	!	!	!	!	!LO:MO:mod=(2aa	!	!	!	!	!	!	!	!
8D\L	.	.	8f#\L	.	2.ryy	2.r	.	2.ryy	2.ryy	2.ryy	2aa\	Be-	2.ryy	2.ryy	2.ryy	2.ryy	2.ryy	2.ryy	2.ryy
8D\	.	.	8f#\	.	.	.	.	.	.	.	.	.	.	.	.	.	.	.	.
8D\	.	.	8f#\	.	.	.	.	.	.	.	.	.	.	.	.	.	.	.	.
8D\	.	.	8f#\	.	.	.	.	.	.	.	.	.	.	.	.	.	.	.	.
8D\	.	.	8f#\	.	.	.	.	.	.	.	16gg\LL	.	.	.	.	.	.	.	.
!	!	!	!	!	!	!	!	!	!	!	!LO:MO:mod=16ff#JJ)	!	!	!	!	!	!	!	!
.	.	.	.	.	.	.	.	.	.	.	16ff#\JJ	.	.	.	.	.	.	.	.
8D\J	.	.	8f#\J	.	.	.	.	.	.	.	16ee\LL	-ne-	.	.	.	.	.	.	.
.	.	.	.	.	.	.	.	.	.	.	16dd\JJ	.	.	.	.	.	.	.	.
=30	=30	=30	=30	=30	=30	=30	=30	=30	=30	=30	=30	=30	=30	=30	=30	=30	=30	=30	=30
*tremolo	*	*	*	*	*	*	*	*	*	*	*	*	*	*	*	*	*	*	*
8G\L	6	.	8b\L	.	2.ryy	(>4.b\	.	2.ryy	2.ryy	2.ryy	8ff#\L	-dic-	2.ryy	2.ryy	2.ryy	2.ryy	2.ryy	2.ryy	2.ryy
8G\	.	.	8b\	.	.	.	.	.	.	.	8ee\J	.	.	.	.	.	.	.	.
8G\	.	.	8b\	.	.	.	.	.	.	.	4ee\	-tus	.	.	.	.	.	.	.
8G\	.	.	8b\	.	.	16cc#X\LL	.	.	.	.	.	.	.	.	.	.	.	.	.
.	.	.	.	.	.	16dd\JJ)	.	.	.	.	.	.	.	.	.	.	.	.	.
8G\	.	.	8b\	.	.	(>16ee\LL	.	.	.	.	4r	.	.	.	.	.	.	.	.
.	.	.	.	.	.	16ff#\	.	.	.	.	.	.	.	.	.	.	.	.	.
8G\J	.	.	8b\J	.	.	16gg\	.	.	.	.	.	.	.	.	.	.	.	.	.
.	.	.	.	.	.	16ee\JJ)	.	.	.	.	.	.	.	.	.	.	.	.	.
=31	=31	=31	=31	=31	=31	=31	=31	=31	=31	=31	=31	=31	=31	=31	=31	=31	=31	=31	=31
*	*	*	*	*	*	*	*	*	*	*	*	*ij	*	*	*	*	*	*	*
8A\L	#	.	8e\L	.	2.ryy	(>16dd\LL	.	2.ryy	2.ryy	2.ryy	(>2gg\	Be-	2.ryy	2.ryy	2.ryy	2.ryy	2.ryy	2.ryy	2.ryy
!	!	!	!	!	!	!LO:SIC:s=16cc#\	!	!	!	!	!	!	!	!	!	!	!	!	!
.	.	.	.	.	.	16cc\	.	.	.	.	.	.	.	.	.	.	.	.	.
8A\	.	.	8e\	.	.	16b\	.	.	.	.	.	.	.	.	.	.	.	.	.
!	!	!	!	!	!	!LO:SIC:s=16cc#\JJ)	!	!	!	!	!	!	!	!	!	!	!	!	!
.	.	.	.	.	.	16cc\JJ)	.	.	.	.	.	.	.	.	.	.	.	.	.
!	!	!	!	!	!	!LO:SIC:s=4cc#\ 	!	!	!	!	!	!	!	!	!	!	!	!	!
8A\	.	.	8e\	.	.	4cc\	.	.	.	.	.	.	.	.	.	.	.	.	.
8A\	.	.	8e\	.	.	.	.	.	.	.	.	.	.	.	.	.	.	.	.
!	!	!	!	!	!	!	!	!	!	!	!LO:MO:mod=16ff#LL	!	!	!	!	!	!	!	!
8A\	.	.	8e\	.	.	4r	.	.	.	.	16ff#\LL)	.	.	.	.	.	.	.	.
!	!	!	!	!	!	!	!	!	!	!	!LO:MO:mod=16eeJJ)	!	!	!	!	!	!	!	!
.	.	.	.	.	.	.	.	.	.	.	16ee\JJ	.	.	.	.	.	.	.	.
8A\J	.	.	8e\J	.	.	.	.	.	.	.	16dd\LL	-ne-	.	.	.	.	.	.	.
.	.	.	.	.	.	.	.	.	.	.	16cc#X\JJ	.	.	.	.	.	.	.	.
=32	=32	=32	=32	=32	=32	=32	=32	=32	=32	=32	=32	=32	=32	=32	=32	=32	=32	=32	=32
8D\L	.	.	8f#\L	.	2.ryy	(>4.dd\	.	2.ryy	2.ryy	2.ryy	8ee\L	-dic-	2.ryy	2.ryy	2.ryy	2.ryy	2.ryy	2.ryy	2.ryy
8D\	.	.	8f#\	.	.	.	.	.	.	.	8dd\J	.	.	.	.	.	.	.	.
8D\	.	.	8f#\	.	.	.	.	.	.	.	4dd\	-tus	.	.	.	.	.	.	.
*	*	*	*	*	*	*	*	*	*	*	*	*Xij	*	*	*	*	*	*	*
8D\	.	.	8f#\	.	.	16ee\LL	.	.	.	.	.	.	.	.	.	.	.	.	.
.	.	.	.	.	.	16ff#\JJ)	.	.	.	.	.	.	.	.	.	.	.	.	.
8D\	.	.	8f#\	.	.	(>16gg\LL	.	.	.	.	4r	.	.	.	.	.	.	.	.
.	.	.	.	.	.	16aa\	.	.	.	.	.	.	.	.	.	.	.	.	.
8D\J	.	.	8f#\J	.	.	16bb\	.	.	.	.	.	.	.	.	.	.	.	.	.
.	.	.	.	.	.	16ccc#X\JJ)	.	.	.	.	.	.	.	.	.	.	.	.	.
*Xtremolo	*	*	*Xtremolo	*	*	*	*	*	*	*	*	*	*	*	*	*	*	*	*
!	!	!	!LO:LB:g=original	!	!	!LO:LB:g=original	!	!	!	!	!LO:LB:g=original	!	!	!	!	!	!	!	!
=33	=33	=33	=33	=33	=33	=33	=33	=33	=33	=33	=33	=33	=33	=33	=33	=33	=33	=33	=33
8D\L	.	.	8f#\L	.	2.ryy	8ddd\L	.	2.ryy	2.ryy	2.ryy	(>4.dd\	Be-	2.ryy	2.ryy	2.ryy	2.ryy	2.ryy	2.ryy	2.ryy
8D\	.	.	8f#\	.	.	16ff#\L	.	.	.	.	.	.	.	.	.	.	.	.	.
.	.	.	.	.	.	16gg\JJ	.	.	.	.	.	.	.	.	.	.	.	.	.
.	.	.	.	.	.	16qqgg/	.	.	.	.	.	.	.	.	.	.	.	.	.
8D\	.	.	8f#\	.	.	8aa\L	.	.	.	.	.	.	.	.	.	.	.	.	.
8D\	.	.	8f#\	.	.	8aa\J	.	.	.	.	16ee\LL	.	.	.	.	.	.	.	.
!	!	!	!	!	!	!	!	!	!	!	!LO:MO:mod=16ff#JJ	!	!	!	!	!	!	!	!
.	.	.	.	.	.	.	.	.	.	.	16ff#\JJ)	.	.	.	.	.	.	.	.
8G\	.	.	8b\	.	.	16bb\LL	.	.	.	.	16gg\LL	.	.	.	.	.	.	.	.
!	!	!	!	!	!	!	!	!	!	!	!LO:MO:mod=16aaJJ)	!	!	!	!	!	!	!	!
.	.	.	.	.	.	16ccc#X\	.	.	.	.	16aa\JJ	.	.	.	.	.	.	.	.
8G\J	.	.	8b\J	.	.	16ddd\	.	.	.	.	16bb\LL	-ne-	.	.	.	.	.	.	.
.	.	.	.	.	.	16bb\JJ	.	.	.	.	16gg\JJ	.	.	.	.	.	.	.	.
=34	=34	=34	=34	=34	=34	=34	=34	=34	=34	=34	=34	=34	=34	=34	=34	=34	=34	=34	=34
8A\L	6_	.	8a\L	.	2.ryy	(>16bb\LL	.	2.ryy	2.ryy	2.ryy	(>4ff#\	-dic-	2.ryy	2.ryy	2.ryy	2.ryy	2.ryy	2.ryy	2.ryy
.	.	.	.	.	.	16aa\)	.	.	.	.	.	.	.	.	.	.	.	.	.
8A\	.	.	8f#\	.	.	(>16fff#\	.	.	.	.	.	.	.	.	.	.	.	.	.
.	.	.	.	.	.	16aa\JJ)	.	.	.	.	.	.	.	.	.	.	.	.	.
8A#X\	5_	.	8g\	.	.	(>16aa\LL	.	.	.	.	4ee\)	.	.	.	.	.	.	.	.
.	.	.	.	.	.	16gg\)	.	.	.	.	.	.	.	.	.	.	.	.	.
8A#\	.	.	8e\	.	.	(>16eee\	.	.	.	.	.	.	.	.	.	.	.	.	.
.	.	.	.	.	.	16gg\JJ)	.	.	.	.	.	.	.	.	.	.	.	.	.
8B\	3_	.	8d\	.	.	(>16gg\LL	.	.	.	.	4dd\	-tus	.	.	.	.	.	.	.
.	.	.	.	.	.	16ff#\)	.	.	.	.	.	.	.	.	.	.	.	.	.
8B\J	.	.	8e\J	.	.	(>16ccc#X\	.	.	.	.	.	.	.	.	.	.	.	.	.
.	.	.	.	.	.	16ddd\JJ)	.	.	.	.	.	.	.	.	.	.	.	.	.
=35	=35	=35	=35	=35	=35	=35	=35	=35	=35	=35	=35	=35	=35	=35	=35	=35	=35	=35	=35
!LO:TX:a:t=P:problem=mixed beam	!	!	!	!	!	!	!	!	!	!	!	!LO:MO:mod=qui	!	!	!	!	!	!	!
8G\L	6	.	8b\L	.	2.ryy	8bb\L	.	2.ryy	2.ryy	2.ryy	8gg\L	qvi	2.ryy	2.ryy	2.ryy	2.ryy	2.ryy	2.ryy	2.ryy
8G\	.	.	8b\	.	.	16aa\L	.	.	.	.	16ff#\L	.	.	.	.	.	.	.	.
.	.	.	.	.	.	16gg\JJ	.	.	.	.	16ee\JJ	.	.	.	.	.	.	.	.
8An\	4	.	8a\	.	.	4ff#\	.	.	.	.	4dd\	ve-	.	.	.	.	.	.	.
8A\	.	.	8a\	.	.	.	.	.	.	.	.	.	.	.	.	.	.	.	.
8AA/	3	.	8a\	.	.	4eeT\	.	.	.	.	4cc#X\	.	.	.	.	.	.	.	.
8AA/J	.	.	8a\J	.	.	.	.	.	.	.	.	.	.	.	.	.	.	.	.
=36	=36	=36	=36	=36	=36	=36	=36	=36	=36	=36	=36	=36	=36	=36	=36	=36	=36	=36	=36
4D\	.	.	4a\	.	2.ryy	16ff#\LL	.	2.ryy	2.ryy	2.ryy	4dd\	-nit	2.ryy	2.ryy	2.ryy	2.ryy	2.ryy	2.ryy	2.ryy
.	.	.	.	.	.	16aa\	.	.	.	.	.	.	.	.	.	.	.	.	.
.	.	.	.	.	.	16ddd\	.	.	.	.	.	.	.	.	.	.	.	.	.
.	.	.	.	.	.	16fff#\JJ	.	.	.	.	.	.	.	.	.	.	.	.	.
8r	.	.	8r	.	.	16eee\LL	.	.	.	.	8r	.	.	.	.	.	.	.	.
.	.	.	.	.	.	16ddd\	.	.	.	.	.	.	.	.	.	.	.	.	.
*	*	*	*	*	*	*	*	*	*	*	*	*ij	*	*	*	*	*	*	*
!	!	!	!	!	!	!	!	!	!	!	!	!LO:MO:mod=qui	!	!	!	!	!	!	!
8d\L	5_ 3	.	8a\L	.	.	16ccc#X\	.	.	.	.	8ff#\	qvi	.	.	.	.	.	.	.
.	.	.	.	.	.	16ddd\JJ	.	.	.	.	.	.	.	.	.	.	.	.	.
8e\	_ 3	.	8a\	.	.	16eee\LL	.	.	.	.	8gg\L	ve-	.	.	.	.	.	.	.
.	.	.	.	.	.	16ccc#\	.	.	.	.	.	.	.	.	.	.	.	.	.
8c#X\J	_ 3	.	8a\J	.	.	16aa\	.	.	.	.	8ee\J	.	.	.	.	.	.	.	.
.	.	.	.	.	.	16gg\JJ	.	.	.	.	.	.	.	.	.	.	.	.	.
=37	=37	=37	=37	=37	=37	=37	=37	=37	=37	=37	=37	=37	=37	=37	=37	=37	=37	=37	=37
4d\	_ 3	.	4a\	.	2.ryy	16ff#\LL	.	2.ryy	2.ryy	2.ryy	4ff#\	-nit	2.ryy	2.ryy	2.ryy	2.ryy	2.ryy	2.ryy	2.ryy
*	*	*	*	*	*	*	*	*	*	*	*	*Xij	*	*	*	*	*	*	*
.	.	.	.	.	.	16aa\	.	.	.	.	.	.	.	.	.	.	.	.	.
.	.	.	.	.	.	16ddd\	.	.	.	.	.	.	.	.	.	.	.	.	.
.	.	.	.	.	.	16fff#\JJ	.	.	.	.	.	.	.	.	.	.	.	.	.
!	!	!	!	!	!	!LO:LB:g=original	!	!	!	!	!	!	!	!	!	!	!	!	!
8r	.	.	8r	.	.	16eee\LL	.	.	.	.	8r	.	.	.	.	.	.	.	.
.	.	.	.	.	.	16ddd\	.	.	.	.	.	.	.	.	.	.	.	.	.
8d\L	_ 3	.	8a\L	.	.	16ccc#X\	.	.	.	.	8ff#\	in	.	.	.	.	.	.	.
.	.	.	.	.	.	16ddd\JJ	.	.	.	.	.	.	.	.	.	.	.	.	.
8e\	_ 3	.	8a\	.	.	16eee\LL	.	.	.	.	8gg\L	no-	.	.	.	.	.	.	.
.	.	.	.	.	.	16ccc#\	.	.	.	.	.	.	.	.	.	.	.	.	.
!LO:SIC:s=8c#\J	!	!	!	!	!	!	!	!	!	!	!	!	!	!	!	!	!	!	!
8c\J	X 3	.	8a\J	.	.	16aa\	.	.	.	.	8ee\J	.	.	.	.	.	.	.	.
.	.	.	.	.	.	16gg\JJ	.	.	.	.	.	.	.	.	.	.	.	.	.
!LO:LB:g=original	!	!	!	!	!	!	!	!	!	!	!	!	!	!	!	!	!	!	!
=38	=38	=38	=38	=38	=38	=38	=38	=38	=38	=38	=38	=38	=38	=38	=38	=38	=38	=38	=38
4d\	.	.	4a\	.	2.ryy	16ff#\LL	.	2.ryy	2.ryy	2.ryy	16dd\LL	.	2.ryy	2.ryy	2.ryy	2.ryy	2.ryy	2.ryy	2.ryy
.	.	.	.	.	.	16aa\	.	.	.	.	16ff#\	.	.	.	.	.	.	.	.
.	.	.	.	.	.	16bb\	.	.	.	.	16gg\	.	.	.	.	.	.	.	.
.	.	.	.	.	.	16ccc\JJ	.	.	.	.	16aa\JJ	.	.	.	.	.	.	.	.
4D\	.	.	4f#\	.	.	16ddd\LL	.	.	.	.	16bb\LL	.	.	.	.	.	.	.	.
.	.	.	.	.	.	16ccc\	.	.	.	.	16aa\	.	.	.	.	.	.	.	.
.	.	.	.	.	.	16bb\	.	.	.	.	16gg\	.	.	.	.	.	.	.	.
.	.	.	.	.	.	16aa\JJ	.	.	.	.	16ff#\JJ	.	.	.	.	.	.	.	.
!	!	!	!	!	!	!	!	!	!	!	!LO:LB:g=original	!	!	!	!	!	!	!	!
8r	.	.	8r	.	.	16bb\LL	.	.	.	.	16gg\LL	.	.	.	.	.	.	.	.
.	.	.	.	.	.	16aa\	.	.	.	.	16ff#\	.	.	.	.	.	.	.	.
8D\	.	.	8d\	.	.	16gg\	.	.	.	.	16ee\	.	.	.	.	.	.	.	.
.	.	.	.	.	.	16ff#\JJ	.	.	.	.	16dd\JJ	.	.	.	.	.	.	.	.
=39	=39	=39	=39	=39	=39	=39	=39	=39	=39	=39	=39	=39	=39	=39	=39	=39	=39	=39	=39
4A\	#_	.	4c#X\	.	2.ryy	16ee\LL	.	2.ryy	2.ryy	2.ryy	16cc#X\LL	.	2.ryy	2.ryy	2.ryy	2.ryy	2.ryy	2.ryy	2.ryy
.	.	.	.	.	.	16gg\	.	.	.	.	16ee\	.	.	.	.	.	.	.	.
.	.	.	.	.	.	16aa\	.	.	.	.	16ff#\	.	.	.	.	.	.	.	.
.	.	.	.	.	.	16bb\JJ	.	.	.	.	16gg\JJ	.	.	.	.	.	.	.	.
4AA/	.	.	4c#\	.	.	16ccc#X\LL	.	.	.	.	16aa\LL	.	.	.	.	.	.	.	.
.	.	.	.	.	.	16bb\	.	.	.	.	16gg\	.	.	.	.	.	.	.	.
.	.	.	.	.	.	16aa\	.	.	.	.	16ff#\	.	.	.	.	.	.	.	.
.	.	.	.	.	.	16gg\JJ	.	.	.	.	16ee\JJ	.	.	.	.	.	.	.	.
!	!	!	!LO:LB:g=original	!	!	!	!	!	!	!	!	!	!	!	!	!	!	!	!
8r	.	.	8r	.	.	16aa\LL	.	.	.	.	16ff#\LL	.	.	.	.	.	.	.	.
.	.	.	.	.	.	16gg\	.	.	.	.	16ee\	.	.	.	.	.	.	.	.
8A\	X	.	8a\	.	.	16ff#\	.	.	.	.	16dd\	.	.	.	.	.	.	.	.
.	.	.	.	.	.	16ee\JJ	.	.	.	.	16cc#\JJ	.	.	.	.	.	.	.	.
=40	=40	=40	=40	=40	=40	=40	=40	=40	=40	=40	=40	=40	=40	=40	=40	=40	=40	=40	=40
4d\	.	.	4a\	.	2.ryy	16ff#\LL	.	2.ryy	2.ryy	2.ryy	8dd\L	.	2.ryy	2.ryy	2.ryy	2.ryy	2.ryy	2.ryy	2.ryy
.	.	.	.	.	.	16aa\	.	.	.	.	.	.	.	.	.	.	.	.	.
.	.	.	.	.	.	16ddd\	.	.	.	.	16ff#\L	.	.	.	.	.	.	.	.
.	.	.	.	.	.	16fff#\JJ	.	.	.	.	16aa\JJ	.	.	.	.	.	.	.	.
4D\	.	.	4a\	.	.	16eee\LL	.	.	.	.	16gg\LL	.	.	.	.	.	.	.	.
.	.	.	.	.	.	16ddd\	.	.	.	.	16ff#\	.	.	.	.	.	.	.	.
.	.	.	.	.	.	16ccc#X\	.	.	.	.	16ee\	.	.	.	.	.	.	.	.
.	.	.	.	.	.	16ddd\JJ	.	.	.	.	16ff#\JJ	.	.	.	.	.	.	.	.
4G\	6	.	4b\	.	.	16eee\LL	.	.	.	.	16gg\LL	.	.	.	.	.	.	.	.
.	.	.	.	.	.	16fff#\	.	.	.	.	16aa\	.	.	.	.	.	.	.	.
.	.	.	.	.	.	16ggg\	.	.	.	.	16bb\	.	.	.	.	.	.	.	.
.	.	.	.	.	.	16eee\JJ	.	.	.	.	16gg\JJ	.	.	.	.	.	.	.	.
!	!	!	!	!	!	!LO:LB:g=original	!	!	!	!	!	!	!	!	!	!	!	!	!
=41	=41	=41	=41	=41	=41	=41	=41	=41	=41	=41	=41	=41	=41	=41	=41	=41	=41	=41	=41
!LO:TX:a:t=P:problem=mixed beam	!	!	!	!	!	!LO:MO:mod=(16fff#LL	!	!	!	!	!	!	!	!	!	!	!	!	!
8F#\L	6	.	8a\L	.	2.ryy	16fff#\LL	.	2.ryy	2.ryy	2.ryy	16aa\LL	-mi-	2.ryy	2.ryy	2.ryy	2.ryy	2.ryy	2.ryy	2.ryy
!	!	!	!	!	!	!LO:MO:mod=16ddd)	!	!	!	!	!	!	!	!	!	!	!	!	!
.	.	.	.	.	.	16ddd\	.	.	.	.	16ff#\JJ	.	.	.	.	.	.	.	.
!	!	!	!	!	!	!LO:MO:mod=(16ggg	!	!	!	!	!	!	!	!	!	!	!	!	!
8G\	6	.	8b\	.	.	16ggg\	.	.	.	.	16bb\LL	-ne	.	.	.	.	.	.	.
!	!	!	!	!	!	!LO:MO:mod=16eeeJJ)	!	!	!	!	!	!	!	!	!	!	!	!	!
.	.	.	.	.	.	16eee\JJ	.	.	.	.	16gg\JJ	.	.	.	.	.	.	.	.
8A\	4	.	8a\	.	.	8.ddd\L	.	.	.	.	4ff#\	Do-	.	.	.	.	.	.	.
8A\	.	.	8a\	.	.	.	.	.	.	.	.	.	.	.	.	.	.	.	.
.	.	.	.	.	.	16ddd\Jk	.	.	.	.	.	.	.	.	.	.	.	.	.
8AA/	#	.	8a\	.	.	4eeeT\	.	.	.	.	4ee\	-mi-	.	.	.	.	.	.	.
8AA/J	.	.	8a\J	.	.	.	.	.	.	.	.	.	.	.	.	.	.	.	.
=42	=42	=42	=42	=42	=42	=42	=42	=42	=42	=42	=42	=42	=42	=42	=42	=42	=42	=42	=42
4D\	.	.	(>4.a\	.	2.ryy	(>16ddd\LL	.	2.ryy	2.ryy	2.ryy	4.ff#\	-ni	2.ryy	2.ryy	2.ryy	2.ryy	2.ryy	2.ryy	2.ryy
!	!	!	!	!	!	!LO:SIC:s=16ccc#\	!	!	!	!	!	!	!	!	!	!	!	!	!
.	.	.	.	.	.	16ccc\	.	.	.	.	.	.	.	.	.	.	.	.	.
.	.	.	.	.	.	16bb\	.	.	.	.	.	.	.	.	.	.	.	.	.
.	.	.	.	.	.	16aa\JJ)	.	.	.	.	.	.	.	.	.	.	.	.	.
*	*	*	*	*	*	*tremolo	*	*	*	*	*	*	*	*	*	*	*	*	*
!	!	!	!	!	!	!LO:TREM:dots=4	!	!	!	!	!	!	!	!	!	!	!	!	!
4D\	.	.	.	.	.	16aa\LL	.	.	.	.	.	.	.	.	.	.	.	.	.
.	.	.	.	.	.	16aa\	.	.	.	.	.	.	.	.	.	.	.	.	.
!	!	!	!	!	!	!	!	!	!	!	!	!LO:MO:mod=qui	!	!	!	!	!	!	!
.	.	.	8dd\L)	.	.	16aa\	.	.	.	.	8ff#\	qvi	.	.	.	.	.	.	.
.	.	.	.	.	.	16aa\JJ	.	.	.	.	.	.	.	.	.	.	.	.	.
!	!	!	!	!	!	!LO:TREM:dots=4	!	!	!	!	!	!	!	!	!	!	!	!	!
4r	.	.	(>8cc#X\	.	.	16aa\LL	.	.	.	.	8ee\L	ve-	.	.	.	.	.	.	.
.	.	.	.	.	.	16aa\	.	.	.	.	.	.	.	.	.	.	.	.	.
.	.	.	8ee\J)	.	.	16aa\	.	.	.	.	8gg\J	.	.	.	.	.	.	.	.
.	.	.	.	.	.	16aa\JJ	.	.	.	.	.	.	.	.	.	.	.	.	.
*	*	*	*	*	*	*Xtremolo	*	*	*	*	*	*	*	*	*	*	*	*	*
!	!	!	!	!	!	!	!	!	!	!	!LO:LB:g=original	!	!	!	!	!	!	!	!
=43	=43	=43	=43	=43	=43	=43	=43	=43	=43	=43	=43	=43	=43	=43	=43	=43	=43	=43	=43
4D\	.	.	4.dd|\	.	2.ryy	(>16ff#\LL	.	2.ryy	2.ryy	2.ryy	4.ff#\	-nit	2.ryy	2.ryy	2.ryy	2.ryy	2.ryy	2.ryy	2.ryy
.	.	.	.	.	.	16aa\)	.	.	.	.	.	.	.	.	.	.	.	.	.
.	.	.	.	.	.	(>16dd\	.	.	.	.	.	.	.	.	.	.	.	.	.
.	.	.	.	.	.	16aa\JJ)	.	.	.	.	.	.	.	.	.	.	.	.	.
4F#\	6	.	.	.	.	(>16ff#\LL	.	.	.	.	.	.	.	.	.	.	.	.	.
.	.	.	.	.	.	16aa\)	.	.	.	.	.	.	.	.	.	.	.	.	.
!	!	!	!	!	!	!	!	!	!	!	!	!LO:MO:mod=qui	!	!	!	!	!	!	!
.	.	.	8f#|\L	.	.	(>16ddd\	.	.	.	.	8dd\	qvi	.	.	.	.	.	.	.
.	.	.	.	.	.	16aa\JJ)	.	.	.	.	.	.	.	.	.	.	.	.	.
4A\	#	.	8g|\	.	.	(>16ccc#X\LL	.	.	.	.	8ee\L	ve-	.	.	.	.	.	.	.
.	.	.	.	.	.	16aa\)	.	.	.	.	.	.	.	.	.	.	.	.	.
.	.	.	8e|\J	.	.	(>16eee\	.	.	.	.	8cc#X\J	.	.	.	.	.	.	.	.
.	.	.	.	.	.	16ccc#\JJ)	.	.	.	.	.	.	.	.	.	.	.	.	.
=44	=44	=44	=44	=44	=44	=44	=44	=44	=44	=44	=44	=44	=44	=44	=44	=44	=44	=44	=44
4d\	.	.	(>4.f#\	.	2.ryy	(>16ddd\LL	.	2.ryy	2.ryy	2.ryy	4.dd\	-nit	2.ryy	2.ryy	2.ryy	2.ryy	2.ryy	2.ryy	2.ryy
!	!	!	!	!	!	!LO:SIC:s=16ccc#\	!	!	!	!	!	!	!	!	!	!	!	!	!
.	.	.	.	.	.	16ccc\	.	.	.	.	.	.	.	.	.	.	.	.	.
.	.	.	.	.	.	16bb\	.	.	.	.	.	.	.	.	.	.	.	.	.
.	.	.	.	.	.	16aa\JJ)	.	.	.	.	.	.	.	.	.	.	.	.	.
*	*	*	*	*	*	*tremolo	*	*	*	*	*	*	*	*	*	*	*	*	*
!	!	!	!	!	!	!LO:TREM:dots=4	!	!	!	!	!	!	!	!	!	!	!	!	!
4D\	.	.	.	.	.	16aa\LL	.	.	.	.	.	.	.	.	.	.	.	.	.
.	.	.	.	.	.	16aa\	.	.	.	.	.	.	.	.	.	.	.	.	.
*	*	*	*	*	*	*	*	*	*	*	*	*ij	*	*	*	*	*	*	*
!	!	!	!	!	!	!	!	!	!	!	!	!LO:MO:mod=qui	!	!	!	!	!	!	!
.	.	.	8dd\L)	.	.	16aa\	.	.	.	.	8ff#\	qvi	.	.	.	.	.	.	.
.	.	.	.	.	.	16aa\JJ	.	.	.	.	.	.	.	.	.	.	.	.	.
!	!	!	!	!	!	!LO:TREM:dots=4	!	!	!	!	!	!	!	!	!	!	!	!	!
4r	.	.	(>8cc#X\	.	.	16aa\LL	.	.	.	.	8ee\L	ve-	.	.	.	.	.	.	.
.	.	.	.	.	.	16aa\	.	.	.	.	.	.	.	.	.	.	.	.	.
.	.	.	8ee\J)	.	.	16aa\	.	.	.	.	8gg\J	.	.	.	.	.	.	.	.
!LO:TX:b:i:t=Verte	!	!	!	!	!	!	!	!	!	!	!	!	!	!	!	!	!	!	!
.	.	.	.	.	.	16aa\JJ	.	.	.	.	.	.	.	.	.	.	.	.	.
*	*	*	*	*	*	*Xtremolo	*	*	*	*	*	*	*	*	*	*	*	*	*
!LO:PB:g=original	!	!	!	!	!	!	!	!	!	!	!	!	!	!	!	!	!	!	!
=45	=45	=45	=45	=45	=45	=45	=45	=45	=45	=45	=45	=45	=45	=45	=45	=45	=45	=45	=45
4D\	.	.	(>4.dd\	.	2.ryy	(>16ff#\LL	.	2.ryy	2.ryy	2.ryy	4.ff#\	-nit	2.ryy	2.ryy	2.ryy	2.ryy	2.ryy	2.ryy	2.ryy
.	.	.	.	.	.	16aa\)	.	.	.	.	.	.	.	.	.	.	.	.	.
.	.	.	.	.	.	(>16dd\	.	.	.	.	.	.	.	.	.	.	.	.	.
.	.	.	.	.	.	16aa\JJ)	.	.	.	.	.	.	.	.	.	.	.	.	.
4F#\	.	.	.	.	.	(>16ff#\LL	.	.	.	.	.	.	.	.	.	.	.	.	.
.	.	.	.	.	.	16aa\)	.	.	.	.	.	.	.	.	.	.	.	.	.
!	!	!	!	!	!	!	!	!	!	!	!	!LO:MO:mod=qui	!	!	!	!	!	!	!
.	.	.	8f#\L)	.	.	(>16ddd\	.	.	.	.	8dd\	qvi	.	.	.	.	.	.	.
.	.	.	.	.	.	16aa\JJ)	.	.	.	.	.	.	.	.	.	.	.	.	.
!	!	!	!	!	!	!LO:LB:g=original	!	!	!	!	!	!	!	!	!	!	!	!	!
4A\	.	.	(>8g\	.	.	(>16ccc#X\LL	.	.	.	.	8ee\L	ve-	.	.	.	.	.	.	.
.	.	.	.	.	.	16aa\)	.	.	.	.	.	.	.	.	.	.	.	.	.
.	.	.	8e\J)	.	.	(>16eee\	.	.	.	.	8cc#X\J	.	.	.	.	.	.	.	.
.	.	.	.	.	.	16ccc#\JJ)	.	.	.	.	.	.	.	.	.	.	.	.	.
!	!	!	!LO:LB:g=original	!	!	!	!	!	!	!	!	!	!	!	!	!	!	!	!
=46	=46	=46	=46	=46	=46	=46	=46	=46	=46	=46	=46	=46	=46	=46	=46	=46	=46	=46	=46
*	*	*	*^	*	*	*	*	*	*	*	*	*	*	*	*	*	*	*	*
!	!	!	!	!	!	!	!	!LO:DY:a:rj	!	!	!	!	!	!	!	!	!	!	!	!
8d\L	.	.	8a/L	8f#\L	.	2.ryy	2ddd\	f	2.ryy	2.ryy	2.ryy	4dd\	-nit	2.ryy	2.ryy	2.ryy	2.ryy	2.ryy	2.ryy	2.ryy
*	*	*	*	*	*	*	*	*	*	*	*	*	*Xij	*	*	*	*	*	*	*
8D\	.	.	8a/	8f#\	.	.	.	.	.	.	.	.	.	.	.	.	.	.	.	.
8D\	.	.	8a/	8f#\	.	.	.	.	.	.	.	4r	.	.	.	.	.	.	.	.
8D\	.	.	8a/	8f#\	.	.	.	.	.	.	.	.	.	.	.	.	.	.	.	.
8D\	7nr 5	.	8a/	8f#\	.	.	(>16ddd\LL	.	.	.	.	4r	.	.	.	.	.	.	.	.
.	.	.	.	.	.	.	16cccn\	.	.	.	.	.	.	.	.	.	.	.	.	.
8D\J	.	.	8a/J	8f#\J	.	.	16bb\	.	.	.	.	.	.	.	.	.	.	.	.	.
.	.	.	.	.	.	.	16ccc\JJ)	.	.	.	.	.	.	.	.	.	.	.	.	.
*	*	*	*v	*v	*	*	*	*	*	*	*	*	*	*	*	*	*	*	*	*
=47	=47	=47	=47	=47	=47	=47	=47	=47	=47	=47	=47	=47	=47	=47	=47	=47	=47	=47	=47
*tremolo	*	*	*tremolo	*	*	*	*	*	*	*	*	*	*	*	*	*	*	*	*
!	!	!	!	!	!	!	!	!	!	!	!LO:N:vis=00	!	!	!	!	!	!	!	!
8D\L	6 4	.	8g\L	.	2.ryy	2bb\	.	2.ryy	2.ryy	2.ryy	0.r	.	2.ryy	2.ryy	2.ryy	2.ryy	2.ryy	2.ryy	2.ryy
8D\	.	.	8g\	.	.	.	.	.	.	.	.	.	.	.	.	.	.	.	.
8D\	.	.	8g\	.	.	.	.	.	.	.	.	.	.	.	.	.	.	.	.
8D\	.	.	8g\	.	.	.	.	.	.	.	.	.	.	.	.	.	.	.	.
8D\	.	.	8g\	.	.	8ddd\L	.	.	.	.	.	.	.	.	.	.	.	.	.
8D\J	.	.	8g\J	.	.	8bb\J	.	.	.	.	.	.	.	.	.	.	.	.	.
=48	=48	=48	=48	=48	=48	=48	=48	=48	=48	=48	=48	=48	=48	=48	=48	=48	=48	=48	=48
!	!	!	!	!	!	!LO:MO:mod=(4.aaT	!	!	!	!	!	!	!	!	!	!	!	!	!
8D\L	5 3	.	8f#\L	.	2.ryy	4.aaT\	.	2.ryy	2.ryy	2.ryy	.	.	2.ryy	2.ryy	2.ryy	2.ryy	2.ryy	2.ryy	2.ryy
8D\	.	.	8f#\	.	.	.	.	.	.	.	.	.	.	.	.	.	.	.	.
8D\	.	.	8f#\	.	.	.	.	.	.	.	.	.	.	.	.	.	.	.	.
!	!	!	!	!	!	!LO:MO:mod=16bbLL	!	!	!	!	!	!	!	!	!	!	!	!	!
8D\	.	.	8f#\	.	.	(>16bb\LL	.	.	.	.	.	.	.	.	.	.	.	.	.
.	.	.	.	.	.	16aa\JJ)	.	.	.	.	.	.	.	.	.	.	.	.	.
8D\	.	.	8f#\	.	.	(>16ddd\LL	.	.	.	.	.	.	.	.	.	.	.	.	.
.	.	.	.	.	.	16aa\	.	.	.	.	.	.	.	.	.	.	.	.	.
8D\J	.	.	8f#\J	.	.	16ff#\	.	.	.	.	.	.	.	.	.	.	.	.	.
.	.	.	.	.	.	16aa\JJ)	.	.	.	.	.	.	.	.	.	.	.	.	.
*Xtremolo	*	*	*Xtremolo	*	*	*	*	*	*	*	*	*	*	*	*	*	*	*	*
=49	=49	=49	=49	=49	=49	=49	=49	=49	=49	=49	=49	=49	=49	=49	=49	=49	=49	=49	=49
4AA/	7 #	.	4e\	.	2.ryy	(>8.aa\L	.	2.ryy	2.ryy	2.ryy	.	.	2.ryy	2.ryy	2.ryy	2.ryy	2.ryy	2.ryy	2.ryy
.	.	.	.	.	.	16gg\Jk)	.	.	.	.	.	.	.	.	.	.	.	.	.
4D\	.	.	4d\	.	.	16ff#\LL	.	.	.	.	.	.	.	.	.	.	.	.	.
.	.	.	.	.	.	16aa\	.	.	.	.	.	.	.	.	.	.	.	.	.
.	.	.	.	.	.	16bb\	.	.	.	.	.	.	.	.	.	.	.	.	.
.	.	.	.	.	.	16ccc#X\JJ	.	.	.	.	.	.	.	.	.	.	.	.	.
4r	.	.	4r	.	.	16ddd\LL	.	.	.	.	.	.	.	.	.	.	.	.	.
.	.	.	.	.	.	16ccc#\	.	.	.	.	.	.	.	.	.	.	.	.	.
.	.	.	.	.	.	16bb\	.	.	.	.	.	.	.	.	.	.	.	.	.
.	.	.	.	.	.	16aa\JJ	.	.	.	.	.	.	.	.	.	.	.	.	.
=50	=50	=50	=50	=50	=50	=50	=50	=50	=50	=50	=50	=50	=50	=50	=50	=50	=50	=50	=50
8r	.	.	8r	.	2.ryy	2aa\	.	2.ryy	2.ryy	2.ryy	.	.	2.ryy	2.ryy	2.ryy	2.ryy	2.ryy	2.ryy	2.ryy
8d\L	5_ 3	.	8f#|\L	.	.	.	.	.	.	.	.	.	.	.	.	.	.	.	.
8e\	_ 3	.	8g|\	.	.	.	.	.	.	.	.	.	.	.	.	.	.	.	.
8d\	_ 3	.	8f#|\	.	.	.	.	.	.	.	.	.	.	.	.	.	.	.	.
8c#X\	_ 3	.	8e|\	.	.	(>16bb\LL	.	.	.	.	.	.	.	.	.	.	.	.	.
.	.	.	.	.	.	16aa\	.	.	.	.	.	.	.	.	.	.	.	.	.
8e\J	_ 3	.	8g|\J	.	.	16gg\	.	.	.	.	.	.	.	.	.	.	.	.	.
.	.	.	.	.	.	16aa\JJ)	.	.	.	.	.	.	.	.	.	.	.	.	.
=51	=51	=51	=51	=51	=51	=51	=51	=51	=51	=51	=51	=51	=51	=51	=51	=51	=51	=51	=51
!	!	!	!	!	!	!	!	!	!	!	!LO:N:vis=0	!	!	!	!	!	!	!	!
8d\L	_ 3	.	8f#|\L	.	2.ryy	(8.aa\L	.	2.ryy	2.ryy	2.ryy	1.r	.	2.ryy	2.ryy	2.ryy	2.ryy	2.ryy	2.ryy	2.ryy
!LO:MO:mod=(16dL	!	!	!	!	!	!	!	!	!	!	!	!	!	!	!	!	!	!	!
16d\L	_ 3	.	(>16f#\L	.	.	.	.	.	.	.	.	.	.	.	.	.	.	.	.
!LO:SIC:s=16c#\JJ	!	!	!	!	!	!	!	!	!	!	!	!	!	!	!	!	!	!	!
!LO:MO:mod=16c#JJ)	!	!	!	!	!	!	!	!	!	!	!	!	!	!	!	!	!	!	!
16c\JJ	_ 3	.	16e\JJ)	.	.	16bb\Jk)	.	.	.	.	.	.	.	.	.	.	.	.	.
8d\L	X 3	.	8f#|\L	.	.	8aa\L	.	.	.	.	.	.	.	.	.	.	.	.	.
8D\	.	.	8f#|\	.	.	16ddd\L	.	.	.	.	.	.	.	.	.	.	.	.	.
.	.	.	.	.	.	16fff#\JJ	.	.	.	.	.	.	.	.	.	.	.	.	.
!	!	!	!	!	!	!LO:LB:g=original	!	!	!	!	!	!	!	!	!	!	!	!	!
8E\	x 6	.	8g|\	.	.	(>16eee\LL	.	.	.	.	.	.	.	.	.	.	.	.	.
.	.	.	.	.	.	16ddd\	.	.	.	.	.	.	.	.	.	.	.	.	.
8F#\J	.	.	8a|\J	.	.	16ccc#X\	.	.	.	.	.	.	.	.	.	.	.	.	.
.	.	.	.	.	.	16ddd\JJ)	.	.	.	.	.	.	.	.	.	.	.	.	.
!	!	!	!LO:PB:g=original	!	!	!	!	!	!	!	!	!	!	!	!	!	!	!	!
=52	=52	=52	=52	=52	=52	=52	=52	=52	=52	=52	=52	=52	=52	=52	=52	=52	=52	=52	=52
!LO:TX:a:t=P:problem=mixed beam	!	!	!	!	!	!	!	!	!	!	!	!	!	!	!	!	!	!	!
8G\L	6_	.	8b\L	.	2.ryy	16bb\LL	.	2.ryy	2.ryy	2.ryy	.	.	2.ryy	2.ryy	2.ryy	2.ryy	2.ryy	2.ryy	2.ryy
.	.	.	.	.	.	16gg\	.	.	.	.	.	.	.	.	.	.	.	.	.
8G\	.	.	8b\	.	.	16ff#\	.	.	.	.	.	.	.	.	.	.	.	.	.
.	.	.	.	.	.	16ee\JJ	.	.	.	.	.	.	.	.	.	.	.	.	.
8A\	4	.	8a\	.	.	4dd\	.	.	.	.	.	.	.	.	.	.	.	.	.
8A\	.	.	8f#\	.	.	.	.	.	.	.	.	.	.	.	.	.	.	.	.
8AA/	#_	.	8g\	.	.	4eeT\	.	.	.	.	.	.	.	.	.	.	.	.	.
8AA/J	x	.	8e\J	.	.	.	.	.	.	.	.	.	.	.	.	.	.	.	.
=53	=53	=53	=53	=53	=53	=53	=53	=53	=53	=53	=53	=53	=53	=53	=53	=53	=53	=53	=53
4D\	.	.	8f#\L	.	2.ryy	8dd\L	.	2.ryy	2.ryy	2.ryy	2.r	.	2.ryy	2.ryy	2.ryy	2.ryy	2.ryy	2.ryy	2.ryy
.	.	.	8a\J	.	.	8ff#\J	.	.	.	.	.	.	.	.	.	.	.	.	.
4D\	.	.	4f#\	.	.	4dd\	.	.	.	.	.	.	.	.	.	.	.	.	.
4r	.	.	4r	.	.	4r	.	.	.	.	.	.	.	.	.	.	.	.	.
!LO:LB:g=original	!	!	!	!	!	!	!	!	!	!	!	!	!	!	!	!	!	!	!
=54	=54	=54	=54	=54	=54	=54	=54	=54	=54	=54	=54	=54	=54	=54	=54	=54	=54	=54	=54
!	!	!LO:MO:null:mod=!LO&colon;DY&colon;ed=brack	!	!	!	!	!	!	!	!	!	!	!	!	!	!	!	!	!
!	!	!	!	!	!	!	!	!	!	!	!	!	!	!	!	!	!	!	!
!	!	!LO:MO:null:mod=p	!	!LO:DY:a	!	!LO:MO:mod=(4.aa	!LO:DY:a:rj	!	!	!	!	!	!	!	!	!	!	!	!
8D\L	.	.	8f#\L	p	2.ryy	4.aa\	p	2.ryy	2.ryy	2.ryy	(>4.ff#\	Be-	2.ryy	2.ryy	2.ryy	2.ryy	2.ryy	2.ryy	2.ryy
16D\L	.	.	16f#\L	.	.	.	.	.	.	.	.	.	.	.	.	.	.	.	.
16E\JJ	.	.	16g\JJ	.	.	.	.	.	.	.	.	.	.	.	.	.	.	.	.
8F#\L	6	.	8a\L	.	.	.	.	.	.	.	.	.	.	.	.	.	.	.	.
!	!	!	!	!	!	!	!	!	!	!	!LO:MO:mod=16ccLL	!	!	!	!	!	!	!	!
8G\	.	.	8b\	.	.	16ddd\LL	.	.	.	.	16bb\LL)	.	.	.	.	.	.	.	.
!	!	!	!	!	!	!LO:MO:mod=16bbJJ)	!	!	!	!	!	!	!	!	!	!	!	!	!
.	.	.	.	.	.	16bb\JJ	.	.	.	.	16gg\JJ	.	.	.	.	.	.	.	.
8A\	#_	.	8cc#X\	.	.	(>16aa\LL	.	.	.	.	16ff#\LL	.	.	.	.	.	.	.	.
!	!	!	!	!	!	!	!	!	!	!	!LO:MO:mod=16eeJJ)	!	!	!	!	!	!	!	!
.	.	.	.	.	.	16gg\	.	.	.	.	16ee\JJ	.	.	.	.	.	.	.	.
8A\J	x	.	8cc#\J	.	.	16ff#\	.	.	.	.	16dd\LL	-ne-	.	.	.	.	.	.	.
.	.	.	.	.	.	16gg\JJ)	.	.	.	.	16ee\JJ	.	.	.	.	.	.	.	.
=55	=55	=55	=55	=55	=55	=55	=55	=55	=55	=55	=55	=55	=55	=55	=55	=55	=55	=55	=55
*tremolo	*	*	*	*	*	*	*	*	*	*	*	*	*	*	*	*	*	*	*
8D\L	.	.	8dd\L	.	2.ryy	(>16aa\LL	.	2.ryy	2.ryy	2.ryy	16ff#\LL	-dic-	2.ryy	2.ryy	2.ryy	2.ryy	2.ryy	2.ryy	2.ryy
.	.	.	.	.	.	16bb\	.	.	.	.	16gg\	.	.	.	.	.	.	.	.
8D\	.	.	8dd\	.	.	16aa\	.	.	.	.	16ff#\	.	.	.	.	.	.	.	.
.	.	.	.	.	.	16gg\JJ)	.	.	.	.	16ee\JJ	.	.	.	.	.	.	.	.
8D\	.	.	8a\	.	.	8ff#\L	.	.	.	.	4dd\	-tus	.	.	.	.	.	.	.
8D\	.	.	8a\	.	.	(>16dd\L	.	.	.	.	.	.	.	.	.	.	.	.	.
.	.	.	.	.	.	16ff#\JJ)	.	.	.	.	.	.	.	.	.	.	.	.	.
!	!	!	!	!	!	!	!	!	!	!	!LO:LB:g=original	!	!	!	!	!	!	!	!
8D\	.	.	8a\	.	.	(>16aa\LL	.	.	.	.	8r	.	.	.	.	.	.	.	.
.	.	.	.	.	.	16ff#\)	.	.	.	.	.	.	.	.	.	.	.	.	.
!	!	!	!	!	!	!	!	!	!	!	!	!LO:MO:mod=qui	!	!	!	!	!	!	!
8D\J	.	.	8a\J	.	.	(>16ddd\	.	.	.	.	8ff#\	qvi	.	.	.	.	.	.	.
.	.	.	.	.	.	16aa\JJ)	.	.	.	.	.	.	.	.	.	.	.	.	.
*Xtremolo	*	*	*	*	*	*	*	*	*	*	*	*	*	*	*	*	*	*	*
=56	=56	=56	=56	=56	=56	=56	=56	=56	=56	=56	=56	=56	=56	=56	=56	=56	=56	=56	=56
!LO:TX:a:t=P:problem=mixed beam	!	!	!	!	!	!	!	!	!	!	!	!	!	!	!	!	!	!	!
8G\L	6_	.	8b\L	.	2.ryy	(>16aa\LL	.	2.ryy	2.ryy	2.ryy	16ff#\LL	ve-	2.ryy	2.ryy	2.ryy	2.ryy	2.ryy	2.ryy	2.ryy
.	.	.	.	.	.	16gg\)	.	.	.	.	16ee\	.	.	.	.	.	.	.	.
8G\	.	.	8b\	.	.	(>16bb\	.	.	.	.	16gg\	.	.	.	.	.	.	.	.
.	.	.	.	.	.	16gg\JJ)	.	.	.	.	16ee\JJ	.	.	.	.	.	.	.	.
8A\	4	.	8a\	.	.	4ff#\	.	.	.	.	4dd\	-nit	.	.	.	.	.	.	.
8A\	.	.	8a\	.	.	.	.	.	.	.	.	.	.	.	.	.	.	.	.
*	*	*	*	*	*	*	*	*	*	*	*	*ij	*	*	*	*	*	*	*
!	!	!	!	!	!	!	!	!	!	!	!	!LO:MO:mod=qui	!	!	!	!	!	!	!
8AA/	#	.	8a\	.	.	4eeT\	.	.	.	.	4cc#X\	qvi	.	.	.	.	.	.	.
8AA/J	.	.	8a\J	.	.	.	.	.	.	.	.	.	.	.	.	.	.	.	.
=57	=57	=57	=57	=57	=57	=57	=57	=57	=57	=57	=57	=57	=57	=57	=57	=57	=57	=57	=57
4D\	.	.	4a\	.	2.ryy	8ff#\L	.	2.ryy	2.ryy	2.ryy	8dd\L	ve-	2.ryy	2.ryy	2.ryy	2.ryy	2.ryy	2.ryy	2.ryy
.	.	.	.	.	.	16gg\L	.	.	.	.	16ee\L	.	.	.	.	.	.	.	.
.	.	.	.	.	.	16ff#\JJ	.	.	.	.	16dd\JJ	.	.	.	.	.	.	.	.
!	!	!	!	!	!	!LO:LB:g=original	!	!	!	!	!LO:SIC:s=4cc#\	!	!	!	!	!	!	!	!
4AA/	#	.	(>16e\LL	.	.	8ee\L	.	.	.	.	4cc\	-nit	.	.	.	.	.	.	.
*	*	*	*	*	*	*	*	*	*	*	*	*Xij	*	*	*	*	*	*	*
.	.	.	16c#X\	.	.	.	.	.	.	.	.	.	.	.	.	.	.	.	.
.	.	.	16d\	.	.	(16ff#\L	.	.	.	.	.	.	.	.	.	.	.	.	.
.	.	.	16e\JJ)	.	.	16gg\JJ	.	.	.	.	.	.	.	.	.	.	.	.	.
!	!	!	!LO:LB:g=original	!	!	!	!	!	!	!	!	!	!	!	!	!	!	!	!
4r	.	.	(>16f#\LL	.	.	16aa\LL	.	.	.	.	4r	.	.	.	.	.	.	.	.
.	.	.	16e\	.	.	16gg\	.	.	.	.	.	.	.	.	.	.	.	.	.
.	.	.	16f#\	.	.	16aa\	.	.	.	.	.	.	.	.	.	.	.	.	.
.	.	.	16g\JJ)	.	.	16bb\JJ)	.	.	.	.	.	.	.	.	.	.	.	.	.
=58	=58	=58	=58	=58	=58	=58	=58	=58	=58	=58	=58	=58	=58	=58	=58	=58	=58	=58	=58
!	!	!	!	!	!	!LO:MO:mod=(4.aaT	!	!	!	!	!	!LO:MO:mod=qui	!	!	!	!	!	!	!
8D\L	.	.	8f#\L	.	2.ryy	4.aaT\	.	2.ryy	2.ryy	2.ryy	(>4.ff#\	qvi	2.ryy	2.ryy	2.ryy	2.ryy	2.ryy	2.ryy	2.ryy
16D\L	.	.	16f#\L	.	.	.	.	.	.	.	.	.	.	.	.	.	.	.	.
16E\JJ	6	.	16g\JJ	.	.	.	.	.	.	.	.	.	.	.	.	.	.	.	.
8F#\L	.	.	8a\L	.	.	.	.	.	.	.	.	.	.	.	.	.	.	.	.
!	!	!	!	!	!	!	!	!	!	!	!LO:MO:mod=16bbLL	!	!	!	!	!	!	!	!
8G\	.	.	8b\	.	.	16ddd\LL	.	.	.	.	16bb\LL)	.	.	.	.	.	.	.	.
!	!	!	!	!	!	!LO:MO:mod=16bbJJ)	!	!	!	!	!LO:MO:mod=16ggJJ)	!	!	!	!	!	!	!	!
.	.	.	.	.	.	16bb\JJ	.	.	.	.	16gg\JJ	.	.	.	.	.	.	.	.
8A\	#_	.	8cc#X\	.	.	(>16aa\LL	.	.	.	.	16ff#\LL	ve-	.	.	.	.	.	.	.
.	.	.	.	.	.	16gg\	.	.	.	.	16ee\	.	.	.	.	.	.	.	.
8A\J	x	.	8cc#\J	.	.	16ff#\	.	.	.	.	16dd\	.	.	.	.	.	.	.	.
.	.	.	.	.	.	16gg\JJ)	.	.	.	.	16ee\JJ	.	.	.	.	.	.	.	.
=59	=59	=59	=59	=59	=59	=59	=59	=59	=59	=59	=59	=59	=59	=59	=59	=59	=59	=59	=59
*tremolo	*	*	*	*	*	*	*	*	*	*	*	*	*	*	*	*	*	*	*
8D\L	.	.	8dd\L	.	2.ryy	(>16aa\LL	.	2.ryy	2.ryy	2.ryy	16ff#\LL	.	2.ryy	2.ryy	2.ryy	2.ryy	2.ryy	2.ryy	2.ryy
.	.	.	.	.	.	16bb\	.	.	.	.	16gg\	.	.	.	.	.	.	.	.
8D\	.	.	8a\	.	.	16aa\	.	.	.	.	16ff#\	.	.	.	.	.	.	.	.
.	.	.	.	.	.	16gg\JJ)	.	.	.	.	16ee\JJ	.	.	.	.	.	.	.	.
8D\	.	.	8a\	.	.	16ff#\LL	.	.	.	.	4dd\	-nit	.	.	.	.	.	.	.
.	.	.	.	.	.	16aa\	.	.	.	.	.	.	.	.	.	.	.	.	.
8D\	.	.	8a\	.	.	16ddd\	.	.	.	.	.	.	.	.	.	.	.	.	.
.	.	.	.	.	.	16fff#\JJ	.	.	.	.	.	.	.	.	.	.	.	.	.
8D\	.	.	8a\	.	.	16eee\LL	.	.	.	.	8r	.	.	.	.	.	.	.	.
.	.	.	.	.	.	16ddd\	.	.	.	.	.	.	.	.	.	.	.	.	.
8D\J	.	.	8a\J	.	.	16ccc#X\	.	.	.	.	8ff#\	in	.	.	.	.	.	.	.
.	.	.	.	.	.	16ddd\JJ	.	.	.	.	.	.	.	.	.	.	.	.	.
*Xtremolo	*	*	*	*	*	*	*	*	*	*	*	*	*	*	*	*	*	*	*
=60	=60	=60	=60	=60	=60	=60	=60	=60	=60	=60	=60	=60	=60	=60	=60	=60	=60	=60	=60
!LO:TX:a:t=P:problem=mixed beam	!	!	!	!	!	!	!	!	!	!	!	!	!	!	!	!	!	!	!
8G\L	6_	.	8b\L	.	2.ryy	(>16eee\LL	.	2.ryy	2.ryy	2.ryy	16gg\LL	no-	2.ryy	2.ryy	2.ryy	2.ryy	2.ryy	2.ryy	2.ryy
.	.	.	.	.	.	16fff#\	.	.	.	.	16aa\	.	.	.	.	.	.	.	.
8G\	.	.	8b\	.	.	16ggg\	.	.	.	.	16bb\	.	.	.	.	.	.	.	.
.	.	.	.	.	.	16eee\JJ)	.	.	.	.	16gg\JJ	.	.	.	.	.	.	.	.
8A\	4	.	8a\	.	.	4ddd\	.	.	.	.	4ff#\	-mi-	.	.	.	.	.	.	.
8A\	.	.	8a\	.	.	.	.	.	.	.	.	.	.	.	.	.	.	.	.
8AA/	#_	.	8a\	.	.	4ccc#Xt\	.	.	.	.	4ee\	-ne	.	.	.	.	.	.	.
8AA/J	x	.	8a\J	.	.	.	.	.	.	.	.	.	.	.	.	.	.	.	.
!	!	!	!	!	!	!LO:PB:g=original	!	!	!	!	!LO:LB:g=original	!	!	!	!	!	!	!	!
=61	=61	=61	=61	=61	=61	=61	=61	=61	=61	=61	=61	=61	=61	=61	=61	=61	=61	=61	=61
!	!	!	!	!	!	!	!	!	!	!	!	!LO:MO:mod=Do-	!	!	!	!	!	!	!
8D\L	.	.	4a\	.	2.ryy	16ddd\LL	.	2.ryy	2.ryy	2.ryy	8ff#\	do-	2.ryy	2.ryy	2.ryy	2.ryy	2.ryy	2.ryy	2.ryy
.	.	.	.	.	.	16dd\	.	.	.	.	.	.	.	.	.	.	.	.	.
8d\J	.	.	.	.	.	16ee\	.	.	.	.	8ff#\	-mi-	.	.	.	.	.	.	.
.	.	.	.	.	.	16ff#\JJ	.	.	.	.	.	.	.	.	.	.	.	.	.
4D\	.	.	4a\	.	.	16gg\LL	.	.	.	.	4ff#\	-ni	.	.	.	.	.	.	.
.	.	.	.	.	.	16aa\	.	.	.	.	.	.	.	.	.	.	.	.	.
.	.	.	.	.	.	16bb\	.	.	.	.	.	.	.	.	.	.	.	.	.
!	!	!	!	!	!	!LO:SIC:s=16ccc#\JJ	!	!	!	!	!	!	!	!	!	!	!	!	!
.	.	.	.	.	.	16ccc\JJ	.	.	.	.	.	.	.	.	.	.	.	.	.
4r	.	.	4r	.	.	16ddd\LL	.	.	.	.	8r	.	.	.	.	.	.	.	.
.	.	.	.	.	.	16aa\	.	.	.	.	.	.	.	.	.	.	.	.	.
!	!	!	!	!	!	!	!	!	!	!	!	!LO:MO:mod=qui	!	!	!	!	!	!	!
.	.	.	.	.	.	16gg\	.	.	.	.	8dd\	qvi	.	.	.	.	.	.	.
.	.	.	.	.	.	16ffn\JJ	.	.	.	.	.	.	.	.	.	.	.	.	.
!LO:LB:g=original	!	!	!	!	!	!	!	!	!	!	!	!	!	!	!	!	!	!	!
=62	=62	=62	=62	=62	=62	=62	=62	=62	=62	=62	=62	=62	=62	=62	=62	=62	=62	=62	=62
8r	.	.	8r	.	2.ryy	16ee\LL	.	2.ryy	2.ryy	2.ryy	4.dd\	ve-	2.ryy	2.ryy	2.ryy	2.ryy	2.ryy	2.ryy	2.ryy
.	.	.	.	.	.	16ffn\	.	.	.	.	.	.	.	.	.	.	.	.	.
8d\L	n_	.	8dd\L	.	.	16gg\	.	.	.	.	.	.	.	.	.	.	.	.	.
.	.	.	.	.	.	16ff\JJ	.	.	.	.	.	.	.	.	.	.	.	.	.
8cn\	.	.	8ccn\	.	.	4ff\	.	.	.	.	.	.	.	.	.	.	.	.	.
8B\	.	.	8b\	.	.	.	.	.	.	.	16ccn\LL	.	.	.	.	.	.	.	.
.	.	.	.	.	.	.	.	.	.	.	16dd\JJ	.	.	.	.	.	.	.	.
8A\	.	.	8a\	.	.	8r	.	.	.	.	16ee\LL	-nit	.	.	.	.	.	.	.
.	.	.	.	.	.	.	.	.	.	.	16dd\JJ	.	.	.	.	.	.	.	.
*	*	*	*	*	*	*	*	*	*	*	*	*ij	*	*	*	*	*	*	*
!	!	!	!	!	!	!	!	!	!	!	!	!LO:MO:mod=qui	!	!	!	!	!	!	!
8G#X\J	.	.	8g#X\J	.	.	8ff\	.	.	.	.	16cc\LL	qvi	.	.	.	.	.	.	.
.	.	.	.	.	.	.	.	.	.	.	16dd\JJ	.	.	.	.	.	.	.	.
!	!	!	!LO:LB:g=original	!	!	!	!	!	!	!	!	!	!	!	!	!	!	!	!
=63	=63	=63	=63	=63	=63	=63	=63	=63	=63	=63	=63	=63	=63	=63	=63	=63	=63	=63	=63
!LO:TX:a:t=P:problem=mixed beam	!	!	!	!	!	!	!	!	!	!	!	!	!	!	!	!	!	!	!
8A\L	n_	.	4a\	.	2.ryy	16ee\LL	.	2.ryy	2.ryy	2.ryy	8dd\L	ve-	2.ryy	2.ryy	2.ryy	2.ryy	2.ryy	2.ryy	2.ryy
.	.	.	.	.	.	16cc\	.	.	.	.	.	.	.	.	.	.	.	.	.
8AA/J	.	.	.	.	.	16dd\	.	.	.	.	8cc#X\J	.	.	.	.	.	.	.	.
.	.	.	.	.	.	16ee\JJ	.	.	.	.	.	.	.	.	.	.	.	.	.
4A\	X	.	4a\	.	.	16ff#\LL	.	.	.	.	4cc#\	-nit	.	.	.	.	.	.	.
.	.	.	.	.	.	16gg\	.	.	.	.	.	.	.	.	.	.	.	.	.
.	.	.	.	.	.	16aa\	.	.	.	.	.	.	.	.	.	.	.	.	.
.	.	.	.	.	.	16bb\JJ	.	.	.	.	.	.	.	.	.	.	.	.	.
4r	.	.	4r	.	.	16cccn\LL	.	.	.	.	8r	.	.	.	.	.	.	.	.
.	.	.	.	.	.	16gg\	.	.	.	.	.	.	.	.	.	.	.	.	.
!	!	!	!	!	!	!	!	!	!	!	!	!LO:MO:mod=qui	!	!	!	!	!	!	!
.	.	.	.	.	.	16ff#\	.	.	.	.	8ccn\	qvi	.	.	.	.	.	.	.
.	.	.	.	.	.	16ee\JJ	.	.	.	.	.	.	.	.	.	.	.	.	.
=64	=64	=64	=64	=64	=64	=64	=64	=64	=64	=64	=64	=64	=64	=64	=64	=64	=64	=64	=64
8r	.	.	8r	.	2.ryy	(>16dd\LL	.	2.ryy	2.ryy	2.ryy	4.cc\	ve-	2.ryy	2.ryy	2.ryy	2.ryy	2.ryy	2.ryy	2.ryy
.	.	.	.	.	.	16ee\	.	.	.	.	.	.	.	.	.	.	.	.	.
8c\L	3_	.	8cc\L	.	.	16ff#\	.	.	.	.	.	.	.	.	.	.	.	.	.
.	.	.	.	.	.	16ee\JJ)	.	.	.	.	.	.	.	.	.	.	.	.	.
8B\	.	.	8b\	.	.	4ee\	.	.	.	.	.	.	.	.	.	.	.	.	.
8A\	.	.	8a\	.	.	.	.	.	.	.	16b\LL	.	.	.	.	.	.	.	.
.	.	.	.	.	.	.	.	.	.	.	16cc\JJ	.	.	.	.	.	.	.	.
8Gn\	.	.	8gn\	.	.	8r	.	.	.	.	16dd\LL	-nit	.	.	.	.	.	.	.
.	.	.	.	.	.	.	.	.	.	.	16cc\JJ	.	.	.	.	.	.	.	.
!	!	!	!	!	!	!	!	!	!	!	!	!LO:MO:mod=qui	!	!	!	!	!	!	!
8F#\J	.	.	8f#\J	.	.	8aa\	.	.	.	.	16b\LL	qvi	.	.	.	.	.	.	.
.	.	.	.	.	.	.	.	.	.	.	16cc\JJ	.	.	.	.	.	.	.	.
=65	=65	=65	=65	=65	=65	=65	=65	=65	=65	=65	=65	=65	=65	=65	=65	=65	=65	=65	=65
4G\	3	.	4g\	.	2.ryy	16gg\LL	.	2.ryy	2.ryy	2.ryy	8cc\L	ve-	2.ryy	2.ryy	2.ryy	2.ryy	2.ryy	2.ryy	2.ryy
.	.	.	.	.	.	16dd\	.	.	.	.	.	.	.	.	.	.	.	.	.
.	.	.	.	.	.	16ee\	.	.	.	.	8b\J	.	.	.	.	.	.	.	.
.	.	.	.	.	.	16dd\JJ	.	.	.	.	.	.	.	.	.	.	.	.	.
!	!	!	!	!	!	!LO:LB:g=original	!	!	!	!	!	!	!	!	!	!	!	!	!
4GG/	.	.	4d\	.	.	16b\LL	.	.	.	.	4b\	-nit	.	.	.	.	.	.	.
*	*	*	*	*	*	*	*	*	*	*	*	*Xij	*	*	*	*	*	*	*
.	.	.	.	.	.	16dd\	.	.	.	.	.	.	.	.	.	.	.	.	.
.	.	.	.	.	.	16gg\	.	.	.	.	.	.	.	.	.	.	.	.	.
.	.	.	.	.	.	16dd\JJ	.	.	.	.	.	.	.	.	.	.	.	.	.
8r	.	.	8r	.	.	16bb\LL	.	.	.	.	8r	.	.	.	.	.	.	.	.
.	.	.	.	.	.	16gg\	.	.	.	.	.	.	.	.	.	.	.	.	.
!	!	!	!	!	!	!	!	!	!	!	!	!LO:MO:mod=qui	!	!	!	!	!	!	!
8G\	.	.	8d\	.	.	16ddd\	.	.	.	.	8gg\	qvi	.	.	.	.	.	.	.
!	!	!	!	!	!	!	!	!	!	!	!LO:TX:b:i:t=Verte:mod=	!	!	!	!	!	!	!	!
.	.	.	.	.	.	16bb\JJ	.	.	.	.	.	.	.	.	.	.	.	.	.
!	!	!	!	!	!	!	!	!	!	!	!LO:PB:g=original	!	!	!	!	!	!	!	!
=66	=66	=66	=66	=66	=66	=66	=66	=66	=66	=66	=66	=66	=66	=66	=66	=66	=66	=66	=66
4d\	4	.	4d\	.	2.ryy	(>8bb\L	.	2.ryy	2.ryy	2.ryy	8gg\L	ve-	2.ryy	2.ryy	2.ryy	2.ryy	2.ryy	2.ryy	2.ryy
.	3	.	.	.	.	8aa\J)	.	.	.	.	8ff#\J	.	.	.	.	.	.	.	.
4D\	.	.	4d\	.	.	16r	.	.	.	.	4ff#\	-nit	.	.	.	.	.	.	.
.	.	.	.	.	.	16dd\LL	.	.	.	.	.	.	.	.	.	.	.	.	.
.	.	.	.	.	.	16ff#\	.	.	.	.	.	.	.	.	.	.	.	.	.
.	.	.	.	.	.	16dd\JJ	.	.	.	.	.	.	.	.	.	.	.	.	.
8r	.	.	8r	.	.	16aa\LL	.	.	.	.	8r	.	.	.	.	.	.	.	.
.	.	.	.	.	.	16ff#\	.	.	.	.	.	.	.	.	.	.	.	.	.
!	!	!	!	!	!	!	!	!	!	!	!	!LO:MO:mod=qui	!	!	!	!	!	!	!
8F#\	6 5	.	8d\	.	.	16ddd\	.	.	.	.	8aa\	qvi	.	.	.	.	.	.	.
.	.	.	.	.	.	16ccc\JJ	.	.	.	.	.	.	.	.	.	.	.	.	.
=67	=67	=67	=67	=67	=67	=67	=67	=67	=67	=67	=67	=67	=67	=67	=67	=67	=67	=67	=67
4G\	.	.	4d\	.	2.ryy	(>8ccc\L	.	2.ryy	2.ryy	2.ryy	8aa\L	ve-	2.ryy	2.ryy	2.ryy	2.ryy	2.ryy	2.ryy	2.ryy
.	.	.	.	.	.	8bb\J)	.	.	.	.	8gg\J	.	.	.	.	.	.	.	.
4GG/	.	.	4d\	.	.	16r	.	.	.	.	4gg\	-nit	.	.	.	.	.	.	.
.	.	.	.	.	.	16dd\LL	.	.	.	.	.	.	.	.	.	.	.	.	.
.	.	.	.	.	.	16gg\	.	.	.	.	.	.	.	.	.	.	.	.	.
.	.	.	.	.	.	16dd\JJ	.	.	.	.	.	.	.	.	.	.	.	.	.
8r	.	.	8r	.	.	16bb\LL	.	.	.	.	8r	.	.	.	.	.	.	.	.
.	.	.	.	.	.	16gg\	.	.	.	.	.	.	.	.	.	.	.	.	.
8G\	.	.	8d\	.	.	16ddd\	.	.	.	.	8gg\	in	.	.	.	.	.	.	.
.	.	.	.	.	.	16bb\JJ	.	.	.	.	.	.	.	.	.	.	.	.	.
=68	=68	=68	=68	=68	=68	=68	=68	=68	=68	=68	=68	=68	=68	=68	=68	=68	=68	=68	=68
!	!	!	!	!	!	!LO:TUP:a	!	!	!	!	!	!	!	!	!	!	!	!	!
8c\L	6_	.	8e\L	.	2.ryy	(>24aa\LL	.	2.ryy	2.ryy	2.ryy	4ee\	no-	2.ryy	2.ryy	2.ryy	2.ryy	2.ryy	2.ryy	2.ryy
.	.	.	.	.	.	24ccc\	.	.	.	.	.	.	.	.	.	.	.	.	.
.	.	.	.	.	.	24bb\JJ)	.	.	.	.	.	.	.	.	.	.	.	.	.
!	!	!	!	!	!	!LO:TUP:a	!	!	!	!	!	!	!	!	!	!	!	!	!
8c\	.	.	8e\	.	.	(>24aa\LL	.	.	.	.	.	.	.	.	.	.	.	.	.
.	.	.	.	.	.	24gg#X\	.	.	.	.	.	.	.	.	.	.	.	.	.
.	.	.	.	.	.	24aa\JJ)	.	.	.	.	.	.	.	.	.	.	.	.	.
!	!	!	!	!	!	!LO:TUP:a	!	!	!	!	!	!	!	!	!	!	!	!	!
8c\	.	.	8e\	.	.	(>24ee\LL	.	.	.	.	4cc\	-mi-	.	.	.	.	.	.	.
.	.	.	.	.	.	24ccc\	.	.	.	.	.	.	.	.	.	.	.	.	.
.	.	.	.	.	.	24bb\JJ)	.	.	.	.	.	.	.	.	.	.	.	.	.
!	!	!	!	!	!	!LO:TUP:a	!	!	!	!	!	!	!	!	!	!	!	!	!
8c\	.	.	8e\	.	.	(>24aa\LL	.	.	.	.	.	.	.	.	.	.	.	.	.
.	.	.	.	.	.	24gg#\	.	.	.	.	.	.	.	.	.	.	.	.	.
.	.	.	.	.	.	24aa\JJ)	.	.	.	.	.	.	.	.	.	.	.	.	.
!	!	!	!	!	!	!LO:LB:g=original	!	!	!	!	!	!	!	!	!	!	!	!	!
!	!	!	!	!	!	!LO:TUP:a	!	!	!	!	!	!	!	!	!	!	!	!	!
8c#X\	5_	.	8e\	.	.	(>24eee\LL	.	.	.	.	4b\	-ne	.	.	.	.	.	.	.
.	.	.	.	.	.	24ddd\	.	.	.	.	.	.	.	.	.	.	.	.	.
.	.	.	.	.	.	24ccc\JJ)	.	.	.	.	.	.	.	.	.	.	.	.	.
!	!	!	!	!	!	!LO:TUP:a	!	!	!	!	!	!	!	!	!	!	!	!	!
8c#\J	.	.	8e\J	.	.	(>24bb\LL	.	.	.	.	.	.	.	.	.	.	.	.	.
.	.	.	.	.	.	24aa\	.	.	.	.	.	.	.	.	.	.	.	.	.
.	.	.	.	.	.	24ggn\JJ)	.	.	.	.	.	.	.	.	.	.	.	.	.
=69	=69	=69	=69	=69	=69	=69	=69	=69	=69	=69	=69	=69	=69	=69	=69	=69	=69	=69	=69
!	!	!	!	!	!	!	!	!	!	!	!	!LO:MO:mod=Do-	!	!	!	!	!	!	!
4d\	4	.	4d\	.	2.ryy	8gg\L	.	2.ryy	2.ryy	2.ryy	8b\	do-	2.ryy	2.ryy	2.ryy	2.ryy	2.ryy	2.ryy	2.ryy
.	.	.	.	.	.	(>32aa\LL	.	.	.	.	8b\	-mi-	.	.	.	.	.	.	.
.	.	.	.	.	.	32gg\	.	.	.	.	.	.	.	.	.	.	.	.	.
.	.	.	.	.	.	32ff#\	.	.	.	.	.	.	.	.	.	.	.	.	.
.	.	.	.	.	.	32gg\JJJ)	.	.	.	.	.	.	.	.	.	.	.	.	.
8d\L	3	.	8d\L	.	.	4ff#\	.	.	.	.	4a\	-ni	.	.	.	.	.	.	.
8cn\	.	.	8e\	.	.	.	.	.	.	.	.	.	.	.	.	.	.	.	.
8B\	.	.	8d\	.	.	4r	.	.	.	.	4r	.	.	.	.	.	.	.	.
8A\J	.	.	8c\J	.	.	.	.	.	.	.	.	.	.	.	.	.	.	.	.
!LO:LB:g=original	!	!	!LO:LB:g=original	!	!	!	!	!	!	!	!	!	!	!	!	!	!	!	!
=70	=70	=70	=70	=70	=70	=70	=70	=70	=70	=70	=70	=70	=70	=70	=70	=70	=70	=70	=70
8G\L	.	.	8B/L	.	2.ryy	2.r	.	2.ryy	2.ryy	2.ryy	(>2dd\	Be-	2.ryy	2.ryy	2.ryy	2.ryy	2.ryy	2.ryy	2.ryy
8G\	.	.	8B/	.	.	.	.	.	.	.	.	.	.	.	.	.	.	.	.
8G\	.	.	8B/	.	.	.	.	.	.	.	.	.	.	.	.	.	.	.	.
8G\	.	.	8B/	.	.	.	.	.	.	.	.	.	.	.	.	.	.	.	.
!	!	!	!	!	!	!	!	!	!	!	!LO:MO:mod=16ccLL	!	!	!	!	!	!	!	!
8G\	.	.	8B/	.	.	.	.	.	.	.	16cc\LL)	.	.	.	.	.	.	.	.
!	!	!	!	!	!	!	!	!	!	!	!LO:MO:mod=16bJJ)	!	!	!	!	!	!	!	!
.	.	.	.	.	.	.	.	.	.	.	16b\JJ	.	.	.	.	.	.	.	.
8G\J	.	.	8B/J	.	.	.	.	.	.	.	16a\LL	-ne-	.	.	.	.	.	.	.
.	.	.	.	.	.	.	.	.	.	.	16g\JJ	.	.	.	.	.	.	.	.
=71	=71	=71	=71	=71	=71	=71	=71	=71	=71	=71	=71	=71	=71	=71	=71	=71	=71	=71	=71
*tremolo	*	*	*tremolo	*	*	*	*	*	*	*	*	*	*	*	*	*	*	*	*
8c\L	6	.	8e\L	.	2.ryy	(>4.ee\	.	2.ryy	2.ryy	2.ryy	8b\L	-dic-	2.ryy	2.ryy	2.ryy	2.ryy	2.ryy	2.ryy	2.ryy
8c\	.	.	8e\	.	.	.	.	.	.	.	8a\J	.	.	.	.	.	.	.	.
8c\	.	.	8e\	.	.	.	.	.	.	.	4a\	-tus	.	.	.	.	.	.	.
8c\	.	.	8e\	.	.	16ff#\LL	.	.	.	.	.	.	.	.	.	.	.	.	.
.	.	.	.	.	.	16gg\JJ)	.	.	.	.	.	.	.	.	.	.	.	.	.
8c\	.	.	8e\	.	.	(>16aa\LL	.	.	.	.	4r	.	.	.	.	.	.	.	.
.	.	.	.	.	.	16bb\	.	.	.	.	.	.	.	.	.	.	.	.	.
8c\J	.	.	8e\J	.	.	16ccc\	.	.	.	.	.	.	.	.	.	.	.	.	.
.	.	.	.	.	.	16aa\JJ)	.	.	.	.	.	.	.	.	.	.	.	.	.
!	!	!	!	!	!	!	!	!	!	!	!LO:"LB:g=original	!	!	!	!	!	!	!	!
=72	=72	=72	=72	=72	=72	=72	=72	=72	=72	=72	=72	=72	=72	=72	=72	=72	=72	=72	=72
!	!	!	!	!	!	!LO:MO:mod=(16ggLL	!	!	!	!	!	!	!	!	!	!	!	!	!
8d\L	.	.	8A/L	.	2.ryy	16gg\LL	.	2.ryy	2.ryy	2.ryy	(>2cc\	Be-	2.ryy	2.ryy	2.ryy	2.ryy	2.ryy	2.ryy	2.ryy
!	!	!	!	!	!	!LO:MO:mod=16ff#	!	!	!	!	!	!	!	!	!	!	!	!	!
.	.	.	.	.	.	(>16ff#\	.	.	.	.	.	.	.	.	.	.	.	.	.
8d\	.	.	8A/	.	.	16ee\	.	.	.	.	.	.	.	.	.	.	.	.	.
.	.	.	.	.	.	16ff#\JJ)	.	.	.	.	.	.	.	.	.	.	.	.	.
8d\	.	.	8A/	.	.	4ff#\	.	.	.	.	.	.	.	.	.	.	.	.	.
8d\	.	.	8A/	.	.	.	.	.	.	.	.	.	.	.	.	.	.	.	.
!	!	!	!	!	!	!	!	!	!	!	!LO:MO:mod=16bLL	!	!	!	!	!	!	!	!
8d\	.	.	8A/	.	.	4r	.	.	.	.	16b\LL)	.	.	.	.	.	.	.	.
!	!	!	!	!	!	!	!	!	!	!	!LO:MO:mod=16aJJ)	!	!	!	!	!	!	!	!
.	.	.	.	.	.	.	.	.	.	.	16a\JJ	.	.	.	.	.	.	.	.
8d\J	.	.	8A/J	.	.	.	.	.	.	.	16g/LL	-ne-	.	.	.	.	.	.	.
.	.	.	.	.	.	.	.	.	.	.	16f#/JJ	.	.	.	.	.	.	.	.
=73	=73	=73	=73	=73	=73	=73	=73	=73	=73	=73	=73	=73	=73	=73	=73	=73	=73	=73	=73
!	!	!	!	!	!	!LO:MO:mod=(4.b	!	!	!	!	!	!	!	!	!	!	!	!	!
8G\L	.	.	8B/L	.	2.ryy	4.b\	.	2.ryy	2.ryy	2.ryy	8a\L	-dic-	2.ryy	2.ryy	2.ryy	2.ryy	2.ryy	2.ryy	2.ryy
8G\	.	.	8B/	.	.	.	.	.	.	.	8g\J	.	.	.	.	.	.	.	.
8G\	.	.	8B/	.	.	.	.	.	.	.	4g\	-tus	.	.	.	.	.	.	.
8G\	.	.	8B/	.	.	16cc\LL	.	.	.	.	.	.	.	.	.	.	.	.	.
!	!	!	!	!	!	!LO:MO:mod=16ddJJ)	!	!	!	!	!	!	!	!	!	!	!	!	!
.	.	.	.	.	.	16dd\JJ	.	.	.	.	.	.	.	.	.	.	.	.	.
8G\	.	.	8B/	.	.	(>16ee\LL	.	.	.	.	4r	.	.	.	.	.	.	.	.
.	.	.	.	.	.	16dd\	.	.	.	.	.	.	.	.	.	.	.	.	.
!	!	!	!	!	!	!LO:MO:mod=16ee	!	!	!	!	!	!	!	!	!	!	!	!	!
8G\J	.	.	8B/J	.	.	16ee\)	.	.	.	.	.	.	.	.	.	.	.	.	.
!	!	!	!	!	!	!LO:MO:mod=16ff#JJ)	!	!	!	!	!	!	!	!	!	!	!	!	!
.	.	.	.	.	.	16ff#\JJ	.	.	.	.	.	.	.	.	.	.	.	.	.
*Xtremolo	*	*	*Xtremolo	*	*	*	*	*	*	*	*	*	*	*	*	*	*	*	*
!	!	!	!	!	!	!LO:LB:g=original	!	!	!	!	!	!	!	!	!	!	!	!	!
=74	=74	=74	=74	=74	=74	=74	=74	=74	=74	=74	=74	=74	=74	=74	=74	=74	=74	=74	=74
!LO:TX:a:t=P:problem=mixed beam	!	!	!	!	!	!	!	!	!	!	!	!	!	!	!	!	!	!	!
8G\L	.	.	8B/L	.	2.ryy	8gg\L	.	2.ryy	2.ryy	2.ryy	(>4.g\	Be-	2.ryy	2.ryy	2.ryy	2.ryy	2.ryy	2.ryy	2.ryy
8G\	.	.	8B/	.	.	16b\L	.	.	.	.	.	.	.	.	.	.	.	.	.
.	.	.	.	.	.	16cc\JJ	.	.	.	.	.	.	.	.	.	.	.	.	.
.	.	.	.	.	.	8qcc/	.	.	.	.	.	.	.	.	.	.	.	.	.
8GG/	.	.	8B/	.	.	8dd\L	.	.	.	.	.	.	.	.	.	.	.	.	.
!	!	!	!	!	!	!	!	!	!	!	!LO:MO:mod=16a\LL	!	!	!	!	!	!	!	!
8GG/	.	.	8B/	.	.	8dd\J	.	.	.	.	16a\LL	.	.	.	.	.	.	.	.
!	!	!	!	!	!	!	!	!	!	!	!LO:MO:mod=16b\JJ	!	!	!	!	!	!	!	!
.	.	.	.	.	.	.	.	.	.	.	16b\JJ	.	.	.	.	.	.	.	.
!	!	!	!	!	!	!	!	!	!	!	!LO:MO:mod=16ccLL	!	!	!	!	!	!	!	!
8C\	.	.	8e/	.	.	16ee\LL	.	.	.	.	16cc\LL)	.	.	.	.	.	.	.	.
!	!	!	!	!	!	!	!	!	!	!	!LO:MO:mod=16ddJJ)	!	!	!	!	!	!	!	!
.	.	.	.	.	.	16ff#\	.	.	.	.	16dd\JJ	.	.	.	.	.	.	.	.
8C\J	.	.	8e/J	.	.	16gg\	.	.	.	.	16ee\LL	-ne-	.	.	.	.	.	.	.
.	.	.	.	.	.	16ee\JJ	.	.	.	.	16cc\JJ	.	.	.	.	.	.	.	.
=75	=75	=75	=75	=75	=75	=75	=75	=75	=75	=75	=75	=75	=75	=75	=75	=75	=75	=75	=75
8D\L	6_	.	8d/L	.	2.ryy	(>16ee\LL	.	2.ryy	2.ryy	2.ryy	(>4b\	-dic-	2.ryy	2.ryy	2.ryy	2.ryy	2.ryy	2.ryy	2.ryy
.	.	.	.	.	.	16dd\)	.	.	.	.	.	.	.	.	.	.	.	.	.
8D\	.	.	8B/	.	.	(>16bb\	.	.	.	.	.	.	.	.	.	.	.	.	.
.	.	.	.	.	.	16dd\JJ)	.	.	.	.	.	.	.	.	.	.	.	.	.
8D#X\	5_	.	8c/	.	.	(>16dd\LL	.	.	.	.	4a\)	.	.	.	.	.	.	.	.
.	.	.	.	.	.	16cc\)	.	.	.	.	.	.	.	.	.	.	.	.	.
8D#\	.	.	8A/	.	.	(>16aa\	.	.	.	.	.	.	.	.	.	.	.	.	.
.	.	.	.	.	.	16cc\JJ)	.	.	.	.	.	.	.	.	.	.	.	.	.
8E\	.	.	8G/	.	.	(>16cc\LL	.	.	.	.	4g\	-tus	.	.	.	.	.	.	.
.	.	.	.	.	.	16b\)	.	.	.	.	.	.	.	.	.	.	.	.	.
8E\J	.	.	8B/J	.	.	(>16ff#\	.	.	.	.	.	.	.	.	.	.	.	.	.
.	.	.	.	.	.	16gg\JJ)	.	.	.	.	.	.	.	.	.	.	.	.	.
=76	=76	=76	=76	=76	=76	=76	=76	=76	=76	=76	=76	=76	=76	=76	=76	=76	=76	=76	=76
!	!	!	!	!	!	!LO:SIC:s=(>16ff#\LL	!	!	!	!	!	!LO:MO:mod=qui	!	!	!	!	!	!	!
8C/L	6	.	8e\L	.	2.ryy	(>16ffn\LL	.	2.ryy	2.ryy	2.ryy	16a\LL	qvi	2.ryy	2.ryy	2.ryy	2.ryy	2.ryy	2.ryy	2.ryy
.	.	.	.	.	.	16ee\)	.	.	.	.	16cc\	.	.	.	.	.	.	.	.
8C/	.	.	8e\	.	.	(>16ccc\	.	.	.	.	16ee\	.	.	.	.	.	.	.	.
.	.	.	.	.	.	16aa\JJ)	.	.	.	.	16cc\JJ	.	.	.	.	.	.	.	.
8Dn/	4	.	8d\	.	.	4gg\	.	.	.	.	4b\	ve-	.	.	.	.	.	.	.
8D/	.	.	8d\	.	.	.	.	.	.	.	.	.	.	.	.	.	.	.	.
!	!	!	!	!	!	!LO:SIC:s=4ff#T\	!	!	!	!	!	!	!	!	!	!	!	!	!
8DD/	3	.	8d\	.	.	4ffT\	.	.	.	.	4a\	.	.	.	.	.	.	.	.
8DD/J	.	.	8d\J	.	.	.	.	.	.	.	.	.	.	.	.	.	.	.	.
=77	=77	=77	=77	=77	=77	=77	=77	=77	=77	=77	=77	=77	=77	=77	=77	=77	=77	=77	=77
4GG/	.	.	4d\	.	2.ryy	16gg\LL	.	2.ryy	2.ryy	2.ryy	4b\	-nit	2.ryy	2.ryy	2.ryy	2.ryy	2.ryy	2.ryy	2.ryy
.	.	.	.	.	.	16dd\	.	.	.	.	.	.	.	.	.	.	.	.	.
.	.	.	.	.	.	16gg\	.	.	.	.	.	.	.	.	.	.	.	.	.
.	.	.	.	.	.	16bb\JJ	.	.	.	.	.	.	.	.	.	.	.	.	.
8r	.	.	8r	.	.	16aa\LL	.	.	.	.	8r	.	.	.	.	.	.	.	.
.	.	.	.	.	.	16gg\	.	.	.	.	.	.	.	.	.	.	.	.	.
!	!	!	!	!	!	!	!	!	!	!	!	!LO:MO:mod=qui	!	!	!	!	!	!	!
8G\L	5_ 3	.	8d\L	.	.	16ff#\	.	.	.	.	8b\	qvi	.	.	.	.	.	.	.
.	.	.	.	.	.	16gg\JJ	.	.	.	.	.	.	.	.	.	.	.	.	.
8A\	_ 3	.	8d\	.	.	16aa\LL	.	.	.	.	8cc\L	ve-	.	.	.	.	.	.	.
.	.	.	.	.	.	16ff#\	.	.	.	.	.	.	.	.	.	.	.	.	.
8F#\J	_ 3	.	8d\J	.	.	16dd\	.	.	.	.	8a\J	.	.	.	.	.	.	.	.
.	.	.	.	.	.	16cc\JJ	.	.	.	.	.	.	.	.	.	.	.	.	.
!	!	!	!LO:LB:g=original	!	!	!	!	!	!	!	!LO:"LB:g=original	!	!	!	!	!	!	!	!
=78	=78	=78	=78	=78	=78	=78	=78	=78	=78	=78	=78	=78	=78	=78	=78	=78	=78	=78	=78
4G\	_ 3	.	4d\	.	2.ryy	16b\LL	.	2.ryy	2.ryy	2.ryy	4b\	-nit	2.ryy	2.ryy	2.ryy	2.ryy	2.ryy	2.ryy	2.ryy
.	.	.	.	.	.	16dd\	.	.	.	.	.	.	.	.	.	.	.	.	.
.	.	.	.	.	.	16gg\	.	.	.	.	.	.	.	.	.	.	.	.	.
.	.	.	.	.	.	16bb\JJ	.	.	.	.	.	.	.	.	.	.	.	.	.
!	!	!	!	!	!	!LO:LB:g=original	!	!	!	!	!	!	!	!	!	!	!	!	!
8r	.	.	8r	.	.	16aa\LL	.	.	.	.	8r	.	.	.	.	.	.	.	.
.	.	.	.	.	.	16gg\	.	.	.	.	.	.	.	.	.	.	.	.	.
8G\L	_ 3	.	8d\L	.	.	16ff#\	.	.	.	.	8b\	in	.	.	.	.	.	.	.
.	.	.	.	.	.	16gg\JJ	.	.	.	.	.	.	.	.	.	.	.	.	.
8A\	_ 3	.	8d\	.	.	16aa\LL	.	.	.	.	8cc\L	no-	.	.	.	.	.	.	.
.	.	.	.	.	.	16ff#\	.	.	.	.	.	.	.	.	.	.	.	.	.
8F#\J	X 3	.	8d\J	.	.	16dd\	.	.	.	.	8a\J	.	.	.	.	.	.	.	.
.	.	.	.	.	.	16cc\JJ	.	.	.	.	.	.	.	.	.	.	.	.	.
!LO:LB:g=original	!	!	!	!	!	!	!	!	!	!	!	!	!	!	!	!	!	!	!
=79	=79	=79	=79	=79	=79	=79	=79	=79	=79	=79	=79	=79	=79	=79	=79	=79	=79	=79	=79
4G\	.	.	4d\	.	2.ryy	16b\LL	.	2.ryy	2.ryy	2.ryy	16g\LL	.	2.ryy	2.ryy	2.ryy	2.ryy	2.ryy	2.ryy	2.ryy
.	.	.	.	.	.	16dd\	.	.	.	.	16b\	.	.	.	.	.	.	.	.
.	.	.	.	.	.	16ee\	.	.	.	.	16cc\	.	.	.	.	.	.	.	.
.	.	.	.	.	.	16ff#\JJ	.	.	.	.	16dd\JJ	.	.	.	.	.	.	.	.
4GG/	.	.	4d\	.	.	16gg\LL	.	.	.	.	16ee\LL	.	.	.	.	.	.	.	.
.	.	.	.	.	.	16ff#\	.	.	.	.	16dd\	.	.	.	.	.	.	.	.
.	.	.	.	.	.	16ee\	.	.	.	.	16cc\	.	.	.	.	.	.	.	.
.	.	.	.	.	.	16dd\JJ	.	.	.	.	16b\JJ	.	.	.	.	.	.	.	.
8r	.	.	8r	.	.	16ee\LL	.	.	.	.	16cc\LL	.	.	.	.	.	.	.	.
.	.	.	.	.	.	16dd\	.	.	.	.	16b\	.	.	.	.	.	.	.	.
8G\	.	.	8g\	.	.	16cc\	.	.	.	.	16a\	.	.	.	.	.	.	.	.
.	.	.	.	.	.	16b\JJ	.	.	.	.	16g\JJ	.	.	.	.	.	.	.	.
=80	=80	=80	=80	=80	=80	=80	=80	=80	=80	=80	=80	=80	=80	=80	=80	=80	=80	=80	=80
4d\	.	.	4f#\	.	2.ryy	16a\LL	.	2.ryy	2.ryy	2.ryy	16f#\LL	.	2.ryy	2.ryy	2.ryy	2.ryy	2.ryy	2.ryy	2.ryy
.	.	.	.	.	.	16cc\	.	.	.	.	16a\	.	.	.	.	.	.	.	.
.	.	.	.	.	.	16dd\	.	.	.	.	16b\	.	.	.	.	.	.	.	.
.	.	.	.	.	.	16ee\JJ	.	.	.	.	16cc\JJ	.	.	.	.	.	.	.	.
4D\	.	.	4f#\	.	.	16ff#\LL	.	.	.	.	16dd\LL	.	.	.	.	.	.	.	.
.	.	.	.	.	.	16ee\	.	.	.	.	16cc\	.	.	.	.	.	.	.	.
.	.	.	.	.	.	16dd\	.	.	.	.	16b\	.	.	.	.	.	.	.	.
.	.	.	.	.	.	16cc\JJ	.	.	.	.	16a\JJ	.	.	.	.	.	.	.	.
8r	.	.	8r	.	.	16dd\LL	.	.	.	.	16b\LL	.	.	.	.	.	.	.	.
.	.	.	.	.	.	16cc\	.	.	.	.	16a\	.	.	.	.	.	.	.	.
8D\	.	.	8f#\	.	.	16b\	.	.	.	.	16g\	.	.	.	.	.	.	.	.
.	.	.	.	.	.	16a\JJ	.	.	.	.	16f#\JJ	.	.	.	.	.	.	.	.
=81	=81	=81	=81	=81	=81	=81	=81	=81	=81	=81	=81	=81	=81	=81	=81	=81	=81	=81	=81
4G\	.	.	4g\	.	2.ryy	16b\LL	.	2.ryy	2.ryy	2.ryy	8g\L	.	2.ryy	2.ryy	2.ryy	2.ryy	2.ryy	2.ryy	2.ryy
.	.	.	.	.	.	16dd\	.	.	.	.	.	.	.	.	.	.	.	.	.
.	.	.	.	.	.	16gg\	.	.	.	.	16b\L	.	.	.	.	.	.	.	.
.	.	.	.	.	.	16bb\JJ	.	.	.	.	16dd\JJ	.	.	.	.	.	.	.	.
4B\	6	.	4g\	.	.	16aa\LL	.	.	.	.	16cc\LL	.	.	.	.	.	.	.	.
.	.	.	.	.	.	16gg\	.	.	.	.	16b\	.	.	.	.	.	.	.	.
.	.	.	.	.	.	16ff#\	.	.	.	.	16a\	.	.	.	.	.	.	.	.
.	.	.	.	.	.	16gg\JJ	.	.	.	.	16b\JJ	.	.	.	.	.	.	.	.
4c\	6	.	4e\	.	.	16aa\LL	.	.	.	.	16cc\LL	.	.	.	.	.	.	.	.
.	.	.	.	.	.	16bb\	.	.	.	.	16dd\	.	.	.	.	.	.	.	.
.	.	.	.	.	.	16ccc\	.	.	.	.	16ee\	.	.	.	.	.	.	.	.
.	.	.	.	.	.	16aa\JJ	.	.	.	.	16cc\JJ	.	.	.	.	.	.	.	.
!	!	!	!	!	!	!LO:LB:g=original	!	!	!	!	!LO:"LB:g=original	!	!	!	!	!	!	!	!
=82	=82	=82	=82	=82	=82	=82	=82	=82	=82	=82	=82	=82	=82	=82	=82	=82	=82	=82	=82
!LO:TX:a:t=P:problem=mixed beam	!	!	!	!	!	!LO:MO:mod=(16bbLL	!	!	!	!	!	!	!	!	!	!	!	!	!
8B\L	6	.	8d\L	.	2.ryy	16bb\LL	.	2.ryy	2.ryy	2.ryy	16dd\LL	-mi-	2.ryy	2.ryy	2.ryy	2.ryy	2.ryy	2.ryy	2.ryy
!	!	!	!	!	!	!LO:MO:mod=16gg)	!	!	!	!	!	!	!	!	!	!	!	!	!
.	.	.	.	.	.	16gg\	.	.	.	.	16b\JJ	.	.	.	.	.	.	.	.
!	!	!	!	!	!	!LO:MO:mod=(16ccc	!	!	!	!	!	!	!	!	!	!	!	!	!
8c\	6	.	8e\	.	.	16ccc\	.	.	.	.	16ee\LL	-ne	.	.	.	.	.	.	.
!	!	!	!	!	!	!LO:MO:mod=16aaJJ)	!	!	!	!	!	!	!	!	!	!	!	!	!
.	.	.	.	.	.	16aa\JJ	.	.	.	.	16cc\JJ	.	.	.	.	.	.	.	.
!	!	!	!	!	!	!	!	!	!	!	!	!LO:MO:mod=Do-	!	!	!	!	!	!	!
8d\	4	.	8d\	.	.	8.gg\L	.	.	.	.	4b\	do-	.	.	.	.	.	.	.
8d\	.	.	8d\	.	.	.	.	.	.	.	.	.	.	.	.	.	.	.	.
.	.	.	.	.	.	16aa\Jk	.	.	.	.	.	.	.	.	.	.	.	.	.
8D/	3	.	8d\	.	.	4aaT\	.	.	.	.	4a\	-mi-	.	.	.	.	.	.	.
8D/J	.	.	8d\J	.	.	.	.	.	.	.	.	.	.	.	.	.	.	.	.
=83	=83	=83	=83	=83	=83	=83	=83	=83	=83	=83	=83	=83	=83	=83	=83	=83	=83	=83	=83
4G\	.	.	(>4.d\	.	2.ryy	(>16gg\LL	.	2.ryy	2.ryy	2.ryy	4.b\	-ni	2.ryy	2.ryy	2.ryy	2.ryy	2.ryy	2.ryy	2.ryy
.	.	.	.	.	.	16ff#\	.	.	.	.	.	.	.	.	.	.	.	.	.
.	.	.	.	.	.	16ee\	.	.	.	.	.	.	.	.	.	.	.	.	.
.	.	.	.	.	.	16dd\JJ)	.	.	.	.	.	.	.	.	.	.	.	.	.
*	*	*	*	*	*	*tremolo	*	*	*	*	*	*	*	*	*	*	*	*	*
!	!	!	!	!	!	!LO:TREM:dots=4	!	!	!	!	!	!	!	!	!	!	!	!	!
4GG/	.	.	.	.	.	16dd\LL	.	.	.	.	.	.	.	.	.	.	.	.	.
.	.	.	.	.	.	16dd\	.	.	.	.	.	.	.	.	.	.	.	.	.
!	!	!	!	!	!	!	!	!	!	!	!	!LO:MO:mod=qui	!	!	!	!	!	!	!
.	.	.	8g\L)	.	.	16dd\	.	.	.	.	8b\	qvi	.	.	.	.	.	.	.
.	.	.	.	.	.	16dd\JJ	.	.	.	.	.	.	.	.	.	.	.	.	.
!	!	!	!	!	!	!LO:TREM:dots=4	!	!	!	!	!	!	!	!	!	!	!	!	!
4r	.	.	(>8f#\	.	.	16dd\LL	.	.	.	.	8a\L	ve-	.	.	.	.	.	.	.
.	.	.	.	.	.	16dd\	.	.	.	.	.	.	.	.	.	.	.	.	.
.	.	.	8a\J)	.	.	16dd\	.	.	.	.	8cc\J	.	.	.	.	.	.	.	.
.	.	.	.	.	.	16dd\JJ	.	.	.	.	.	.	.	.	.	.	.	.	.
*	*	*	*	*	*	*Xtremolo	*	*	*	*	*	*	*	*	*	*	*	*	*
=84	=84	=84	=84	=84	=84	=84	=84	=84	=84	=84	=84	=84	=84	=84	=84	=84	=84	=84	=84
4GG/	.	.	(>4.g\	.	2.ryy	(>16b\LL	.	2.ryy	2.ryy	2.ryy	4.b\	-nit	2.ryy	2.ryy	2.ryy	2.ryy	2.ryy	2.ryy	2.ryy
.	.	.	.	.	.	16dd\)	.	.	.	.	.	.	.	.	.	.	.	.	.
.	.	.	.	.	.	(>16g\	.	.	.	.	.	.	.	.	.	.	.	.	.
.	.	.	.	.	.	16dd\JJ)	.	.	.	.	.	.	.	.	.	.	.	.	.
4BB/	6	.	.	.	.	(>16b\LL	.	.	.	.	.	.	.	.	.	.	.	.	.
.	.	.	.	.	.	16dd\)	.	.	.	.	.	.	.	.	.	.	.	.	.
*	*	*	*	*	*	*	*	*	*	*	*	*ij	*	*	*	*	*	*	*
!	!	!	!	!	!	!	!	!	!	!	!	!LO:MO:mod=qui	!	!	!	!	!	!	!
.	.	.	8B/L)	.	.	(>16gg\	.	.	.	.	8g\	qvi	.	.	.	.	.	.	.
.	.	.	.	.	.	16dd\JJ)	.	.	.	.	.	.	.	.	.	.	.	.	.
4D\	.	.	(<8c/	.	.	(>16ff#\LL	.	.	.	.	8a\L	ve-	.	.	.	.	.	.	.
.	.	.	.	.	.	16dd\)	.	.	.	.	.	.	.	.	.	.	.	.	.
.	.	.	8A/J)	.	.	(>16aa\	.	.	.	.	8f#\J	.	.	.	.	.	.	.	.
.	.	.	.	.	.	16ff#\JJ)	.	.	.	.	.	.	.	.	.	.	.	.	.
!	!	!	!LO:LB:g=original	!	!	!	!	!	!	!	!	!	!	!	!	!	!	!	!
=85	=85	=85	=85	=85	=85	=85	=85	=85	=85	=85	=85	=85	=85	=85	=85	=85	=85	=85	=85
4G\	.	.	(>4.B/	.	2.ryy	(16gg\LL	.	2.ryy	2.ryy	2.ryy	4.g\	-nit	2.ryy	2.ryy	2.ryy	2.ryy	2.ryy	2.ryy	2.ryy
.	.	.	.	.	.	16ff#\	.	.	.	.	.	.	.	.	.	.	.	.	.
.	.	.	.	.	.	16ee\	.	.	.	.	.	.	.	.	.	.	.	.	.
.	.	.	.	.	.	16dd\JJ)	.	.	.	.	.	.	.	.	.	.	.	.	.
*	*	*	*	*	*	*tremolo	*	*	*	*	*	*	*	*	*	*	*	*	*
!	!	!	!	!	!	!LO:TREM:dots=4	!	!	!	!	!	!	!	!	!	!	!	!	!
4GG/	.	.	.	.	.	16dd\LL	.	.	.	.	.	.	.	.	.	.	.	.	.
.	.	.	.	.	.	16dd\	.	.	.	.	.	.	.	.	.	.	.	.	.
!	!	!	!	!	!	!	!	!	!	!	!	!LO:MO:mod=qui	!	!	!	!	!	!	!
.	.	.	8g\L)	.	.	16dd\	.	.	.	.	8b\	qvi	.	.	.	.	.	.	.
.	.	.	.	.	.	16dd\JJ	.	.	.	.	.	.	.	.	.	.	.	.	.
!	!	!	!	!	!	!LO:TREM:dots=4	!	!	!	!	!	!	!	!	!	!	!	!	!
4r	.	.	(>8f#\	.	.	16dd\LL	.	.	.	.	8a\L	ve-	.	.	.	.	.	.	.
.	.	.	.	.	.	16dd\	.	.	.	.	.	.	.	.	.	.	.	.	.
.	.	.	8a\J)	.	.	16dd\	.	.	.	.	8cc\J	.	.	.	.	.	.	.	.
.	.	.	.	.	.	16dd\JJ	.	.	.	.	.	.	.	.	.	.	.	.	.
*	*	*	*	*	*	*Xtremolo	*	*	*	*	*	*	*	*	*	*	*	*	*
=86	=86	=86	=86	=86	=86	=86	=86	=86	=86	=86	=86	=86	=86	=86	=86	=86	=86	=86	=86
4GG/	.	.	(>4.g\	.	2.ryy	(>16b\LL	.	2.ryy	2.ryy	2.ryy	4.b\	-nit	2.ryy	2.ryy	2.ryy	2.ryy	2.ryy	2.ryy	2.ryy
.	.	.	.	.	.	16dd\)	.	.	.	.	.	.	.	.	.	.	.	.	.
.	.	.	.	.	.	(>16g\	.	.	.	.	.	.	.	.	.	.	.	.	.
.	.	.	.	.	.	16dd\JJ)	.	.	.	.	.	.	.	.	.	.	.	.	.
4BB/	6	.	.	.	.	(>16b\LL	.	.	.	.	.	.	.	.	.	.	.	.	.
.	.	.	.	.	.	16dd\)	.	.	.	.	.	.	.	.	.	.	.	.	.
!	!	!	!	!	!	!	!	!	!	!	!	!LO:MO:mod=qui	!	!	!	!	!	!	!
.	.	.	8B/L)	.	.	(>16gg\	.	.	.	.	8g\	qvi	.	.	.	.	.	.	.
.	.	.	.	.	.	16dd\JJ)	.	.	.	.	.	.	.	.	.	.	.	.	.
!	!	!	!	!	!	!LO:LB:g=original	!	!	!	!	!	!	!	!	!	!	!	!	!
4D\	.	.	(<8c/	.	.	(>16ff#\LL	.	.	.	.	8a\L	ve-	.	.	.	.	.	.	.
.	.	.	.	.	.	16dd\)	.	.	.	.	.	.	.	.	.	.	.	.	.
.	.	.	8A/J)	.	.	(>16aa\	.	.	.	.	8f#\J	.	.	.	.	.	.	.	.
.	.	.	.	.	.	16ff#\JJ)	.	.	.	.	.	.	.	.	.	.	.	.	.
=87	=87	=87	=87	=87	=87	=87	=87	=87	=87	=87	=87	=87	=87	=87	=87	=87	=87	=87	=87
*tremolo	*	*	*	*	*	*	*	*	*	*	*	*	*	*	*	*	*	*	*
!	!	!LO:MO:null:mod=!LO&colon;DY&colon;ed=brack	!	!	!	!	!	!	!	!	!	!	!	!	!	!	!	!	!
!	!	!	!	!	!	!	!	!	!	!	!	!	!	!	!	!	!	!	!
!	!	!LO:MO:null:mod=f	!LO:TX:a:t=P:problem=mixed beam	!LO:DY:a:t=f&colon;	!	!	!LO:DY:a:rj:t=f&colon;	!	!	!	!	!	!	!	!	!	!	!	!
8G\L	.	.	8B/L	f	2.ryy	2.gg\	f	2.ryy	2.ryy	2.ryy	4g\	-nit	2.ryy	2.ryy	2.ryy	2.ryy	2.ryy	2.ryy	2.ryy
*	*	*	*	*	*	*	*	*	*	*	*	*Xij	*	*	*	*	*	*	*
8G\	.	.	8b\	.	.	.	.	.	.	.	.	.	.	.	.	.	.	.	.
!	!	!	!	!	!	!	!	!	!	!	!LO:N:vis=4	!	!	!	!	!	!	!	!
8G\	.	.	8b\	.	.	.	.	.	.	.	2r	.	.	.	.	.	.	.	.
8G\	.	.	8b\	.	.	.	.	.	.	.	.	.	.	.	.	.	.	.	.
8G\	.	.	8b\	.	.	.	.	.	.	.	.	.	.	.	.	.	.	.	.
8G\J	.	.	8b\J	.	.	.	.	.	.	.	.	.	.	.	.	.	.	.	.
.	.	.	.	.	.	32qqgg/LLL	.	.	.	.	.	.	.	.	.	.	.	.	.
.	.	.	.	.	.	32qqaa/	.	.	.	.	.	.	.	.	.	.	.	.	.
.	.	.	.	.	.	32qqgg/	.	.	.	.	.	.	.	.	.	.	.	.	.
.	.	.	.	.	.	32qqff#/	.	.	.	.	.	.	.	.	.	.	.	.	.
.	.	.	.	.	.	32qqgg/	.	.	.	.	.	.	.	.	.	.	.	.	.
.	.	.	.	.	.	32qqaa/JJJ	.	.	.	.	.	.	.	.	.	.	.	.	.
=88	=88	=88	=88	=88	=88	=88	=88	=88	=88	=88	=88	=88	=88	=88	=88	=88	=88	=88	=88
*	*	*	*tremolo	*	*	*	*	*	*	*	*	*	*	*	*	*	*	*	*
!	!	!	!	!	!	!	!	!	!	!	!LO:N:vis=00	!	!	!	!	!	!	!	!
8G\L	.	.	8b\L	.	2.ryy	2gg\	.	2.ryy	2.ryy	2.ryy	0.r	.	2.ryy	2.ryy	2.ryy	2.ryy	2.ryy	2.ryy	2.ryy
8G\	.	.	8b\	.	.	.	.	.	.	.	.	.	.	.	.	.	.	.	.
8G\	.	.	8b\	.	.	.	.	.	.	.	.	.	.	.	.	.	.	.	.
8G\	.	.	8b\	.	.	.	.	.	.	.	.	.	.	.	.	.	.	.	.
8G\	.	.	8b\	.	.	(>16gg\LL	.	.	.	.	.	.	.	.	.	.	.	.	.
.	.	.	.	.	.	16aa\	.	.	.	.	.	.	.	.	.	.	.	.	.
8G\J	.	.	8b\J	.	.	16gg\	.	.	.	.	.	.	.	.	.	.	.	.	.
.	.	.	.	.	.	16ffn\JJ)	.	.	.	.	.	.	.	.	.	.	.	.	.
*Xtremolo	*	*	*	*	*	*	*	*	*	*	*	*	*	*	*	*	*	*	*
!LO:LB:g=original	!	!	!	!	!	!	!	!	!	!	!	!	!	!	!	!	!	!	!
=89	=89	=89	=89	=89	=89	=89	=89	=89	=89	=89	=89	=89	=89	=89	=89	=89	=89	=89	=89
8G\L	6_ 4_	.	8cc\L	.	2.ryy	(>4.ee\	.	2.ryy	2.ryy	2.ryy	.	.	2.ryy	2.ryy	2.ryy	2.ryy	2.ryy	2.ryy	2.ryy
8G\	.	.	8cc\	.	.	.	.	.	.	.	.	.	.	.	.	.	.	.	.
8G\	.	.	8cc\	.	.	.	.	.	.	.	.	.	.	.	.	.	.	.	.
8G\	.	.	8cc\	.	.	16dd\LL	.	.	.	.	.	.	.	.	.	.	.	.	.
.	.	.	.	.	.	16ee\JJ)	.	.	.	.	.	.	.	.	.	.	.	.	.
8G\	.	.	8cc\	.	.	16aa\LL	.	.	.	.	.	.	.	.	.	.	.	.	.
.	.	.	.	.	.	16gg\	.	.	.	.	.	.	.	.	.	.	.	.	.
8G\J	.	.	8cc\J	.	.	16ff#\	.	.	.	.	.	.	.	.	.	.	.	.	.
.	x x	.	.	.	.	16ee\JJ	.	.	.	.	.	.	.	.	.	.	.	.	.
=90	=90	=90	=90	=90	=90	=90	=90	=90	=90	=90	=90	=90	=90	=90	=90	=90	=90	=90	=90
*tremolo	*	*	*	*	*	*	*	*	*	*	*	*	*	*	*	*	*	*	*
8G\L	x 3	.	8b\L	.	2.ryy	(16ee\LL	.	2.ryy	2.ryy	2.ryy	.	.	2.ryy	2.ryy	2.ryy	2.ryy	2.ryy	2.ryy	2.ryy
.	.	.	.	.	.	16dd\	.	.	.	.	.	.	.	.	.	.	.	.	.
8G\	.	.	8b\	.	.	16cc\	.	.	.	.	.	.	.	.	.	.	.	.	.
.	.	.	.	.	.	16dd\JJ)	.	.	.	.	.	.	.	.	.	.	.	.	.
8G\	.	.	8b\	.	.	4dd\	.	.	.	.	.	.	.	.	.	.	.	.	.
8G\	.	.	8b\	.	.	.	.	.	.	.	.	.	.	.	.	.	.	.	.
8G\	.	.	8b\	.	.	8r	.	.	.	.	.	.	.	.	.	.	.	.	.
8G\J	.	.	8b\J	.	.	8dd\	.	.	.	.	.	.	.	.	.	.	.	.	.
=91	=91	=91	=91	=91	=91	=91	=91	=91	=91	=91	=91	=91	=91	=91	=91	=91	=91	=91	=91
8F#\L	6 5	.	8a\L	.	2.ryy	2cc\	.	2.ryy	2.ryy	2.ryy	.	.	2.ryy	2.ryy	2.ryy	2.ryy	2.ryy	2.ryy	2.ryy
8F#\	.	.	8a\	.	.	.	.	.	.	.	.	.	.	.	.	.	.	.	.
8F#\	.	.	8a\	.	.	.	.	.	.	.	.	.	.	.	.	.	.	.	.
8F#\	.	.	8a\	.	.	.	.	.	.	.	.	.	.	.	.	.	.	.	.
!	!	!	!	!	!	!LO:MO:mod=(16aaLL	!	!	!	!	!	!	!	!	!	!	!	!	!
8F#\	.	.	8a\	.	.	16aa\LL	.	.	.	.	.	.	.	.	.	.	.	.	.
.	.	.	.	.	.	16ff#\	.	.	.	.	.	.	.	.	.	.	.	.	.
8F#\J	.	.	8a\J	.	.	16dd\	.	.	.	.	.	.	.	.	.	.	.	.	.
!	!	!	!	!	!	!LO:MO:mod=16ccJJ)	!	!	!	!	!	!	!	!	!	!	!	!	!
.	.	.	.	.	.	16cc\JJ	.	.	.	.	.	.	.	.	.	.	.	.	.
*Xtremolo	*	*	*	*	*	*	*	*	*	*	*	*	*	*	*	*	*	*	*
=92	=92	=92	=92	=92	=92	=92	=92	=92	=92	=92	=92	=92	=92	=92	=92	=92	=92	=92	=92
!	!	!	!	!	!	!	!	!	!	!	!LO:N:vis=00	!	!	!	!	!	!	!	!
8G\L	.	.	8d\L	.	2.ryy	(>16cc\LL	.	2.ryy	2.ryy	2.ryy	0.r	.	2.ryy	2.ryy	2.ryy	2.ryy	2.ryy	2.ryy	2.ryy
.	.	.	.	.	.	16b\	.	.	.	.	.	.	.	.	.	.	.	.	.
8G\	.	.	8d\	.	.	16a\	.	.	.	.	.	.	.	.	.	.	.	.	.
.	.	.	.	.	.	16b\JJ)	.	.	.	.	.	.	.	.	.	.	.	.	.
!	!	!	!	!	!	!LO:LB:g=original	!	!	!	!	!	!	!	!	!	!	!	!	!
8B\	6_ x	.	8d\	.	.	(>4.gg\	.	.	.	.	.	.	.	.	.	.	.	.	.
8B\	.	.	8d\	.	.	.	.	.	.	.	.	.	.	.	.	.	.	.	.
8B\	6 5nr	.	8d\	.	.	.	.	.	.	.	.	.	.	.	.	.	.	.	.
8B\J	.	.	8d\J	.	.	8ffn\)	.	.	.	.	.	.	.	.	.	.	.	.	.
=93	=93	=93	=93	=93	=93	=93	=93	=93	=93	=93	=93	=93	=93	=93	=93	=93	=93	=93	=93
!	!	!	!	!	!	!LO:TUP:a	!	!	!	!	!	!	!	!	!	!	!	!	!
8c\L	6_ 3_	.	8e\L	.	2.ryy	(>24ee\LL	.	2.ryy	2.ryy	2.ryy	.	.	2.ryy	2.ryy	2.ryy	2.ryy	2.ryy	2.ryy	2.ryy
.	.	.	.	.	.	24cc\	.	.	.	.	.	.	.	.	.	.	.	.	.
.	.	.	.	.	.	24b\JJ)	.	.	.	.	.	.	.	.	.	.	.	.	.
!	!	!	!	!	!	!LO:TUP:b	!	!	!	!	!	!	!	!	!	!	!	!	!
8c\	.	.	8e\	.	.	(<24a/LL	.	.	.	.	.	.	.	.	.	.	.	.	.
.	.	.	.	.	.	24g#X/	.	.	.	.	.	.	.	.	.	.	.	.	.
.	.	.	.	.	.	24a/JJ)	.	.	.	.	.	.	.	.	.	.	.	.	.
!	!	!	!	!	!	!LO:TUP:b	!	!	!	!	!	!	!	!	!	!	!	!	!
8c\	.	.	8e\	.	.	(<24e/LL	.	.	.	.	.	.	.	.	.	.	.	.	.
.	.	.	.	.	.	24cc/	.	.	.	.	.	.	.	.	.	.	.	.	.
.	.	.	.	.	.	24b/JJ)	.	.	.	.	.	.	.	.	.	.	.	.	.
!	!	!	!	!	!	!LO:TUP:b	!	!	!	!	!	!	!	!	!	!	!	!	!
8c\	.	.	8e\	.	.	(<24a/LL	.	.	.	.	.	.	.	.	.	.	.	.	.
.	.	.	.	.	.	24g#/	.	.	.	.	.	.	.	.	.	.	.	.	.
.	.	.	.	.	.	24a/JJ)	.	.	.	.	.	.	.	.	.	.	.	.	.
!	!	!	!	!	!	!LO:TUP:a	!	!	!	!	!	!	!	!	!	!	!	!	!
8c#X\	6_ #	.	8e\	.	.	(>24ee\LL	.	.	.	.	.	.	.	.	.	.	.	.	.
.	.	.	.	.	.	24dd\	.	.	.	.	.	.	.	.	.	.	.	.	.
!	!	!	!	!	!	!LO:SIC:s=24cc#\JJ)	!	!	!	!	!	!	!	!	!	!	!	!	!
.	.	.	.	.	.	24cc\JJ)	.	.	.	.	.	.	.	.	.	.	.	.	.
!	!	!	!	!	!	!LO:TUP:b	!	!	!	!	!	!	!	!	!	!	!	!	!
8c#\J	.	.	8e\J	.	.	(<24b/LL	.	.	.	.	.	.	.	.	.	.	.	.	.
.	.	.	.	.	.	24a/	.	.	.	.	.	.	.	.	.	.	.	.	.
.	.	.	.	.	.	24gn/JJ)	.	.	.	.	.	.	.	.	.	.	.	.	.
*	*	*	*Xtremolo	*	*	*	*	*	*	*	*	*	*	*	*	*	*	*	*
!	!	!	!LO:LB:g=original	!	!	!	!	!	!	!	!	!	!	!	!	!	!	!	!
=94	=94	=94	=94	=94	=94	=94	=94	=94	=94	=94	=94	=94	=94	=94	=94	=94	=94	=94	=94
4d\	4	.	4B/	.	2.ryy	8g/L	.	2.ryy	2.ryy	2.ryy	.	.	2.ryy	2.ryy	2.ryy	2.ryy	2.ryy	2.ryy	2.ryy
.	.	.	.	.	.	(<32a/LL	.	.	.	.	.	.	.	.	.	.	.	.	.
.	.	.	.	.	.	32g/	.	.	.	.	.	.	.	.	.	.	.	.	.
.	.	.	.	.	.	32f#/	.	.	.	.	.	.	.	.	.	.	.	.	.
.	.	.	.	.	.	32g/JJJ)	.	.	.	.	.	.	.	.	.	.	.	.	.
!	!	!	!LO:TX:a:t=P:problem=mixed beam	!	!	!	!	!	!	!	!	!	!	!	!	!	!	!	!
8r	.	.	8A/L	.	.	4f#/	.	.	.	.	.	.	.	.	.	.	.	.	.
16D\LL	3	.	16f#\L	.	.	.	.	.	.	.	.	.	.	.	.	.	.	.	.
!LO:MO:mod=16CJJ\	!	!	!	!	!	!	!	!	!	!	!	!	!	!	!	!	!	!	!
16C\J	.	.	16e\JJ	.	.	.	.	.	.	.	.	.	.	.	.	.	.	.	.
!LO:MO:mod=8DL\	!	!	!	!	!	!	!	!	!	!	!	!	!	!	!	!	!	!	!
8D\	.	.	8f#\L	.	.	4r	.	.	.	.	.	.	.	.	.	.	.	.	.
8E\J	.	.	8g\J	.	.	.	.	.	.	.	.	.	.	.	.	.	.	.	.
=95	=95	=95	=95	=95	=95	=95	=95	=95	=95	=95	=95	=95	=95	=95	=95	=95	=95	=95	=95
!	!	!	!	!	!	!LO:TX:a:i:rj:t=dol&colon;	!	!	!	!	!	!	!	!	!	!	!	!	!
.	.	.	.	.	.	16qqdd/	.	.	.	.	.	.	.	.	.	.	.	.	.
!LO:MO:mod=(8.F#L	!	!	!	!	!	!	!	!	!	!	!	!	!	!	!	!	!	!	!
8.F#\L	3	.	(>8.a\L	.	2.ryy	2.ddd\	.	2.ryy	2.ryy	2.ryy	.	.	2.ryy	2.ryy	2.ryy	2.ryy	2.ryy	2.ryy	2.ryy
!LO:MO:mod=16EK)	!	!	!	!	!	!	!	!	!	!	!	!	!	!	!	!	!	!	!
16E\K	3	.	16g\K)	.	.	.	.	.	.	.	.	.	.	.	.	.	.	.	.
8F#\	3	.	8a|\	.	.	.	.	.	.	.	.	.	.	.	.	.	.	.	.
8G\	3	.	8b|\	.	.	.	.	.	.	.	.	.	.	.	.	.	.	.	.
8A\	3	.	8cc|\	.	.	.	.	.	.	.	.	.	.	.	.	.	.	.	.
8G\J	3	.	8b|\J	.	.	.	.	.	.	.	.	.	.	.	.	.	.	.	.
=96	=96	=96	=96	=96	=96	=96	=96	=96	=96	=96	=96	=96	=96	=96	=96	=96	=96	=96	=96
!LO:MO:mod=(8.F#L	!	!	!	!	!	!	!	!	!	!	!LO:N:vis=00	!	!	!	!	!	!	!	!
8.F#\L	3	.	(>8.a\L	.	2.ryy	4ddd\	.	2.ryy	2.ryy	2.ryy	0.r	.	2.ryy	2.ryy	2.ryy	2.ryy	2.ryy	2.ryy	2.ryy
!LO:MO:mod=16GJ)	!	!	!	!	!	!	!	!	!	!	!	!	!	!	!	!	!	!	!
16G\Jk	3	.	16b\Jk)	.	.	.	.	.	.	.	.	.	.	.	.	.	.	.	.
4F#\	3	.	4a|\	.	.	(>16eee\LL	.	.	.	.	.	.	.	.	.	.	.	.	.
.	.	.	.	.	.	16ddd\	.	.	.	.	.	.	.	.	.	.	.	.	.
.	.	.	.	.	.	16ccc#X\	.	.	.	.	.	.	.	.	.	.	.	.	.
.	.	.	.	.	.	16ddd\JJ)	.	.	.	.	.	.	.	.	.	.	.	.	.
4r	.	.	4r	.	.	(>16ccc#\LL	.	.	.	.	.	.	.	.	.	.	.	.	.
.	.	.	.	.	.	16ddd\	.	.	.	.	.	.	.	.	.	.	.	.	.
.	.	.	.	.	.	16eee\	.	.	.	.	.	.	.	.	.	.	.	.	.
.	.	.	.	.	.	16ddd\JJ)	.	.	.	.	.	.	.	.	.	.	.	.	.
!	!	!	!	!	!	!LO:LB:g=original	!	!	!	!	!	!	!	!	!	!	!	!	!
=97	=97	=97	=97	=97	=97	=97	=97	=97	=97	=97	=97	=97	=97	=97	=97	=97	=97	=97	=97
!	!	!	!	!	!	!LO:SIC:s=16qqccc#/	!	!	!	!	!	!	!	!	!	!	!	!	!
.	.	.	.	.	.	16qqccc/	.	.	.	.	.	.	.	.	.	.	.	.	.
!LO:MO:mod=(8.GL	!	!	!	!	!	!	!	!	!	!	!	!	!	!	!	!	!	!	!
8.G\L	3	.	(>8.b\L	.	2.ryy	2.ddd\	.	2.ryy	2.ryy	2.ryy	.	.	2.ryy	2.ryy	2.ryy	2.ryy	2.ryy	2.ryy	2.ryy
!LO:MO:mod=16F#K)	!	!	!	!	!	!	!	!	!	!	!	!	!	!	!	!	!	!	!
16F#\K	3	.	16a\K)	.	.	.	.	.	.	.	.	.	.	.	.	.	.	.	.
8G\	3	.	8b|\	.	.	.	.	.	.	.	.	.	.	.	.	.	.	.	.
8A\	3	.	8cc|\	.	.	.	.	.	.	.	.	.	.	.	.	.	.	.	.
8B\	3	.	8dd|\	.	.	.	.	.	.	.	.	.	.	.	.	.	.	.	.
8A\J	3	.	8cc|\J	.	.	.	.	.	.	.	.	.	.	.	.	.	.	.	.
!LO:LB:g=original	!	!	!	!	!	!	!	!	!	!	!	!	!	!	!	!	!	!	!
=98	=98	=98	=98	=98	=98	=98	=98	=98	=98	=98	=98	=98	=98	=98	=98	=98	=98	=98	=98
!LO:MO:mod=(8.GL	!	!	!	!	!	!	!	!	!	!	!	!	!	!	!	!	!	!	!
8.G\L	3	.	(>8.b\L	.	2.ryy	4ddd\	.	2.ryy	2.ryy	2.ryy	.	.	2.ryy	2.ryy	2.ryy	2.ryy	2.ryy	2.ryy	2.ryy
!LO:MO:mod=16F#Jk)	!	!	!	!	!	!	!	!	!	!	!	!	!	!	!	!	!	!	!
16F#\Jk	3	.	16a\Jk)	.	.	.	.	.	.	.	.	.	.	.	.	.	.	.	.
4G\	3	.	4b|\	.	.	(>16eee\LL	.	.	.	.	.	.	.	.	.	.	.	.	.
.	.	.	.	.	.	16ddd\	.	.	.	.	.	.	.	.	.	.	.	.	.
.	.	.	.	.	.	16ccc#X\	.	.	.	.	.	.	.	.	.	.	.	.	.
.	.	.	.	.	.	16ddd\JJ)	.	.	.	.	.	.	.	.	.	.	.	.	.
4r	.	.	4r	.	.	(>16ccc#\LL	.	.	.	.	.	.	.	.	.	.	.	.	.
.	.	.	.	.	.	16ddd\	.	.	.	.	.	.	.	.	.	.	.	.	.
.	.	.	.	.	.	16eee\	.	.	.	.	.	.	.	.	.	.	.	.	.
.	.	.	.	.	.	16ddd\JJ)	.	.	.	.	.	.	.	.	.	.	.	.	.
=99	=99	=99	=99	=99	=99	=99	=99	=99	=99	=99	=99	=99	=99	=99	=99	=99	=99	=99	=99
*tremolo	*	*	*tremolo	*	*	*	*	*	*	*	*	*	*	*	*	*	*	*	*
!	!	!	!	!	!	!LO:SIC:s=16qqccc#/	!	!	!	!	!	!	!	!	!	!	!	!	!
.	.	.	.	.	.	16qqccc/	.	.	.	.	.	.	.	.	.	.	.	.	.
8B\L	6	.	8d\L	.	2.ryy	(>4.ddd\	.	2.ryy	2.ryy	2.ryy	.	.	2.ryy	2.ryy	2.ryy	2.ryy	2.ryy	2.ryy	2.ryy
8B\	.	.	8d\	.	.	.	.	.	.	.	.	.	.	.	.	.	.	.	.
8B\	.	.	8d\	.	.	.	.	.	.	.	.	.	.	.	.	.	.	.	.
8B\	.	.	8d\	.	.	16eee\LL	.	.	.	.	.	.	.	.	.	.	.	.	.
.	.	.	.	.	.	16ddd\JJ)	.	.	.	.	.	.	.	.	.	.	.	.	.
8B\	.	.	8d\	.	.	(>16ccc\LL	.	.	.	.	.	.	.	.	.	.	.	.	.
.	.	.	.	.	.	16bb\	.	.	.	.	.	.	.	.	.	.	.	.	.
8B\J	.	.	8d\J	.	.	16aa\	.	.	.	.	.	.	.	.	.	.	.	.	.
.	.	.	.	.	.	16gg\JJ)	.	.	.	.	.	.	.	.	.	.	.	.	.
=100	=100	=100	=100	=100	=100	=100	=100	=100	=100	=100	=100	=100	=100	=100	=100	=100	=100	=100	=100
!	!	!	!	!	!	!	!	!	!	!	!LO:N:vis=00	!	!	!	!	!	!	!	!
8c\L	6	.	8e\L	.	2.ryy	(>16bb\LL	.	2.ryy	2.ryy	2.ryy	0.r	.	2.ryy	2.ryy	2.ryy	2.ryy	2.ryy	2.ryy	2.ryy
.	.	.	.	.	.	16aa\	.	.	.	.	.	.	.	.	.	.	.	.	.
8c\	.	.	8e\	.	.	16gg#X\	.	.	.	.	.	.	.	.	.	.	.	.	.
.	.	.	.	.	.	16aa\JJ)	.	.	.	.	.	.	.	.	.	.	.	.	.
8c\	.	.	8e\	.	.	4.aaT\	.	.	.	.	.	.	.	.	.	.	.	.	.
8c\	.	.	8e\	.	.	.	.	.	.	.	.	.	.	.	.	.	.	.	.
8c\	.	.	8e\	.	.	.	.	.	.	.	.	.	.	.	.	.	.	.	.
8c\J	.	.	8e\J	.	.	16bb\LL	.	.	.	.	.	.	.	.	.	.	.	.	.
.	.	.	.	.	.	16ccc\JJ	.	.	.	.	.	.	.	.	.	.	.	.	.
*Xtremolo	*	*	*Xtremolo	*	*	*	*	*	*	*	*	*	*	*	*	*	*	*	*
!	!	!	!LO:LB:g=original	!	!	!	!	!	!	!	!	!	!	!	!	!	!	!	!
=101	=101	=101	=101	=101	=101	=101	=101	=101	=101	=101	=101	=101	=101	=101	=101	=101	=101	=101	=101
8B\L	6	.	8d\L	.	2.ryy	(>16bb\LL	.	2.ryy	2.ryy	2.ryy	.	.	2.ryy	2.ryy	2.ryy	2.ryy	2.ryy	2.ryy	2.ryy
.	.	.	.	.	.	16gg\)	.	.	.	.	.	.	.	.	.	.	.	.	.
!	!	!	!LO:MO:mod=8e	!	!	!	!	!	!	!	!	!	!	!	!	!	!	!	!
8c\	6	.	8e\J	.	.	(>16ccc\	.	.	.	.	.	.	.	.	.	.	.	.	.
.	.	.	.	.	.	16aa\JJ)	.	.	.	.	.	.	.	.	.	.	.	.	.
!	!	!	!LO:MO:mod=8d	!	!	!	!	!	!	!	!	!	!	!	!	!	!	!	!
8d\	4	.	8d/L	.	.	8.gg\L	.	.	.	.	.	.	.	.	.	.	.	.	.
8d\	.	.	8B/	.	.	.	.	.	.	.	.	.	.	.	.	.	.	.	.
.	.	.	.	.	.	16aa\Jk	.	.	.	.	.	.	.	.	.	.	.	.	.
8D\	3	.	8c/	.	.	4aaT\	.	.	.	.	.	.	.	.	.	.	.	.	.
8D\J	.	.	8A/J	.	.	.	.	.	.	.	.	.	.	.	.	.	.	.	.
!	!	!	!	!	!	!LO:LB:g=original	!	!	!	!	!	!	!	!	!	!	!	!	!
=102	=102	=102	=102	=102	=102	=102	=102	=102	=102	=102	=102	=102	=102	=102	=102	=102	=102	=102	=102
!	!	!	!	!	!	!LO:TUP:a	!	!	!	!	!	!	!	!	!	!	!	!	!
4E\	.	.	4B/	.	2.ryy	(>24gg\LL	.	2.ryy	2.ryy	2.ryy	.	.	2.ryy	2.ryy	2.ryy	2.ryy	2.ryy	2.ryy	2.ryy
.	.	.	.	.	.	24bb\	.	.	.	.	.	.	.	.	.	.	.	.	.
.	.	.	.	.	.	24aa\JJ)	.	.	.	.	.	.	.	.	.	.	.	.	.
!	!	!	!	!	!	!LO:TUP:a	!	!	!	!	!	!	!	!	!	!	!	!	!
.	.	.	.	.	.	(>24gg\LL	.	.	.	.	.	.	.	.	.	.	.	.	.
.	.	.	.	.	.	24bb\	.	.	.	.	.	.	.	.	.	.	.	.	.
.	.	.	.	.	.	24aa\JJ)	.	.	.	.	.	.	.	.	.	.	.	.	.
!	!	!	!	!	!	!LO:TUP:a	!	!	!	!	!	!	!	!	!	!	!	!	!
4r	.	.	4r	.	.	(>24gg\LL	.	.	.	.	.	.	.	.	.	.	.	.	.
.	.	.	.	.	.	24bb\	.	.	.	.	.	.	.	.	.	.	.	.	.
.	.	.	.	.	.	24aa\JJ)	.	.	.	.	.	.	.	.	.	.	.	.	.
!	!	!	!	!	!	!LO:TUP:a	!	!	!	!	!	!	!	!	!	!	!	!	!
.	.	.	.	.	.	(>24gg\LL	.	.	.	.	.	.	.	.	.	.	.	.	.
.	.	.	.	.	.	24ff#\	.	.	.	.	.	.	.	.	.	.	.	.	.
.	.	.	.	.	.	24ee\JJ)	.	.	.	.	.	.	.	.	.	.	.	.	.
!	!	!	!	!	!	!LO:TUP:a	!	!	!	!	!	!	!	!	!	!	!	!	!
4r	.	.	4r	.	.	(>24dd\LL	.	.	.	.	.	.	.	.	.	.	.	.	.
.	.	.	.	.	.	24cc\	.	.	.	.	.	.	.	.	.	.	.	.	.
.	.	.	.	.	.	24b\JJ)	.	.	.	.	.	.	.	.	.	.	.	.	.
!	!	!	!	!	!	!LO:TUP:b	!	!	!	!	!	!	!	!	!	!	!	!	!
.	.	.	.	.	.	(<24a/LL	.	.	.	.	.	.	.	.	.	.	.	.	.
.	.	.	.	.	.	24g/	.	.	.	.	.	.	.	.	.	.	.	.	.
.	.	.	.	.	.	24f#/JJ)	.	.	.	.	.	.	.	.	.	.	.	.	.
=103	=103	=103	=103	=103	=103	=103	=103	=103	=103	=103	=103	=103	=103	=103	=103	=103	=103	=103	=103
!	!	!	!	!	!	!LO:TX:a:t=P:problem=mixed beam	!	!	!	!	!	!	!	!	!	!	!	!	!
!	!	!	!	!	!	!LO:TUP:a	!	!	!	!	!	!	!	!	!	!	!	!	!
8r	.	.	8r	.	2.ryy	(>24e/LL	.	2.ryy	2.ryy	2.ryy	.	.	2.ryy	2.ryy	2.ryy	2.ryy	2.ryy	2.ryy	2.ryy
.	.	.	.	.	.	24dd#X\	.	.	.	.	.	.	.	.	.	.	.	.	.
.	.	.	.	.	.	24ee\JJ)	.	.	.	.	.	.	.	.	.	.	.	.	.
!	!	!	!	!	!	!LO:TUP:a	!	!	!	!	!	!	!	!	!	!	!	!	!
8G\L|	.	.	8g\L	.	.	(>24g\LL	.	.	.	.	.	.	.	.	.	.	.	.	.
.	.	.	.	.	.	24ff#\	.	.	.	.	.	.	.	.	.	.	.	.	.
.	.	.	.	.	.	24gg\JJ)	.	.	.	.	.	.	.	.	.	.	.	.	.
!	!	!	!	!	!	!LO:TX:a:t=P:problem=mixed beam	!	!	!	!	!	!	!	!	!	!	!	!	!
!	!	!	!	!	!	!LO:TUP:a	!	!	!	!	!	!	!	!	!	!	!	!	!
8E\|	.	.	8e\	.	.	(>24e/LL	.	.	.	.	.	.	.	.	.	.	.	.	.
.	.	.	.	.	.	24dd#\	.	.	.	.	.	.	.	.	.	.	.	.	.
.	.	.	.	.	.	24ee\JJ)	.	.	.	.	.	.	.	.	.	.	.	.	.
!	!	!	!	!	!	!LO:TUP:a	!	!	!	!	!	!	!	!	!	!	!	!	!
8G\|	.	.	8g\	.	.	(>24g\LL	.	.	.	.	.	.	.	.	.	.	.	.	.
.	.	.	.	.	.	24ff#\	.	.	.	.	.	.	.	.	.	.	.	.	.
.	.	.	.	.	.	24gg\JJ)	.	.	.	.	.	.	.	.	.	.	.	.	.
!	!	!	!	!	!	!LO:TX:a:t=P:problem=mixed beam	!	!	!	!	!	!	!	!	!	!	!	!	!
!	!	!	!	!	!	!LO:TUP:a	!	!	!	!	!	!	!	!	!	!	!	!	!
8E\|	.	.	8e\	.	.	(>24e/LL	.	.	.	.	.	.	.	.	.	.	.	.	.
.	.	.	.	.	.	24dd#\	.	.	.	.	.	.	.	.	.	.	.	.	.
.	.	.	.	.	.	24ee\JJ)	.	.	.	.	.	.	.	.	.	.	.	.	.
!	!	!	!	!	!	!LO:TX:a:t=P:problem=mixed beam	!	!	!	!	!	!	!	!	!	!	!	!	!
!	!	!	!	!	!	!LO:TUP:a	!	!	!	!	!	!	!	!	!	!	!	!	!
8C#X\J|	.	.	8c#X\J	.	.	(>24c#X/LL	.	.	.	.	.	.	.	.	.	.	.	.	.
.	.	.	.	.	.	24b\	.	.	.	.	.	.	.	.	.	.	.	.	.
!	!	!	!	!	!	!LO:SIC:s=24cc#\JJ)	!	!	!	!	!	!	!	!	!	!	!	!	!
.	.	.	.	.	.	24cc\JJ)	.	.	.	.	.	.	.	.	.	.	.	.	.
=104	=104	=104	=104	=104	=104	=104	=104	=104	=104	=104	=104	=104	=104	=104	=104	=104	=104	=104	=104
!	!	!	!	!	!	!LO:TX:a:t=P:problem=mixed beam	!	!	!	!	!LO:N:vis=0	!	!	!	!	!	!	!	!
!	!	!	!	!	!	!LO:TUP:a	!	!	!	!	!	!	!	!	!	!	!	!	!
4D\|	.	.	4d\	.	2.ryy	(>24dn/LL	.	2.ryy	2.ryy	2.ryy	1.r	.	2.ryy	2.ryy	2.ryy	2.ryy	2.ryy	2.ryy	2.ryy
.	.	.	.	.	.	24cc#X\	.	.	.	.	.	.	.	.	.	.	.	.	.
.	.	.	.	.	.	24dd\JJ)	.	.	.	.	.	.	.	.	.	.	.	.	.
!	!	!	!	!	!	!LO:TUP:a	!	!	!	!	!	!	!	!	!	!	!	!	!
.	.	.	.	.	.	(>24ee\LL	.	.	.	.	.	.	.	.	.	.	.	.	.
.	.	.	.	.	.	24ff#\	.	.	.	.	.	.	.	.	.	.	.	.	.
.	.	.	.	.	.	24gg\JJ)	.	.	.	.	.	.	.	.	.	.	.	.	.
!	!	!	!	!	!	!LO:LB:g=original	!	!	!	!	!	!	!	!	!	!	!	!	!
!	!	!	!	!	!	!LO:TUP:a	!	!	!	!	!	!	!	!	!	!	!	!	!
4r	.	.	4r	.	.	(>24aa\LL	.	.	.	.	.	.	.	.	.	.	.	.	.
.	.	.	.	.	.	24ccc\	.	.	.	.	.	.	.	.	.	.	.	.	.
.	.	.	.	.	.	24bb\JJ)	.	.	.	.	.	.	.	.	.	.	.	.	.
!	!	!	!	!	!	!LO:TUP:a	!	!	!	!	!	!	!	!	!	!	!	!	!
.	.	.	.	.	.	(>24aa\LL	.	.	.	.	.	.	.	.	.	.	.	.	.
.	.	.	.	.	.	24ccc\	.	.	.	.	.	.	.	.	.	.	.	.	.
.	.	.	.	.	.	24bb\JJ)	.	.	.	.	.	.	.	.	.	.	.	.	.
!	!	!	!	!	!	!LO:TUP:a	!	!	!	!	!	!	!	!	!	!	!	!	!
4r	.	.	4r	.	.	(>24aa\LL	.	.	.	.	.	.	.	.	.	.	.	.	.
.	.	.	.	.	.	24bb\	.	.	.	.	.	.	.	.	.	.	.	.	.
.	.	.	.	.	.	24ccc\JJ)	.	.	.	.	.	.	.	.	.	.	.	.	.
!	!	!	!	!	!	!LO:TUP:a	!	!	!	!	!	!	!	!	!	!	!	!	!
.	.	.	.	.	.	(>24ddd\LL	.	.	.	.	.	.	.	.	.	.	.	.	.
.	.	.	.	.	.	24bb\	.	.	.	.	.	.	.	.	.	.	.	.	.
.	.	.	.	.	.	24gg\JJ)	.	.	.	.	.	.	.	.	.	.	.	.	.
=105	=105	=105	=105	=105	=105	=105	=105	=105	=105	=105	=105	=105	=105	=105	=105	=105	=105	=105	=105
8d\L	4_	.	8g\L	.	2.ryy	2.aaT\	.	2.ryy	2.ryy	2.ryy	.	.	2.ryy	2.ryy	2.ryy	2.ryy	2.ryy	2.ryy	2.ryy
8d\	.	.	8g\	.	.	.	.	.	.	.	.	.	.	.	.	.	.	.	.
8d\	.	.	8g\	.	.	.	.	.	.	.	.	.	.	.	.	.	.	.	.
8d\	.	.	8g\	.	.	.	.	.	.	.	.	.	.	.	.	.	.	.	.
8D\	3	.	8f#\	.	.	.	.	.	.	.	.	.	.	.	.	.	.	.	.
8D\J	.	.	8f#\J	.	.	.	.	.	.	.	.	.	.	.	.	.	.	.	.
=106	=106	=106	=106	=106	=106	=106	=106	=106	=106	=106	=106	=106	=106	=106	=106	=106	=106	=106	=106
*	*	*	*	*	*	*Xtuplet	*	*	*	*	*	*	*	*	*	*	*	*	*
!	!	!	!	!	!LO:TX:b:B:i:t=Verte Agnus:mod=	!	!	!	!	!	!	!	!	!	!	!	!	!	!
!	!	!	!LO:TUP:a	!	!LO:TX:a:B:i:t=Osanna ut Pleni Si tibi Placet:mod=	!LO:TX:a:t=P:problem=mixed beam	!	!	!	!	!	!	!	!LO:TX:b:t=Verte Agnus	!	!	!	!	!
!	!	!	!	!	!	!LO:MO:mod=(24ggLL	!	!	!	!	!	!	!	!	!	!	!	!	!
4G\	.	.	(>24g\LL	.	2.ryy	24gg\LL	.	2.ryy	2.ryy	2.ryy	2.r	.	2.ryy	2.ryy	2.ryy	2.ryy	2.ryy	2.ryy	2.ryy
.	.	.	24B\	.	.	24g/	.	.	.	.	.	.	.	.	.	.	.	.	.
!	!	!	!	!	!	!LO:MO:mod=24bJJ)	!	!	!	!	!	!	!	!	!	!	!	!	!
.	.	.	24d\JJ)	.	.	24b/JJ	.	.	.	.	.	.	.	.	.	.	.	.	.
!	!	!	!LO:TUP:a	!	!	!LO:MO:mod=(24ddLL	!	!	!	!	!	!	!	!	!	!	!	!	!
.	.	.	(>24g\LL	.	.	24dd\LL	.	.	.	.	.	.	.	.	.	.	.	.	.
.	.	.	24b\	.	.	24gg\	.	.	.	.	.	.	.	.	.	.	.	.	.
!	!	!	!	!	!	!LO:MO:mod=24bbJJ)	!	!	!	!	!	!	!	!	!	!	!	!	!
.	.	.	24dd\JJ)	.	.	24bb\JJ	.	.	.	.	.	.	.	.	.	.	.	.	.
4GG/	.	.	4b\	.	.	4gg\	.	.	.	.	.	.	.	.	.	.	.	.	.
4r	.	.	4r	.	.	4r	.	.	.	.	.	.	.	.	.	.	.	.	.
!	!	!	!	!	!	!LO:TX:b:i:B:t=Oʃanna ut Pleni\nSi tibi Placet:mod=	!	!	!	!	!	!	!	!	!	!	!	!	!
==	==	==	==	==	==	==	==	==	==	==	==	==	==	==	==	==	==	==	==
*-	*-	*-	*-	*-	*-	*-	*-	*-	*-	*-	*-	*-	*-	*-	*-	*-	*-	*-	*-
!!!system-decoration: [(g1)][(g2)]<s7>[(g3)][(g4)]<s15>
!!!RDF**kern: > = above
!!!RDF**kern: < = below
!!!RDF**kern: | = vertical stroke
!!!RDF**dynam: p = "pio:"
!!!RDF**dynam: f = "for:"
!!!ENC: Andrzej Kubiczek
!!!END: 2020-06-30
!!!ENC: Wojciech Jakubiak-Danek
!!!END: 2021-11-24
!!!EED-revision: Marta Lawrence
!!!EEV-revision: 2025-03-03
!!!ENC-modern: Marta Lawrence
!!!END-modern: 2025-03-12
!!!filter-modern: sic -sq | tie -s | autostem -r | humtr -p | shed -e "s/yy//" | shed -k -e "s/([^a-gA-Gn#X-])[<>]/$1/g" | shed -e "s/^(X?)rep$/$1REP/I" | shed -e "s/LO:DY:/LO:dy:$1/L" | shed -e "s/LO:TUP:/LO:tup:$1/L" | shed -e "s/Xtuplet/tuplet/I" | shed -e "s/TX(.*):t=P:/tx$1:t=P:/LG" | shed -e "s/^(\d+[\/\\]right)/$1yy/I; s/^(\d+[\/\\]left)/$1yy/I" | shed -e "s/LO:N:/LO:n:$1/L" | modori -m
